<?xml version="1.0" encoding="UTF-8"?>
<map version="1.10" tiledversion="1.12.0" orientation="orthogonal" renderorder="right-down" width="120" height="80" tilewidth="32" tileheight="32" infinite="0" nextlayerid="8" nextobjectid="1">
 <editorsettings>
  <export target="res/maps/Harta3.csv" format="csv"/>
 </editorsettings>
 <tileset firstgid="1" source="../../../Downloads/paoo-proiect-asultanei_ursachi/paoo-proiect-asultanei_ursachi-Camera/res/textures/Tileset_mai_mic.tsx"/>
 <layer id="1" name="grass" width="120" height="80">
  <data encoding="csv">
3,3,3,3,3,3,3,3,3,3,3,3,3,3,3,3,3,3,3,3,3,3,3,3,3,3,3,3,3,3,3,3,3,3,3,3,3,3,3,3,3,3,3,3,3,3,3,3,3,3,3,3,3,3,3,3,3,3,3,3,3,3,3,3,3,3,3,3,3,3,3,3,3,3,3,3,3,3,3,3,3,3,3,3,3,3,3,3,3,3,3,3,3,3,3,3,3,3,3,3,3,3,3,3,3,3,3,3,3,3,3,3,3,3,3,3,3,3,3,3,
3,3,3,3,3,3,3,3,3,3,3,3,3,3,3,3,3,3,3,3,3,3,3,3,3,3,3,3,3,3,3,3,3,3,3,3,3,3,3,3,3,3,3,3,3,3,3,3,3,3,3,3,3,3,3,3,3,3,3,3,3,3,3,3,3,3,3,3,3,3,3,3,3,3,3,3,3,3,3,3,3,3,3,3,3,3,3,3,3,3,3,3,3,3,3,3,3,3,3,3,3,3,3,3,3,3,3,3,3,3,3,3,3,3,3,3,3,3,3,3,
3,3,3,3,3,3,3,3,3,3,3,3,3,3,3,3,3,3,3,3,3,3,3,3,3,3,3,3,3,3,3,3,3,3,3,3,3,3,3,3,3,3,3,3,3,3,3,3,3,3,3,3,3,3,3,3,3,3,3,3,3,3,3,3,3,3,3,3,3,3,3,3,3,3,3,3,3,3,3,3,3,3,3,3,3,3,3,3,3,3,3,3,3,3,3,3,3,3,3,3,3,3,3,3,3,3,3,3,3,3,3,3,3,3,3,3,3,3,3,3,
3,3,3,3,3,3,3,3,3,3,3,3,3,3,3,3,3,3,3,3,3,3,3,3,3,3,3,3,3,3,3,3,3,3,3,3,3,3,3,3,3,3,3,3,3,3,3,3,3,3,3,3,3,3,3,3,3,3,3,3,3,3,3,3,3,3,3,3,3,3,3,3,3,3,3,3,3,3,3,3,3,3,3,3,3,3,3,3,3,3,3,3,3,3,3,3,3,3,3,3,3,3,3,3,3,3,3,3,3,3,3,3,3,3,3,3,3,3,3,3,
3,3,3,3,3,3,3,3,3,3,3,3,3,3,3,3,3,3,3,3,3,3,3,3,3,3,3,3,3,3,3,3,3,3,3,3,3,3,3,3,3,3,3,3,3,3,3,3,3,3,3,3,3,3,3,3,3,3,3,3,3,3,3,3,3,3,3,3,3,3,3,3,3,3,3,3,3,3,3,3,3,3,3,3,3,3,3,3,3,3,3,3,3,3,3,3,3,3,3,3,3,3,3,3,3,3,3,3,3,3,3,3,3,3,3,3,3,3,3,3,
3,3,3,3,3,3,3,3,3,3,3,3,3,3,3,3,3,3,3,3,3,3,3,3,3,3,3,3,3,3,3,3,3,3,3,3,3,3,3,3,3,3,3,3,3,3,3,3,3,3,3,3,3,3,3,3,3,3,3,3,3,3,3,3,3,3,3,3,3,3,3,3,3,3,3,3,3,3,3,3,3,3,3,3,3,3,3,3,3,3,3,3,3,3,3,3,3,3,3,3,3,3,3,3,3,3,3,3,3,3,3,3,3,3,3,3,3,3,3,3,
3,3,3,3,3,3,3,3,3,3,3,3,3,3,3,3,3,3,3,3,3,3,3,3,3,3,3,3,3,3,3,3,3,3,3,3,3,3,3,3,3,3,3,3,3,3,3,3,3,3,3,3,3,3,3,3,3,3,3,3,3,3,3,3,3,3,3,3,3,3,3,3,3,3,3,3,3,3,3,3,3,3,3,3,3,3,3,3,3,3,3,3,3,3,3,3,3,3,3,3,3,3,3,3,3,3,3,3,3,3,3,3,3,3,3,3,3,3,3,3,
3,3,3,3,3,3,3,3,3,3,3,3,3,3,3,3,3,3,3,3,3,3,3,3,3,3,3,3,3,3,3,3,3,3,3,3,3,3,3,3,3,3,3,3,3,3,3,3,3,3,3,3,3,3,3,3,3,3,3,3,3,3,3,3,3,3,3,3,3,3,3,3,3,3,3,3,3,3,3,3,3,3,3,3,3,3,3,3,3,3,3,3,3,3,3,3,3,3,3,3,3,3,3,3,3,3,3,3,3,3,3,3,3,3,3,3,3,3,3,3,
3,3,3,3,3,3,3,3,3,3,3,3,3,3,3,3,3,3,3,3,3,3,3,3,3,3,3,3,3,3,3,3,3,3,3,3,3,3,3,3,3,3,3,3,3,3,3,3,3,3,3,3,3,3,3,3,3,3,3,3,3,3,3,3,3,3,3,3,3,3,3,3,3,3,3,3,3,3,3,3,3,3,3,3,3,3,3,3,3,3,3,3,3,3,3,3,3,3,3,3,3,3,3,3,3,3,3,3,3,3,3,3,3,3,3,3,3,3,3,3,
3,3,3,3,3,3,3,3,3,3,3,3,3,3,3,3,3,3,3,3,3,3,3,3,3,3,3,3,3,3,3,3,3,3,3,3,3,3,3,3,3,3,3,3,3,3,3,3,3,3,3,3,3,3,3,3,3,3,3,3,3,3,3,3,3,3,3,3,3,3,3,3,3,3,3,3,3,3,3,3,3,3,3,3,3,3,3,3,3,3,3,3,3,3,3,3,3,3,3,3,3,3,3,3,3,3,3,3,3,3,3,3,3,3,3,3,3,3,3,3,
3,3,3,3,3,3,3,3,3,3,3,3,3,3,3,3,3,3,3,3,3,3,3,3,3,3,3,3,3,3,3,3,3,3,3,3,3,3,3,3,3,3,3,3,3,3,3,3,3,3,3,3,3,3,3,3,3,3,3,3,3,3,3,3,3,3,3,3,3,3,3,3,3,3,3,3,3,3,3,3,3,3,3,3,3,3,3,3,3,3,3,3,3,3,3,3,3,3,3,3,3,3,3,3,3,3,3,3,3,3,3,3,3,3,3,3,3,3,3,3,
3,3,3,3,3,3,3,3,3,3,3,3,3,3,3,3,3,3,3,3,3,3,3,3,3,3,3,3,3,3,3,3,3,3,3,3,3,3,3,3,3,3,3,3,3,3,3,3,3,3,3,3,3,3,3,3,3,3,3,3,3,3,3,3,3,3,3,3,3,3,3,3,3,3,3,3,3,3,3,3,3,3,3,3,3,3,3,3,3,3,3,3,3,3,3,3,3,3,3,3,3,3,3,3,3,3,3,3,3,3,3,3,3,3,3,3,3,3,3,3,
3,3,3,3,3,3,3,3,3,3,3,3,3,3,3,3,3,3,3,3,3,3,3,3,3,3,3,3,3,3,3,3,3,3,3,3,3,3,3,3,3,3,3,3,3,3,3,3,3,3,3,3,3,3,3,3,3,3,3,3,3,3,3,3,3,3,3,3,3,3,3,3,3,3,3,3,3,3,3,3,3,3,3,3,3,3,3,3,3,3,3,3,3,3,3,3,3,3,3,3,3,3,3,3,3,3,3,3,3,3,3,3,3,3,3,3,3,3,3,3,
3,3,3,3,3,3,3,3,3,3,3,3,3,3,3,3,3,3,3,3,3,3,3,3,3,3,3,3,3,3,3,3,3,3,3,3,3,3,3,3,3,3,3,3,3,3,3,3,3,3,3,3,3,3,3,3,3,3,3,3,3,3,3,3,3,3,3,3,3,3,3,3,3,3,3,3,3,3,3,3,3,3,3,3,3,3,3,3,3,3,3,3,3,3,3,3,3,3,3,3,3,3,3,3,3,3,3,3,3,3,3,3,3,3,3,3,3,3,3,3,
3,3,3,3,3,3,3,3,3,3,3,3,3,3,3,3,3,3,3,3,3,3,3,3,3,3,3,3,3,3,3,3,3,3,3,3,3,3,3,3,3,3,3,3,3,3,3,3,3,3,3,3,3,3,3,3,3,3,3,3,3,3,3,3,3,3,3,3,3,3,3,3,3,3,3,3,3,3,3,3,3,3,3,3,3,3,3,3,3,3,3,3,3,3,3,3,3,3,3,3,3,3,3,3,3,3,3,3,3,3,3,3,3,3,3,3,3,3,3,3,
3,3,3,3,3,3,3,3,3,3,3,3,3,3,3,3,3,3,3,3,3,3,3,3,3,3,3,3,3,3,3,3,3,3,3,3,3,3,3,3,3,3,3,3,3,3,3,3,3,3,3,3,3,3,3,3,3,3,3,3,3,3,3,3,3,3,3,3,3,3,3,3,3,3,3,3,3,3,3,3,3,3,3,3,3,3,3,3,3,3,3,3,3,3,3,3,3,3,3,3,3,3,3,3,3,3,3,3,3,3,3,3,3,3,3,3,3,3,3,3,
3,3,3,3,3,3,3,3,3,3,3,3,3,3,3,3,3,3,3,3,3,3,3,3,3,3,3,3,3,3,3,3,3,3,3,3,3,3,3,3,3,3,3,3,3,3,3,3,3,3,3,3,3,3,3,3,3,3,3,3,3,3,3,3,3,3,3,3,3,3,3,3,3,3,3,3,3,3,3,3,3,3,3,3,3,3,3,3,3,3,3,3,3,3,3,3,3,3,3,3,3,3,3,3,3,3,3,3,3,3,3,3,3,3,3,3,3,3,3,3,
3,3,3,3,3,3,3,3,3,3,3,3,3,3,3,3,3,3,3,3,3,3,3,3,3,3,3,3,3,3,3,3,3,3,3,3,3,3,3,3,3,3,3,3,3,3,3,3,3,3,3,3,3,3,3,3,3,3,3,3,3,3,3,3,3,3,3,3,3,3,3,3,3,3,3,3,3,3,3,3,3,3,3,3,3,3,3,3,3,3,3,3,3,3,3,3,3,3,3,3,3,3,3,3,3,3,3,3,3,3,3,3,3,3,3,3,3,3,3,3,
3,3,3,3,3,3,3,3,3,3,3,3,3,3,3,3,3,3,3,3,3,3,3,3,3,3,3,3,3,3,3,3,3,3,3,3,3,3,3,3,3,3,3,3,3,3,3,3,3,3,3,3,3,3,3,3,3,3,3,3,3,3,3,3,3,3,3,3,3,3,3,3,3,3,3,3,3,3,3,3,3,3,3,3,3,3,3,3,3,3,3,3,3,3,3,3,3,3,3,3,3,3,3,3,3,3,3,3,3,3,3,3,3,3,3,3,3,3,3,3,
3,3,3,3,3,3,3,3,3,3,3,3,3,3,3,3,3,3,3,3,3,3,3,3,3,3,3,3,3,3,3,3,3,3,3,3,3,3,3,3,3,3,3,3,3,3,3,3,3,3,3,3,3,3,3,3,3,3,3,3,3,3,3,3,3,3,3,3,3,3,3,3,3,3,3,3,3,3,3,3,3,3,3,3,3,3,3,3,3,3,3,3,3,3,3,3,3,3,3,3,3,3,3,3,3,3,3,3,3,3,3,3,3,3,3,3,3,3,3,3,
3,3,3,3,3,3,3,3,3,3,3,3,3,3,3,3,3,3,3,3,3,3,3,3,3,3,3,3,3,3,3,3,3,3,3,3,3,3,3,3,3,3,3,3,3,3,3,3,3,3,3,3,3,3,3,3,3,3,3,3,3,3,3,3,3,3,3,3,3,3,3,3,3,3,3,3,3,3,3,3,3,3,3,3,3,3,3,3,3,3,3,3,3,3,3,3,3,3,3,3,3,3,3,3,3,3,3,3,3,3,3,3,3,3,3,3,3,3,3,3,
3,3,3,3,3,3,3,3,3,3,3,3,3,3,3,3,3,3,3,3,3,3,3,3,3,3,3,3,3,3,3,3,3,3,3,3,3,3,3,3,3,3,3,3,3,3,3,3,3,3,3,3,3,3,3,3,3,3,3,3,3,3,3,3,3,3,3,3,3,3,3,3,3,3,3,3,3,3,3,3,3,3,3,3,3,3,3,3,3,3,3,3,3,3,3,3,3,3,3,3,3,3,3,3,3,3,3,3,3,3,3,3,3,3,3,3,3,3,3,3,
3,3,3,3,3,3,3,3,3,3,3,3,3,3,3,3,3,3,3,3,3,3,3,3,3,3,3,3,3,3,3,3,3,3,3,3,3,3,3,3,3,3,3,3,3,3,3,3,3,3,3,3,3,3,3,3,3,3,3,3,3,3,3,3,3,3,3,3,3,3,3,3,3,3,3,3,3,3,3,3,3,3,3,3,3,3,3,3,3,3,3,3,3,3,3,3,3,3,3,3,3,3,3,3,3,3,3,3,3,3,3,3,3,3,3,3,3,3,3,3,
3,3,3,3,3,3,3,3,3,3,3,3,3,3,3,3,3,3,3,3,3,3,3,3,3,3,3,3,3,3,3,3,3,3,3,3,3,3,3,3,3,3,3,3,3,3,3,3,3,3,3,3,3,3,3,3,3,3,3,3,3,3,3,3,3,3,3,3,3,3,3,3,3,3,3,3,3,3,3,3,3,3,3,3,3,3,3,3,3,3,3,3,3,3,3,3,3,3,3,3,3,3,3,3,3,3,3,3,3,3,3,3,3,3,3,3,3,3,3,3,
3,3,3,3,3,3,3,3,3,3,3,3,3,3,3,3,3,3,3,3,3,3,3,3,3,3,3,3,3,3,3,3,3,3,3,3,3,3,3,3,3,3,3,3,3,3,3,3,3,3,3,3,3,3,3,3,3,3,3,3,3,3,3,3,3,3,3,3,3,3,3,3,3,3,3,3,3,3,3,3,3,3,3,3,3,3,3,3,3,3,3,3,3,3,3,3,3,3,3,3,3,3,3,3,3,3,3,3,3,3,3,3,3,3,3,3,3,3,3,3,
3,3,3,3,3,3,3,3,3,3,3,3,3,3,3,3,3,3,3,3,3,3,3,3,3,3,3,3,3,3,3,3,3,3,3,3,3,3,3,3,3,3,3,3,3,3,3,3,3,3,3,3,3,3,3,3,3,3,3,3,3,3,3,3,3,3,3,3,3,3,3,3,3,3,3,3,3,3,3,3,3,3,3,3,3,3,3,3,3,3,3,3,3,3,3,3,3,3,3,3,3,3,3,3,3,3,3,3,3,3,3,3,3,3,3,3,3,3,3,3,
3,3,3,3,3,3,3,3,3,3,3,3,3,3,3,3,3,3,3,3,3,3,3,3,3,3,3,3,3,3,3,3,3,3,3,3,3,3,3,3,3,3,3,3,3,3,3,3,3,3,3,3,3,3,3,3,3,3,3,3,3,3,3,3,3,3,3,3,3,3,3,3,3,3,3,3,3,3,3,3,3,3,3,3,3,3,3,3,3,3,3,3,3,3,3,3,3,3,3,3,3,3,3,3,3,3,3,3,3,3,3,3,3,3,3,3,3,3,3,3,
3,3,3,3,3,3,3,3,3,3,3,3,3,3,3,3,3,3,3,3,3,3,3,3,3,3,3,3,3,3,3,3,3,3,3,3,3,3,3,3,3,3,3,3,3,3,3,3,3,3,3,3,3,3,3,3,3,3,3,3,3,3,3,3,3,3,3,3,3,3,3,3,3,3,3,3,3,3,3,3,3,3,3,3,3,3,3,3,3,3,3,3,3,3,3,3,3,3,3,3,3,3,3,3,3,3,3,3,3,3,3,3,3,3,3,3,3,3,3,3,
3,3,3,3,3,3,3,3,3,3,3,3,3,3,3,3,3,3,3,3,3,3,3,3,3,3,3,3,3,3,3,3,3,3,3,3,3,3,3,3,3,3,3,3,3,3,3,3,3,3,3,3,3,3,3,3,3,3,3,3,3,3,3,3,3,3,3,3,3,3,3,3,3,3,3,3,3,3,3,3,3,3,3,3,3,3,3,3,3,3,3,3,3,3,3,3,3,3,3,3,3,3,3,3,3,3,3,3,3,3,3,3,3,3,3,3,3,3,3,3,
3,3,3,3,3,3,3,3,3,3,3,3,3,3,3,3,3,3,3,3,3,3,3,3,3,3,3,3,3,3,3,3,3,3,3,3,3,3,3,3,3,3,3,3,3,3,3,3,3,3,3,3,3,3,3,3,3,3,3,3,3,3,3,3,3,3,3,3,3,3,3,3,3,3,3,3,3,3,3,3,3,3,3,3,3,3,3,3,3,3,3,3,3,3,3,3,3,3,3,3,3,3,3,3,3,3,3,3,3,3,3,3,3,3,3,3,3,3,3,3,
3,3,3,3,3,3,3,3,3,3,3,3,3,3,3,3,3,3,3,3,3,3,3,3,3,3,3,3,3,3,3,3,3,3,3,3,3,3,3,3,3,3,3,3,3,3,3,3,3,3,3,3,3,3,3,3,3,3,3,3,3,3,3,3,3,3,3,3,3,3,3,3,3,3,3,3,3,3,3,3,3,3,3,3,3,3,3,3,3,3,3,3,3,3,3,3,3,3,3,3,3,3,3,3,3,3,3,3,3,3,3,3,3,3,3,3,3,3,3,3,
3,3,3,3,3,3,3,3,3,3,3,3,3,3,3,3,3,3,3,3,3,3,3,3,3,3,3,3,3,3,3,3,3,3,3,3,3,3,3,3,3,3,3,3,3,3,3,3,3,3,3,3,3,3,3,3,3,3,3,3,3,3,3,3,3,3,3,3,3,3,3,3,3,3,3,3,3,3,3,3,3,3,3,3,3,3,3,3,3,3,3,3,3,3,3,3,3,3,3,3,3,3,3,3,3,3,3,3,3,3,3,3,3,3,3,3,3,3,3,3,
3,3,3,3,3,3,3,3,3,3,3,3,3,3,3,3,3,3,3,3,3,3,3,3,3,3,3,3,3,3,3,3,3,3,3,3,3,3,3,3,3,3,3,3,3,3,3,3,3,3,3,3,3,3,3,3,3,3,3,3,3,3,3,3,3,3,3,3,3,3,3,3,3,3,3,3,3,3,3,3,3,3,3,3,3,3,3,3,3,3,3,3,3,3,3,3,3,3,3,3,3,3,3,3,3,3,3,3,3,3,3,3,3,3,3,3,3,3,3,3,
3,3,3,3,3,3,3,3,3,3,3,3,3,3,3,3,3,3,3,3,3,3,3,3,3,3,3,3,3,3,3,3,3,3,3,3,3,3,3,3,3,3,3,3,3,3,3,3,3,3,3,3,3,3,3,3,3,3,3,3,3,3,3,3,3,3,3,3,3,3,3,3,3,3,3,3,3,3,3,3,3,3,3,3,3,3,3,3,3,3,3,3,3,3,3,3,3,3,3,3,3,3,3,3,3,3,3,3,3,3,3,3,3,3,3,3,3,3,3,3,
3,3,3,3,3,3,3,3,3,3,3,3,3,3,3,3,3,3,3,3,3,3,3,3,3,3,3,3,3,3,3,3,3,3,3,3,3,3,3,3,3,3,3,3,3,3,3,3,3,3,3,3,3,3,3,3,3,3,3,3,3,3,3,3,3,3,3,3,3,3,3,3,3,3,3,3,3,3,3,3,3,3,3,3,3,3,3,3,3,3,3,3,3,3,3,3,3,3,3,3,3,3,3,3,3,3,3,3,3,3,3,3,3,3,3,3,3,3,3,3,
3,3,3,3,3,3,3,3,3,3,3,3,3,3,3,3,3,3,3,3,3,3,3,3,3,3,3,3,3,3,3,3,3,3,3,3,3,3,3,3,3,3,3,3,3,3,3,3,3,3,3,3,3,3,3,3,3,3,3,3,3,3,3,3,3,3,3,3,3,3,3,3,3,3,3,3,3,3,3,3,3,3,3,3,3,3,3,3,3,3,3,3,3,3,3,3,3,3,3,3,3,3,3,3,3,3,3,3,3,3,3,3,3,3,3,3,3,3,3,3,
3,3,3,3,3,3,3,3,3,3,3,3,3,3,3,3,3,3,3,3,3,3,3,3,3,3,3,3,3,3,3,3,3,3,3,3,3,3,3,3,3,3,3,3,3,3,3,3,3,3,3,3,3,3,3,3,3,3,3,3,3,3,3,3,3,3,3,3,3,3,3,3,3,3,3,3,3,3,3,3,3,3,3,3,3,3,3,3,3,3,3,3,3,3,3,3,3,3,3,3,3,3,3,3,3,3,3,3,3,3,3,3,3,3,3,3,3,3,3,3,
3,3,3,3,3,3,3,3,3,3,3,3,3,3,3,3,3,3,3,3,3,3,3,3,3,3,3,3,3,3,3,3,3,3,3,3,3,3,3,3,3,3,3,3,3,3,3,3,3,3,3,3,3,3,3,3,3,3,3,3,3,3,3,3,3,3,3,3,3,3,3,3,3,3,3,3,3,3,3,3,3,3,3,3,3,3,3,3,3,3,3,3,3,3,3,3,3,3,3,3,3,3,3,3,3,3,3,3,3,3,3,3,3,3,3,3,3,3,3,3,
3,3,3,3,3,3,3,3,3,3,3,3,3,3,3,3,3,3,3,3,3,3,3,3,3,3,3,3,3,3,3,3,3,3,3,3,3,3,3,3,3,3,3,3,3,3,3,3,3,3,3,3,3,3,3,3,3,3,3,3,3,3,3,3,3,3,3,3,3,3,3,3,3,3,3,3,3,3,3,3,3,3,3,3,3,3,3,3,3,3,3,3,3,3,3,3,3,3,3,3,3,3,3,3,3,3,3,3,3,3,3,3,3,3,3,3,3,3,3,3,
3,3,3,3,3,3,3,3,3,3,3,3,3,3,3,3,3,3,3,3,3,3,3,3,3,3,3,3,3,3,3,3,3,3,3,3,3,3,3,3,3,3,3,3,3,3,3,3,3,3,3,3,3,3,3,3,3,3,3,3,3,3,3,3,3,3,3,3,3,3,3,3,3,3,3,3,3,3,3,3,3,3,3,3,3,3,3,3,3,3,3,3,3,3,3,3,3,3,3,3,3,3,3,3,3,3,3,3,3,3,3,3,3,3,3,3,3,3,3,3,
3,3,3,3,3,3,3,3,3,3,3,3,3,3,3,3,3,3,3,3,3,3,3,3,3,3,3,3,3,3,3,3,3,3,3,3,3,3,3,3,3,3,3,3,3,3,3,3,3,3,3,3,3,3,3,3,3,3,3,3,3,3,3,3,3,3,3,3,3,3,3,3,3,3,3,3,3,3,3,3,3,3,3,3,3,3,3,3,3,3,3,3,3,3,3,3,3,3,3,3,3,3,3,3,3,3,3,3,3,3,3,3,3,3,3,3,3,3,3,3,
3,3,3,3,3,3,3,3,3,3,3,3,3,3,3,3,3,3,3,3,3,3,3,3,3,3,3,3,3,3,3,3,3,3,3,3,3,3,3,3,3,3,3,3,3,3,3,3,3,3,3,3,3,3,3,3,3,3,3,3,3,3,3,3,3,3,3,3,3,3,3,3,3,3,3,3,3,3,3,3,3,3,3,3,3,3,3,3,3,3,3,3,3,3,3,3,3,3,3,3,3,3,3,3,3,3,3,3,3,3,3,3,3,3,3,3,3,3,3,3,
3,3,3,3,3,3,3,3,3,3,3,3,3,3,3,3,3,3,3,3,3,3,3,3,3,3,3,3,3,3,3,3,3,3,3,3,3,3,3,3,3,3,3,3,3,3,3,3,3,3,3,3,3,3,3,3,3,3,3,3,3,3,3,3,3,3,3,3,3,3,3,3,3,3,3,3,3,3,3,3,3,3,3,3,3,3,3,3,3,3,3,3,3,3,3,3,3,3,3,3,3,3,3,3,3,3,3,3,3,3,3,3,3,3,3,3,3,3,3,3,
3,3,3,3,3,3,3,3,3,3,3,3,3,3,3,3,3,3,3,3,3,3,3,3,3,3,3,3,3,3,3,3,3,3,3,3,3,3,3,3,3,3,3,3,3,3,3,3,3,3,3,3,3,3,3,3,3,3,3,3,3,3,3,3,3,3,3,3,3,3,3,3,3,3,3,3,3,3,3,3,3,3,3,3,3,3,3,3,3,3,3,3,3,3,3,3,3,3,3,3,3,3,3,3,3,3,3,3,3,3,3,3,3,3,3,3,3,3,3,3,
3,3,3,3,3,3,3,3,3,3,3,3,3,3,3,3,3,3,3,3,3,3,3,3,3,3,3,3,3,3,3,3,3,3,3,3,3,3,3,3,3,3,3,3,3,3,3,3,3,3,3,3,3,3,3,3,3,3,3,3,3,3,3,3,3,3,3,3,3,3,3,3,3,3,3,3,3,3,3,3,3,3,3,3,3,3,3,3,3,3,3,3,3,3,3,3,3,3,3,3,3,3,3,3,3,3,3,3,3,3,3,3,3,3,3,3,3,3,3,3,
3,3,3,3,3,3,3,3,3,3,3,3,3,3,3,3,3,3,3,3,3,3,3,3,3,3,3,3,3,3,3,3,3,3,3,3,3,3,3,3,3,3,3,3,3,3,3,3,3,3,3,3,3,3,3,3,3,3,3,3,3,3,3,3,3,3,3,3,3,3,3,3,3,3,3,3,3,3,3,3,3,3,3,3,3,3,3,3,3,3,3,3,3,3,3,3,3,3,3,3,3,3,3,3,3,3,3,3,3,3,3,3,3,3,3,3,3,3,3,3,
3,3,3,3,3,3,3,3,3,3,3,3,3,3,3,3,3,3,3,3,3,3,3,3,3,3,3,3,3,3,3,3,3,3,3,3,3,3,3,3,3,3,3,3,3,3,3,3,3,3,3,3,3,3,3,3,3,3,3,3,3,3,3,3,3,3,3,3,3,3,3,3,3,3,3,3,3,3,3,3,3,3,3,3,3,3,3,3,3,3,3,3,3,3,3,3,3,3,3,3,3,3,3,3,3,3,3,3,3,3,3,3,3,3,3,3,3,3,3,3,
3,3,3,3,3,3,3,3,3,3,3,3,3,3,3,3,3,3,3,3,3,3,3,3,3,3,3,3,3,3,3,3,3,3,3,3,3,3,3,3,3,3,3,3,3,3,3,3,3,3,3,3,3,3,3,3,3,3,3,3,3,3,3,3,3,3,3,3,3,3,3,3,3,3,3,3,3,3,3,3,3,3,3,3,3,3,3,3,3,3,3,3,3,3,3,3,3,3,3,3,3,3,3,3,3,3,3,3,3,3,3,3,3,3,3,3,3,3,3,3,
3,3,3,3,3,3,3,3,3,3,3,3,3,3,3,3,3,3,3,3,3,3,3,3,3,3,3,3,3,3,3,3,3,3,3,3,3,3,3,3,3,3,3,3,3,3,3,3,3,3,3,3,3,3,3,3,3,3,3,3,3,3,3,3,3,3,3,3,3,3,3,3,3,3,3,3,3,3,3,3,3,3,3,3,3,3,3,3,3,3,3,3,3,3,3,3,3,3,3,3,3,3,3,3,3,3,3,3,3,3,3,3,3,3,3,3,3,3,3,3,
3,3,3,3,3,3,3,3,3,3,3,3,3,3,3,3,3,3,3,3,3,3,3,3,3,3,3,3,3,3,3,3,3,3,3,3,3,3,3,3,3,3,3,3,3,3,3,3,3,3,3,3,3,3,3,3,3,3,3,3,3,3,3,3,3,3,3,3,3,3,3,3,3,3,3,3,3,3,3,3,3,3,3,3,3,3,3,3,3,3,3,3,3,3,3,3,3,3,3,3,3,3,3,3,3,3,3,3,3,3,3,3,3,3,3,3,3,3,3,3,
3,3,3,3,3,3,3,3,3,3,3,3,3,3,3,3,3,3,3,3,3,3,3,3,3,3,3,3,3,3,3,3,3,3,3,3,3,3,3,3,3,3,3,3,3,3,3,3,3,3,3,3,3,3,3,3,3,3,3,3,3,3,3,3,3,3,3,3,3,3,3,3,3,3,3,3,3,3,3,3,3,3,3,3,3,3,3,3,3,3,3,3,3,3,3,3,3,3,3,3,3,3,3,3,3,3,3,3,3,3,3,3,3,3,3,3,3,3,3,3,
3,3,3,3,3,3,3,3,3,3,3,3,3,3,3,3,3,3,3,3,3,3,3,3,3,3,3,3,3,3,3,3,3,3,3,3,3,3,3,3,3,3,3,3,3,3,3,3,3,3,3,3,3,3,3,3,3,3,3,3,3,3,3,3,3,3,3,3,3,3,3,3,3,3,3,3,3,3,3,3,3,3,3,3,3,3,3,3,3,3,3,3,3,3,3,3,3,3,3,3,3,3,3,3,3,3,3,3,3,3,3,3,3,3,3,3,3,3,3,3,
3,3,3,3,3,3,3,3,3,3,3,3,3,3,3,3,3,3,3,3,3,3,3,3,3,3,3,3,3,3,3,3,3,3,3,3,3,3,3,3,3,3,3,3,3,3,3,3,3,3,3,3,3,3,3,3,3,3,3,3,3,3,3,3,3,3,3,3,3,3,3,3,3,3,3,3,3,3,3,3,3,3,3,3,3,3,3,3,3,3,3,3,3,3,3,3,3,3,3,3,3,3,3,3,3,3,3,3,3,3,3,3,3,3,3,3,3,3,3,3,
3,3,3,3,3,3,3,3,3,3,3,3,3,3,3,3,3,3,3,3,3,3,3,3,3,3,3,3,3,3,3,3,3,3,3,3,3,3,3,3,3,3,3,3,3,3,3,3,3,3,3,3,3,3,3,3,3,3,3,3,3,3,3,3,3,3,3,3,3,3,3,3,3,3,3,3,3,3,3,3,3,3,3,3,3,3,3,3,3,3,3,3,3,3,3,3,3,3,3,3,3,3,3,3,3,3,3,3,3,3,3,3,3,3,3,3,3,3,3,3,
3,3,3,3,3,3,3,3,3,3,3,3,3,3,3,3,3,3,3,3,3,3,3,3,3,3,3,3,3,3,3,3,3,3,3,3,3,3,3,3,3,3,3,3,3,3,3,3,3,3,3,3,3,3,3,3,3,3,3,3,3,3,3,3,3,3,3,3,3,3,3,3,3,3,3,3,3,3,3,3,3,3,3,3,3,3,3,3,3,3,3,3,3,3,3,3,3,3,3,3,3,3,3,3,3,3,3,3,3,3,3,3,3,3,3,3,3,3,3,3,
3,3,3,3,3,3,3,3,3,3,3,3,3,3,3,3,3,3,3,3,3,3,3,3,3,3,3,3,3,3,3,3,3,3,3,3,3,3,3,3,3,3,3,3,3,3,3,3,3,3,3,3,3,3,3,3,3,3,3,3,3,3,3,3,3,3,3,3,3,3,3,3,3,3,3,3,3,3,3,3,3,3,3,3,3,3,3,3,3,3,3,3,3,3,3,3,3,3,3,3,3,3,3,3,3,3,3,3,3,3,3,3,3,3,3,3,3,3,3,3,
3,3,3,3,3,3,3,3,3,3,3,3,3,3,3,3,3,3,3,3,3,3,3,3,3,3,3,3,3,3,3,3,3,3,3,3,3,3,3,3,3,3,3,3,3,3,3,3,3,3,3,3,3,3,3,3,3,3,3,3,3,3,3,3,3,3,3,3,3,3,3,3,3,3,3,3,3,3,3,3,3,3,3,3,3,3,3,3,3,3,3,3,3,3,3,3,3,3,3,3,3,3,3,3,3,3,3,3,3,3,3,3,3,3,3,3,3,3,3,3,
3,3,3,3,3,3,3,3,3,3,3,3,3,3,3,3,3,3,3,3,3,3,3,3,3,3,3,3,3,3,3,3,3,3,3,3,3,3,3,3,3,3,3,3,3,3,3,3,3,3,3,3,3,3,3,3,3,3,3,3,3,3,3,3,3,3,3,3,3,3,3,3,3,3,3,3,3,3,3,3,3,3,3,3,3,3,3,3,3,3,3,3,3,3,3,3,3,3,3,3,3,3,3,3,3,3,3,3,3,3,3,3,3,3,3,3,3,3,3,3,
3,3,3,3,3,3,3,3,3,3,3,3,3,3,3,3,3,3,3,3,3,3,3,3,3,3,3,3,3,3,3,3,3,3,3,3,3,3,3,3,3,3,3,3,3,3,3,3,3,3,3,3,3,3,3,3,3,3,3,3,3,3,3,3,3,3,3,3,3,3,3,3,3,3,3,3,3,3,3,3,3,3,3,3,3,3,3,3,3,3,3,3,3,3,3,3,3,3,3,3,3,3,3,3,3,3,3,3,3,3,3,3,3,3,3,3,3,3,3,3,
3,3,3,3,3,3,3,3,3,3,3,3,3,3,3,3,3,3,3,3,3,3,3,3,3,3,3,3,3,3,3,3,3,3,3,3,3,3,3,3,3,3,3,3,3,3,3,3,3,3,3,3,3,3,3,3,3,3,3,3,3,3,3,3,3,3,3,3,3,3,3,3,3,3,3,3,3,3,3,3,3,3,3,3,3,3,3,3,3,3,3,3,3,3,3,3,3,3,3,3,3,3,3,3,3,3,3,3,3,3,3,3,3,3,3,3,3,3,3,3,
3,3,3,3,3,3,3,3,3,3,3,3,3,3,3,3,3,3,3,3,3,3,3,3,3,3,3,3,3,3,3,3,3,3,3,3,3,3,3,3,3,3,3,3,3,3,3,3,3,3,3,3,3,3,3,3,3,3,3,3,3,3,3,3,3,3,3,3,3,3,3,3,3,3,3,3,3,3,3,3,3,3,3,3,3,3,3,3,3,3,3,3,3,3,3,3,3,3,3,3,3,3,3,3,3,3,3,3,3,3,3,3,3,3,3,3,3,3,3,3,
3,3,3,3,3,3,3,3,3,3,3,3,3,3,3,3,3,3,3,3,3,3,3,3,3,3,3,3,3,3,3,3,3,3,3,3,3,3,3,3,3,3,3,3,3,3,3,3,3,3,3,3,3,3,3,3,3,3,3,3,3,3,3,3,3,3,3,3,3,3,3,3,3,3,3,3,3,3,3,3,3,3,3,3,3,3,3,3,3,3,3,3,3,3,3,3,3,3,3,3,3,3,3,3,3,3,3,3,3,3,3,3,3,3,3,3,3,3,3,3,
3,3,3,3,3,3,3,3,3,3,3,3,3,3,3,3,3,3,3,3,3,3,3,3,3,3,3,3,3,3,3,3,3,3,3,3,3,3,3,3,3,3,3,3,3,3,3,3,3,3,3,3,3,3,3,3,3,3,3,3,3,3,3,3,3,3,3,3,3,3,3,3,3,3,3,3,3,3,3,3,3,3,3,3,3,3,3,3,3,3,3,3,3,3,3,3,3,3,3,3,3,3,3,3,3,3,3,3,3,3,3,3,3,3,3,3,3,3,3,3,
3,3,3,3,3,3,3,3,3,3,3,3,3,3,3,3,3,3,3,3,3,3,3,3,3,3,3,3,3,3,3,3,3,3,3,3,3,3,3,3,3,3,3,3,3,3,3,3,3,3,3,3,3,3,3,3,3,3,3,3,3,3,3,3,3,3,3,3,3,3,3,3,3,3,3,3,3,3,3,3,3,3,3,3,3,3,3,3,3,3,3,3,3,3,3,3,3,3,3,3,3,3,3,3,3,3,3,3,3,3,3,3,3,3,3,3,3,3,3,3,
3,3,3,3,3,3,3,3,3,3,3,3,3,3,3,3,3,3,3,3,3,3,3,3,3,3,3,3,3,3,3,3,3,3,3,3,3,3,3,3,3,3,3,3,3,3,3,3,3,3,3,3,3,3,3,3,3,3,3,3,3,3,3,3,3,3,3,3,3,3,3,3,3,3,3,3,3,3,3,3,3,3,3,3,3,3,3,3,3,3,3,3,3,3,3,3,3,3,3,3,3,3,3,3,3,3,3,3,3,3,3,3,3,3,3,3,3,3,3,3,
3,3,3,3,3,3,3,3,3,3,3,3,3,3,3,3,3,3,3,3,3,3,3,3,3,3,3,3,3,3,3,3,3,3,3,3,3,3,3,3,3,3,3,3,3,3,3,3,3,3,3,3,3,3,3,3,3,3,3,3,3,3,3,3,3,3,3,3,3,3,3,3,3,3,3,3,3,3,3,3,3,3,3,3,3,3,3,3,3,3,3,3,3,3,3,3,3,3,3,3,3,3,3,3,3,3,3,3,3,3,3,3,3,3,3,3,3,3,3,3,
3,3,3,3,3,3,3,3,3,3,3,3,3,3,3,3,3,3,3,3,3,3,3,3,3,3,3,3,3,3,3,3,3,3,3,3,3,3,3,3,3,3,3,3,3,3,3,3,3,3,3,3,3,3,3,3,3,3,3,3,3,3,3,3,3,3,3,3,3,3,3,3,3,3,3,3,3,3,3,3,3,3,3,3,3,3,3,3,3,3,3,3,3,3,3,3,3,3,3,3,3,3,3,3,3,3,3,3,3,3,3,3,3,3,3,3,3,3,3,3,
3,3,3,3,3,3,3,3,3,3,3,3,3,3,3,3,3,3,3,3,3,3,3,3,3,3,3,3,3,3,3,3,3,3,3,3,3,3,3,3,3,3,3,3,3,3,3,3,3,3,3,3,3,3,3,3,3,3,3,3,3,3,3,3,3,3,3,3,3,3,3,3,3,3,3,3,3,3,3,3,3,3,3,3,3,3,3,3,3,3,3,3,3,3,3,3,3,3,3,3,3,3,3,3,3,3,3,3,3,3,3,3,3,3,3,3,3,3,3,3,
3,3,3,3,3,3,3,3,3,3,3,3,3,3,3,3,3,3,3,3,3,3,3,3,3,3,3,3,3,3,3,3,3,3,3,3,3,3,3,3,3,3,3,3,3,3,3,3,3,3,3,3,3,3,3,3,3,3,3,3,3,3,3,3,3,3,3,3,3,3,3,3,3,3,3,3,3,3,3,3,3,3,3,3,3,3,3,3,3,3,3,3,3,3,3,3,3,3,3,3,3,3,3,3,3,3,3,3,3,3,3,3,3,3,3,3,3,3,3,3,
3,3,3,3,3,3,3,3,3,3,3,3,3,3,3,3,3,3,3,3,3,3,3,3,3,3,3,3,3,3,3,3,3,3,3,3,3,3,3,3,3,3,3,3,3,3,3,3,3,3,3,3,3,3,3,3,3,3,3,3,3,3,3,3,3,3,3,3,3,3,3,3,3,3,3,3,3,3,3,3,3,3,3,3,3,3,3,3,3,3,3,3,3,3,3,3,3,3,3,3,3,3,3,3,3,3,3,3,3,3,3,3,3,3,3,3,3,3,3,3,
3,3,3,3,3,3,3,3,3,3,3,3,3,3,3,3,3,3,3,3,3,3,3,3,3,3,3,3,3,3,3,3,3,3,3,3,3,3,3,3,3,3,3,3,3,3,3,3,3,3,3,3,3,3,3,3,3,3,3,3,3,3,3,3,3,3,3,3,3,3,3,3,3,3,3,3,3,3,3,3,3,3,3,3,3,3,3,3,3,3,3,3,3,3,3,3,3,3,3,3,3,3,3,3,3,3,3,3,3,3,3,3,3,3,3,3,3,3,3,3,
3,3,3,3,3,3,3,3,3,3,3,3,3,3,3,3,3,3,3,3,3,3,3,3,3,3,3,3,3,3,3,3,3,3,3,3,3,3,3,3,3,3,3,3,3,3,3,3,3,3,3,3,3,3,3,3,3,3,3,3,3,3,3,3,3,3,3,3,3,3,3,3,3,3,3,3,3,3,3,3,3,3,3,3,3,3,3,3,3,3,3,3,3,3,3,3,3,3,3,3,3,3,3,3,3,3,3,3,3,3,3,3,3,3,3,3,3,3,3,3,
3,3,3,3,3,3,3,3,3,3,3,3,3,3,3,3,3,3,3,3,3,3,3,3,3,3,3,3,3,3,3,3,3,3,3,3,3,3,3,3,3,3,3,3,3,3,3,3,3,3,3,3,3,3,3,3,3,3,3,3,3,3,3,3,3,3,3,3,3,3,3,3,3,3,3,3,3,3,3,3,3,3,3,3,3,3,3,3,3,3,3,3,3,3,3,3,3,3,3,3,3,3,3,3,3,3,3,3,3,3,3,3,3,3,3,3,3,3,3,3,
3,3,3,3,3,3,3,3,3,3,3,3,3,3,3,3,3,3,3,3,3,3,3,3,3,3,3,3,3,3,3,3,3,3,3,3,3,3,3,3,3,3,3,3,3,3,3,3,3,3,3,3,3,3,3,3,3,3,3,3,3,3,3,3,3,3,3,3,3,3,3,3,3,3,3,3,3,3,3,3,3,3,3,3,3,3,3,3,3,3,3,3,3,3,3,3,3,3,3,3,3,3,3,3,3,3,3,3,3,3,3,3,3,3,3,3,3,3,3,3,
3,3,3,3,3,3,3,3,3,3,3,3,3,3,3,3,3,3,3,3,3,3,3,3,3,3,3,3,3,3,3,3,3,3,3,3,3,3,3,3,3,3,3,3,3,3,3,3,3,3,3,3,3,3,3,3,3,3,3,3,3,3,3,3,3,3,3,3,3,3,3,3,3,3,3,3,3,3,3,3,3,3,3,3,3,3,3,3,3,3,3,3,3,3,3,3,3,3,3,3,3,3,3,3,3,3,3,3,3,3,3,3,3,3,3,3,3,3,3,3,
3,3,3,3,3,3,3,3,3,3,3,3,3,3,3,3,3,3,3,3,3,3,3,3,3,3,3,3,3,3,3,3,3,3,3,3,3,3,3,3,3,3,3,3,3,3,3,3,3,3,3,3,3,3,3,3,3,3,3,3,3,3,3,3,3,3,3,3,3,3,3,3,3,3,3,3,3,3,3,3,3,3,3,3,3,3,3,3,3,3,3,3,3,3,3,3,3,3,3,3,3,3,3,3,3,3,3,3,3,3,3,3,3,3,3,3,3,3,3,3,
3,3,3,3,3,3,3,3,3,3,3,3,3,3,3,3,3,3,3,3,3,3,3,3,3,3,3,3,3,3,3,3,3,3,3,3,3,3,3,3,3,3,3,3,3,3,3,3,3,3,3,3,3,3,3,3,3,3,3,3,3,3,3,3,3,3,3,3,3,3,3,3,3,3,3,3,3,3,3,3,3,3,3,3,3,3,3,3,3,3,3,3,3,3,3,3,3,3,3,3,3,3,3,3,3,3,3,3,3,3,3,3,3,3,3,3,3,3,3,3,
3,3,3,3,3,3,3,3,3,3,3,3,3,3,3,3,3,3,3,3,3,3,3,3,3,3,3,3,3,3,3,3,3,3,3,3,3,3,3,3,3,3,3,3,3,3,3,3,3,3,3,3,3,3,3,3,3,3,3,3,3,3,3,3,3,3,3,3,3,3,3,3,3,3,3,3,3,3,3,3,3,3,3,3,3,3,3,3,3,3,3,3,3,3,3,3,3,3,3,3,3,3,3,3,3,3,3,3,3,3,3,3,3,3,3,3,3,3,3,3,
3,3,3,3,3,3,3,3,3,3,3,3,3,3,3,3,3,3,3,3,3,3,3,3,3,3,3,3,3,3,3,3,3,3,3,3,3,3,3,3,3,3,3,3,3,3,3,3,3,3,3,3,3,3,3,3,3,3,3,3,3,3,3,3,3,3,3,3,3,3,3,3,3,3,3,3,3,3,3,3,3,3,3,3,3,3,3,3,3,3,3,3,3,3,3,3,3,3,3,3,3,3,3,3,3,3,3,3,3,3,3,3,3,3,3,3,3,3,3,3,
3,3,3,3,3,3,3,3,3,3,3,3,3,3,3,3,3,3,3,3,3,3,3,3,3,3,3,3,3,3,3,3,3,3,3,3,3,3,3,3,3,3,3,3,3,3,3,3,3,3,3,3,3,3,3,3,3,3,3,3,3,3,3,3,3,3,3,3,3,3,3,3,3,3,3,3,3,3,3,3,3,3,3,3,3,3,3,3,3,3,3,3,3,3,3,3,3,3,3,3,3,3,3,3,3,3,3,3,3,3,3,3,3,3,3,3,3,3,3,3
</data>
 </layer>
 <layer id="2" name="water" width="120" height="80">
  <data encoding="csv">
2,2,2,2,2,2,2,0,0,0,0,0,0,0,0,0,0,0,0,0,0,0,0,0,0,0,0,0,0,0,0,0,0,0,0,0,0,0,0,0,0,0,0,0,0,0,0,0,0,0,0,0,0,0,0,0,0,0,0,0,0,0,0,0,0,0,0,0,0,0,0,0,0,0,0,0,0,0,0,0,0,0,0,0,0,0,0,0,0,0,0,0,0,0,0,0,0,0,0,0,0,0,0,0,0,0,0,0,0,0,0,0,2,2,2,2,2,2,2,2,
2,2,2,2,2,2,2,2,0,0,0,0,0,0,0,0,0,0,0,0,0,0,0,0,0,0,0,0,0,0,0,0,0,0,0,0,0,0,0,0,0,0,0,0,0,0,0,0,0,0,0,0,0,0,0,0,0,0,0,0,0,0,0,0,0,0,0,0,0,0,0,0,0,0,0,0,0,0,0,0,0,0,0,0,0,0,0,0,0,0,0,0,0,0,0,0,0,0,0,0,0,0,0,0,0,0,0,0,0,0,0,2,2,2,2,2,2,2,2,2,
2,2,2,2,2,2,2,2,2,2,0,0,0,0,0,0,0,0,0,0,0,0,0,0,0,0,0,0,0,0,0,0,0,0,0,0,0,0,0,0,0,0,0,0,0,0,0,0,0,0,0,0,0,0,0,0,0,0,0,0,0,0,0,0,0,0,0,0,0,0,0,0,0,0,0,0,0,0,0,0,0,0,0,0,0,0,0,0,0,0,0,0,0,0,0,0,0,0,0,0,0,0,0,0,0,0,0,0,0,2,2,2,2,2,2,2,2,2,2,2,
2,2,2,2,2,2,2,2,2,2,2,2,0,0,0,0,0,0,0,0,0,0,0,0,0,0,0,0,0,0,0,0,0,0,0,0,0,0,0,0,0,0,0,0,0,0,0,0,0,0,0,0,0,0,0,0,0,0,0,0,0,0,0,0,0,0,0,0,0,0,0,0,0,0,0,0,0,0,0,0,0,0,0,0,0,0,0,0,0,0,0,0,0,0,0,0,0,0,0,0,0,0,0,0,0,0,0,2,2,2,2,2,2,2,2,2,2,2,2,2,
2,2,2,2,2,2,2,2,2,2,2,2,2,0,0,0,0,0,0,0,0,0,0,0,0,0,0,0,0,0,0,0,0,0,0,0,0,0,0,0,0,0,0,0,0,0,0,0,0,0,0,0,0,0,0,0,0,0,0,0,0,0,0,0,0,0,0,0,0,0,0,0,0,0,0,0,0,0,0,0,0,0,0,0,0,0,0,0,0,0,0,0,0,0,0,0,0,0,0,0,0,0,0,0,2,2,2,2,2,2,2,2,2,2,2,2,2,2,2,0,
2,2,2,2,2,2,2,2,2,2,2,2,2,2,2,0,0,0,0,0,0,0,0,0,0,0,0,0,0,0,0,0,0,0,0,0,0,0,0,0,0,0,0,0,0,0,0,0,0,0,0,0,0,0,0,0,0,0,0,0,0,0,0,0,0,0,0,0,0,0,0,0,0,0,0,0,0,0,0,0,0,0,0,0,0,0,0,0,0,0,0,0,0,0,0,0,0,0,0,0,0,0,0,2,2,2,2,2,2,2,2,2,2,2,2,2,2,2,0,0,
2,2,2,2,2,2,2,2,2,2,2,2,2,2,2,2,0,0,0,0,0,0,0,0,0,0,0,0,0,0,0,0,0,0,0,0,0,0,0,0,0,0,0,0,0,0,0,0,0,0,0,0,0,0,0,0,0,0,0,0,0,0,0,0,0,0,0,0,0,0,0,0,0,0,0,0,0,0,0,0,0,0,0,0,0,0,0,0,0,0,0,0,0,0,0,0,0,0,0,0,0,2,2,2,2,2,2,2,2,2,2,2,2,2,2,2,0,0,0,0,
0,2,2,2,2,2,2,2,2,2,2,2,2,2,2,2,2,0,0,0,0,0,0,0,0,0,0,0,0,0,0,0,0,0,0,0,0,0,0,0,0,0,0,0,0,0,0,0,0,0,0,0,0,0,0,0,0,0,0,0,0,0,0,0,0,0,0,0,0,0,0,0,0,0,0,0,0,0,0,0,0,0,0,0,0,0,0,0,0,0,0,0,0,0,0,0,0,0,0,2,2,2,2,2,2,2,2,2,2,2,2,2,2,2,2,0,0,0,0,0,
0,0,0,2,2,2,2,2,2,2,2,2,2,2,2,2,2,2,2,2,0,0,0,0,0,0,0,0,0,0,0,0,0,0,0,0,0,0,0,0,0,0,0,0,0,0,0,0,0,0,0,0,0,0,0,0,0,0,0,0,0,0,0,0,0,0,0,0,0,0,0,0,0,0,0,0,0,0,0,0,0,0,0,0,0,0,0,0,0,0,0,0,0,0,0,0,0,2,2,2,2,2,2,2,2,2,2,2,2,2,2,2,2,0,0,0,0,0,0,0,
0,0,0,2,2,2,2,2,2,2,2,2,2,2,2,2,2,2,2,2,2,0,0,0,0,0,0,0,0,0,0,0,0,0,0,0,0,0,0,0,0,0,0,0,0,0,0,0,0,0,0,0,0,0,0,0,0,0,0,0,0,0,0,0,0,0,0,0,0,0,0,0,0,0,0,0,0,0,0,0,0,0,0,0,0,0,0,0,0,0,0,0,0,0,0,0,2,2,2,2,2,2,2,2,2,2,2,2,2,2,2,0,0,0,0,0,0,0,0,0,
0,0,0,0,0,2,2,2,2,2,2,2,2,2,2,2,2,2,2,2,2,2,0,0,0,0,0,0,0,0,0,0,0,0,0,0,0,0,0,0,0,0,0,0,0,0,0,0,0,0,0,0,0,0,0,0,0,0,0,0,0,0,0,0,0,0,0,0,0,0,0,0,0,0,0,0,0,0,0,0,0,0,0,0,0,0,0,0,0,0,0,0,0,0,0,2,2,2,2,2,2,2,2,2,2,2,2,2,2,2,0,0,0,0,0,0,0,0,0,0,
0,0,0,0,0,0,0,0,2,2,2,2,2,2,2,2,2,2,2,2,2,2,2,0,0,0,0,0,0,0,0,0,0,0,0,0,0,0,0,0,0,0,0,0,0,0,0,0,0,0,0,0,0,0,0,0,0,0,0,0,0,0,0,0,0,0,0,0,0,0,0,0,0,0,0,0,0,0,0,0,0,0,0,0,0,0,0,0,0,0,0,0,0,0,2,2,2,2,2,2,2,2,2,2,2,2,2,2,2,0,0,0,0,0,0,0,0,0,0,0,
0,0,0,0,0,0,0,0,2,2,2,2,2,2,2,2,2,2,2,2,2,2,2,2,0,0,0,0,0,0,0,0,0,0,0,0,0,0,0,0,0,0,0,0,0,0,0,0,0,0,0,0,0,0,0,0,0,0,0,0,0,0,0,0,0,0,0,0,0,0,0,0,0,0,0,0,0,0,0,0,0,0,0,0,0,0,0,0,0,0,0,0,0,2,2,2,2,2,2,2,2,2,2,2,2,2,2,2,0,0,0,0,0,0,0,0,0,0,0,0,
0,0,0,0,0,0,0,0,0,2,2,2,2,2,2,2,2,2,2,2,2,2,2,2,2,0,0,0,0,0,0,0,0,0,0,0,0,0,0,0,0,0,0,0,0,0,0,0,0,0,0,0,0,0,0,0,0,0,0,0,0,0,0,0,0,0,0,0,0,0,0,0,0,0,0,0,0,0,0,0,0,0,0,0,0,0,0,0,0,0,0,0,2,2,2,2,2,2,2,2,2,2,2,2,2,2,2,0,0,0,0,0,0,0,0,0,0,0,0,0,
0,0,0,0,0,0,0,0,0,0,0,0,0,2,2,2,2,2,2,2,2,2,2,2,2,2,2,2,0,0,0,0,0,0,0,0,0,0,0,0,0,0,0,0,0,0,0,0,0,0,0,0,0,0,0,0,0,0,0,0,0,0,0,0,0,0,0,0,0,0,0,0,0,0,0,0,0,0,0,0,0,0,0,0,0,0,0,0,0,0,2,2,2,2,2,2,2,2,2,2,2,2,2,2,2,2,0,0,0,0,0,0,0,0,0,0,0,0,0,0,
0,0,0,0,0,0,0,0,0,0,0,0,0,0,2,2,2,2,2,2,2,2,2,2,2,2,2,2,0,0,0,0,0,0,0,0,0,0,0,0,0,0,0,0,0,0,0,0,0,0,0,0,0,0,0,0,0,0,0,0,0,0,0,0,0,0,0,0,0,0,0,0,0,0,0,0,0,0,0,0,0,0,0,0,0,0,0,0,2,2,2,2,2,2,2,2,2,2,2,2,2,2,0,0,0,0,0,0,0,0,0,0,0,0,0,0,0,0,0,0,
0,0,0,0,0,0,0,0,0,0,0,0,0,0,0,2,2,2,2,2,2,2,2,2,2,2,2,2,2,0,0,0,0,0,0,0,0,0,0,0,0,0,0,0,0,0,0,0,0,0,0,0,0,0,0,0,0,0,0,0,0,0,0,0,0,0,0,0,0,0,0,0,0,0,0,0,0,0,0,0,0,0,0,0,0,0,0,0,2,2,2,2,2,2,2,2,2,2,2,2,0,0,0,0,0,0,0,0,0,0,0,0,0,0,0,0,0,0,0,0,
0,0,0,0,0,0,0,0,0,0,0,0,0,0,0,2,2,2,2,2,2,2,2,2,2,2,2,2,2,2,2,0,0,0,0,0,0,0,0,0,0,0,0,0,0,0,0,0,0,0,0,0,0,0,0,0,0,0,0,0,0,0,0,0,0,0,0,0,0,0,0,0,0,0,0,0,0,0,0,0,0,0,0,0,0,0,2,2,2,2,2,2,2,2,2,2,2,2,2,0,0,0,0,0,0,0,0,0,0,0,0,0,0,0,0,0,0,0,0,0,
0,0,0,0,0,0,0,0,0,0,0,0,0,0,0,0,2,2,2,2,2,2,2,2,2,2,2,2,2,2,2,2,0,0,0,0,0,0,0,0,0,0,0,0,0,0,0,0,0,0,0,0,0,0,0,0,0,0,0,0,0,0,0,0,0,0,0,0,0,0,0,0,0,0,0,0,0,0,0,0,0,0,2,2,2,2,2,2,2,2,2,2,2,2,2,2,2,2,0,0,0,0,0,0,0,0,0,0,0,0,0,0,0,0,0,0,0,0,0,0,
0,0,0,0,0,0,0,0,0,0,0,0,0,0,0,0,0,0,0,0,2,2,2,2,2,2,2,2,2,2,2,2,2,0,0,0,0,0,0,0,0,0,0,0,0,0,0,0,0,0,0,0,0,0,0,0,0,0,0,0,0,0,0,0,0,0,0,0,0,0,0,0,0,0,0,0,0,0,0,0,0,2,2,2,2,2,2,2,2,2,2,2,2,2,2,2,0,0,0,0,0,0,0,0,0,0,0,0,0,0,0,0,0,0,0,0,0,0,0,0,
0,0,0,0,0,0,0,0,0,0,0,0,0,0,0,0,0,0,0,0,0,0,2,2,2,2,2,2,2,2,2,2,2,2,2,0,0,0,0,2,2,2,2,2,2,2,2,2,2,2,2,2,2,2,2,2,2,2,2,2,2,2,2,2,2,2,2,2,2,2,0,0,0,0,0,0,2,2,2,2,2,2,2,2,2,2,2,2,2,2,2,2,2,2,0,0,0,0,0,0,0,0,0,0,0,0,0,0,0,0,0,0,0,0,0,0,0,0,0,0,
0,0,0,0,0,0,0,0,0,0,0,0,0,0,0,0,0,0,0,0,0,0,0,2,2,2,2,2,2,2,2,2,2,2,2,2,2,2,2,2,2,2,2,2,2,2,2,2,2,2,2,2,2,2,2,2,2,2,2,2,2,2,2,2,2,2,2,2,2,2,2,2,2,2,2,2,2,2,2,2,2,2,2,2,2,2,2,2,2,2,2,2,0,0,0,0,0,0,0,0,0,0,0,0,0,0,0,0,0,0,0,0,0,0,0,0,0,0,0,0,
0,0,0,0,0,0,0,0,0,0,0,0,0,0,0,0,0,0,0,0,0,0,0,2,2,2,2,2,2,2,2,2,2,2,2,2,2,2,2,2,2,2,2,2,2,2,2,2,2,2,2,2,2,2,2,2,2,2,2,2,2,2,2,2,2,2,2,2,2,2,2,2,2,2,2,2,2,2,2,2,2,2,2,2,2,2,2,2,2,2,0,0,0,0,0,0,0,0,0,0,0,0,0,0,0,0,0,0,0,0,0,0,0,0,0,0,0,0,0,0,
0,0,0,0,0,0,0,0,0,0,0,0,0,0,0,0,0,0,0,0,0,0,0,0,2,2,2,2,2,2,2,2,2,2,2,2,2,2,2,2,2,2,2,2,2,2,2,2,2,2,2,2,2,2,2,2,2,2,2,2,2,2,2,2,2,2,2,2,2,2,2,2,2,2,2,2,2,2,2,2,2,2,2,2,2,2,2,2,0,0,0,0,0,0,0,0,0,0,0,0,0,0,0,0,0,0,0,0,0,0,0,0,0,0,0,0,0,0,0,0,
0,0,0,0,0,0,0,0,0,0,0,0,0,0,0,0,0,0,0,0,0,0,0,0,0,0,0,2,2,2,2,2,2,2,2,2,2,2,2,2,2,2,2,2,2,2,2,2,2,2,2,2,2,2,2,2,2,2,2,2,2,2,2,2,2,2,2,2,2,2,2,2,2,2,2,2,2,2,2,2,2,2,2,2,2,2,0,0,0,0,0,0,0,0,0,0,0,0,0,0,0,0,0,0,0,0,0,0,0,0,0,0,0,0,0,0,0,0,0,0,
0,0,0,0,0,0,0,0,0,0,0,0,0,0,0,0,0,0,0,0,0,0,0,0,0,0,0,2,2,2,2,2,2,2,2,2,2,2,2,2,2,2,2,2,2,2,2,2,2,2,2,2,2,2,2,2,2,2,2,2,2,2,2,2,2,2,2,2,2,2,2,2,2,2,2,2,2,2,2,2,2,2,2,0,0,0,0,0,0,0,0,0,0,0,0,0,0,0,0,0,0,0,0,0,0,0,0,0,0,0,0,0,0,0,0,0,0,0,0,0,
0,0,0,0,0,0,0,0,0,0,0,0,0,0,0,0,0,0,0,0,0,0,0,0,0,0,0,0,2,2,2,2,2,2,2,2,2,2,2,2,2,2,2,2,2,2,2,2,2,2,2,2,2,2,2,2,2,2,2,2,2,2,2,2,2,2,2,2,2,2,2,2,2,2,2,2,2,2,2,2,0,0,0,0,0,0,0,0,0,0,0,0,0,0,0,0,0,0,0,0,0,0,0,0,0,0,0,0,0,0,0,0,0,0,0,0,0,0,0,0,
0,0,0,0,0,0,0,0,0,0,0,0,0,0,0,0,0,0,0,0,0,0,0,0,0,0,0,0,0,0,2,2,2,2,2,2,2,2,2,2,2,2,2,2,2,2,2,2,2,2,2,2,2,2,2,2,2,2,2,2,2,2,2,2,2,2,2,2,2,2,2,2,2,2,2,2,2,2,0,0,0,0,0,0,0,0,0,0,0,0,0,0,0,0,0,0,0,0,0,0,0,0,0,0,0,0,0,0,0,0,0,0,0,0,0,0,0,0,0,0,
0,0,0,0,0,0,0,0,0,0,0,0,0,0,0,0,0,0,0,0,0,0,0,0,0,0,0,0,0,0,2,2,2,2,2,2,2,2,2,2,2,2,2,2,2,0,0,0,0,0,0,0,0,0,0,0,0,0,0,0,0,0,0,0,0,2,2,2,2,2,2,2,2,2,2,2,2,2,0,0,0,0,0,0,0,0,0,0,0,0,0,0,0,0,0,0,0,0,0,0,0,0,0,0,0,0,0,0,0,0,0,0,0,0,0,0,0,0,0,0,
0,0,0,0,0,0,0,0,0,0,0,0,0,0,0,0,0,0,0,0,0,0,0,0,0,0,0,0,0,0,2,2,2,2,2,2,2,2,2,2,2,2,2,2,0,0,0,0,0,0,0,0,0,0,0,0,0,0,0,0,0,0,0,0,0,0,2,2,2,2,2,2,2,2,2,2,2,2,0,0,0,0,0,0,0,0,0,0,0,0,0,0,0,0,0,0,0,0,0,0,0,0,0,0,0,0,0,0,0,0,0,0,0,0,0,0,0,0,0,0,
0,0,0,0,0,0,0,0,0,0,0,0,0,0,0,0,0,0,0,0,0,0,0,0,0,0,0,0,0,0,2,2,2,2,2,2,2,2,2,2,2,2,2,0,0,0,0,0,0,0,0,0,0,0,0,0,0,0,0,0,0,0,0,0,0,0,0,2,2,2,2,2,2,2,2,2,2,2,0,0,0,0,0,0,0,0,0,0,0,0,0,0,0,0,0,0,0,0,0,0,0,0,0,0,0,0,0,0,0,0,0,0,0,0,0,0,0,0,0,0,
0,0,0,0,0,0,0,0,0,0,0,0,0,0,0,0,0,0,0,0,0,0,0,0,0,0,0,0,0,0,2,2,2,2,2,2,2,2,2,2,2,2,0,0,0,0,0,0,0,0,0,0,0,0,0,0,0,0,0,0,0,0,0,0,0,0,0,0,2,2,2,2,2,2,2,2,2,2,0,0,0,0,0,0,0,0,0,0,0,0,0,0,0,0,0,0,0,0,0,0,0,0,0,0,0,0,0,0,0,0,0,0,0,0,0,0,0,0,0,0,
0,0,0,0,0,0,0,0,0,0,0,0,0,0,0,0,0,0,0,0,0,0,0,0,0,0,0,0,0,0,2,2,2,2,2,2,2,2,2,2,2,0,0,0,0,0,0,0,0,0,0,0,0,0,0,0,0,0,0,0,0,0,0,0,0,0,0,0,0,2,2,2,2,2,2,2,2,2,0,0,0,0,0,0,0,0,0,0,0,0,0,0,0,0,0,0,0,0,0,0,0,0,0,0,0,0,0,0,0,0,0,0,0,0,0,0,0,0,0,0,
0,0,0,0,0,0,0,0,0,0,0,0,0,0,0,0,0,0,0,0,0,0,0,0,0,0,0,0,0,0,2,2,2,2,2,2,2,2,2,2,0,0,0,0,0,0,0,0,0,0,0,0,0,0,0,0,0,0,0,0,0,0,0,0,0,0,0,0,0,0,2,2,2,2,2,2,2,2,0,0,0,0,0,0,0,0,0,0,0,0,0,0,0,0,0,0,0,0,0,0,0,0,0,0,0,0,0,0,0,0,0,0,0,0,0,0,0,0,0,0,
0,0,0,0,0,0,0,0,0,0,0,0,0,0,0,0,0,0,0,0,0,0,0,0,0,0,0,0,0,0,2,2,2,2,2,2,2,2,2,0,0,0,0,0,0,0,0,0,0,0,0,0,0,0,0,0,0,0,0,0,0,0,0,0,0,0,0,0,0,0,0,2,2,2,2,2,2,2,0,0,0,0,0,0,0,0,0,0,0,0,0,0,0,0,0,0,0,0,0,0,0,0,0,0,0,0,0,0,0,0,0,0,0,0,0,0,0,0,0,0,
0,0,0,0,0,0,0,0,0,0,0,0,0,0,0,0,0,0,0,0,0,0,0,0,0,0,0,0,0,0,2,2,2,2,2,2,2,2,2,0,0,0,0,0,0,0,0,0,0,0,0,0,0,0,0,0,0,0,0,0,0,0,0,0,0,0,0,0,0,0,0,2,2,2,2,2,2,2,0,0,0,0,0,0,0,0,0,0,0,0,0,0,0,0,0,0,0,0,0,0,0,0,0,0,0,0,0,0,0,0,0,0,0,0,0,0,0,0,0,0,
0,0,0,0,0,0,0,0,0,0,0,0,0,0,0,0,0,0,0,0,0,0,0,0,0,0,0,0,0,0,2,2,2,2,2,2,2,2,2,0,0,0,0,0,0,0,0,0,0,0,0,0,0,0,0,0,0,0,0,0,0,0,0,0,0,0,0,0,0,0,0,2,2,2,2,2,2,2,0,0,0,0,0,0,0,0,0,0,0,0,0,0,0,0,0,0,0,0,0,0,0,0,0,0,0,0,0,0,0,0,0,0,0,0,0,0,0,0,0,0,
0,0,0,0,0,0,0,0,0,0,0,0,0,0,0,0,0,0,0,0,0,0,0,0,0,0,0,0,0,0,2,2,2,2,2,2,2,2,2,0,0,0,0,0,0,0,0,0,0,0,0,0,0,0,0,0,0,0,0,0,0,0,0,0,0,0,0,0,0,0,0,2,2,2,2,2,2,2,0,0,0,0,0,0,0,0,0,0,0,0,0,0,0,0,0,0,0,0,0,0,0,0,0,0,0,0,0,0,0,0,0,0,0,0,0,0,0,0,0,0,
0,0,0,0,0,0,0,0,0,0,0,0,0,0,0,0,0,0,0,0,0,0,0,0,0,0,0,0,0,0,2,2,2,2,2,2,2,2,2,0,0,0,0,0,0,0,0,0,0,0,0,0,0,0,0,0,0,0,0,0,0,0,0,0,0,0,0,0,0,0,0,2,2,2,2,2,2,2,0,0,0,0,0,0,0,0,0,0,0,0,0,0,0,0,0,0,0,0,0,0,0,0,0,0,0,0,0,0,0,0,0,0,0,0,0,0,0,0,0,0,
0,0,0,0,0,0,0,0,0,0,0,0,0,0,0,0,0,0,0,0,0,0,0,0,0,0,0,0,0,0,2,2,2,2,2,2,2,2,2,0,0,0,0,0,0,0,0,0,0,0,0,0,0,0,0,0,0,0,0,0,0,0,0,0,0,0,0,0,0,0,0,2,2,2,2,2,2,2,0,0,0,0,0,0,0,0,0,0,0,0,0,0,0,0,0,0,0,0,0,0,0,0,0,0,0,0,0,0,0,0,0,0,0,0,0,0,0,0,0,0,
0,0,0,0,0,0,0,0,0,0,0,0,0,0,0,0,0,0,0,0,0,0,0,0,0,0,0,0,0,0,2,2,2,2,2,2,2,2,2,0,0,0,0,0,0,0,0,0,0,0,0,0,0,0,0,0,0,0,0,0,0,0,0,0,0,0,0,0,0,0,0,2,2,2,2,2,2,2,0,0,0,0,0,0,0,0,0,0,0,0,0,0,0,0,0,0,0,0,0,0,0,0,0,0,0,0,0,0,0,0,0,0,0,0,0,0,0,0,0,0,
0,0,0,0,0,0,0,0,0,0,0,0,0,0,0,0,0,0,0,0,0,0,0,0,0,0,0,0,0,0,2,2,2,2,2,2,2,2,2,0,0,0,0,0,0,0,0,0,0,0,0,0,0,0,0,0,0,0,0,0,0,0,0,0,0,0,0,0,0,0,0,2,2,2,2,2,2,2,0,0,0,0,0,0,0,0,0,0,0,0,0,0,0,0,0,0,0,0,0,0,0,0,0,0,0,0,0,0,0,0,0,0,0,0,0,0,0,0,0,0,
0,0,0,0,0,0,0,0,0,0,0,0,0,0,0,0,0,0,0,0,0,0,0,0,0,0,0,0,0,0,2,2,2,2,2,2,2,2,2,0,0,0,0,0,0,0,0,0,0,0,0,0,0,0,0,0,0,0,0,0,0,0,0,0,0,0,0,0,0,0,0,2,2,2,2,2,2,2,0,0,0,0,0,0,0,0,0,0,0,0,0,0,0,0,0,0,0,0,0,0,0,0,0,0,0,0,0,0,0,0,0,0,0,0,0,0,0,0,0,0,
0,0,0,0,0,0,0,0,0,0,0,0,0,0,0,0,0,0,0,0,0,0,0,0,0,0,0,0,0,0,2,2,2,2,2,2,2,2,2,2,0,0,0,0,0,0,0,0,0,0,0,0,0,0,0,0,0,0,0,0,0,0,0,0,0,0,0,0,0,0,2,2,2,2,2,2,2,2,0,0,0,0,0,0,0,0,0,0,0,0,0,0,0,0,0,0,0,0,0,0,0,0,0,0,0,0,0,0,0,0,0,0,0,0,0,0,0,0,0,0,
0,0,0,0,0,0,0,0,0,0,0,0,0,0,0,0,0,0,0,0,0,0,0,0,0,0,0,0,0,0,2,2,2,2,2,2,2,2,2,2,2,0,0,0,0,0,0,0,0,0,0,0,0,0,0,0,0,0,0,0,0,0,0,0,0,0,0,0,0,2,2,2,2,2,2,2,2,2,0,0,0,0,0,0,0,0,0,0,0,0,0,0,0,0,0,0,0,0,0,0,0,0,0,0,0,0,0,0,0,0,0,0,0,0,0,0,0,0,0,0,
0,0,0,0,0,0,0,0,0,0,0,0,0,0,0,0,0,0,0,0,0,0,0,0,0,0,0,0,0,0,2,2,2,2,2,2,2,2,2,2,2,2,0,0,0,0,0,0,0,0,0,0,0,0,0,0,0,0,0,0,0,0,0,0,0,0,0,0,2,2,2,2,2,2,2,2,2,2,0,0,0,0,0,0,0,0,0,0,0,0,0,0,0,0,0,0,0,0,0,0,0,0,0,0,0,0,0,0,0,0,0,0,0,0,0,0,0,0,0,0,
0,0,0,0,0,0,0,0,0,0,0,0,0,0,0,0,0,0,0,0,0,0,0,0,0,0,0,0,0,0,2,2,2,2,2,2,2,2,2,2,2,2,2,0,0,0,0,0,0,0,0,0,0,0,0,0,0,0,0,0,0,0,0,0,0,0,0,2,2,2,2,2,2,2,2,2,2,2,0,0,0,0,0,0,0,0,0,0,0,0,0,0,0,0,0,0,0,0,0,0,0,0,0,0,0,0,0,0,0,0,0,0,0,0,0,0,0,0,0,0,
0,0,0,0,0,0,0,0,0,0,0,0,0,0,0,0,0,0,0,0,0,0,0,0,0,0,0,0,0,0,2,2,2,2,2,2,2,2,2,2,2,2,2,2,0,0,0,0,0,0,0,0,0,0,0,0,0,0,0,0,0,0,0,0,0,0,2,2,2,2,2,2,2,2,2,2,2,2,0,0,0,0,0,0,0,0,0,0,0,0,0,0,0,0,0,0,0,0,0,0,0,0,0,0,0,0,0,0,0,0,0,0,0,0,0,0,0,0,0,0,
0,0,0,0,0,0,0,0,0,0,0,0,0,0,0,0,0,0,0,0,0,0,0,0,0,0,0,0,0,0,2,2,2,2,2,2,2,2,2,2,2,2,2,2,2,0,0,0,0,0,0,0,0,0,0,0,0,0,0,0,0,0,0,0,0,2,2,2,2,2,2,2,2,2,2,2,2,2,0,0,0,0,0,0,0,0,0,0,0,0,0,0,0,0,0,0,0,0,0,0,0,0,0,0,0,0,0,0,0,0,0,0,0,0,0,0,0,0,0,0,
0,0,0,0,0,0,0,0,0,0,0,0,0,0,0,0,0,0,0,0,0,0,0,0,0,0,0,0,0,0,2,2,2,2,2,2,2,2,2,2,2,2,2,2,2,2,2,2,2,2,2,2,2,2,2,2,2,2,2,2,2,2,2,2,2,2,2,2,2,2,2,2,2,2,2,2,2,2,0,0,0,0,0,0,0,0,0,0,0,0,0,0,0,0,0,0,0,0,0,0,0,0,0,0,0,0,0,0,0,0,0,0,0,0,0,0,0,0,0,0,
0,0,0,0,0,0,0,0,0,0,0,0,0,0,0,0,0,0,0,0,0,0,0,0,0,0,0,0,0,2,2,2,2,2,2,2,2,2,2,2,2,2,2,2,2,2,2,2,2,2,2,2,2,2,2,2,2,2,2,2,2,2,2,2,2,2,2,2,2,2,2,2,2,2,2,2,2,2,0,0,0,0,0,0,0,0,0,0,0,0,0,0,0,0,0,0,0,0,0,0,0,0,0,0,0,0,0,0,0,0,0,0,0,0,0,0,0,0,0,0,
0,0,0,0,0,0,0,0,0,0,0,0,0,0,0,0,0,0,0,0,0,0,0,0,0,0,0,0,2,2,2,2,2,2,2,2,2,2,2,2,2,2,2,2,2,2,2,2,2,2,2,2,2,2,2,2,2,2,2,2,2,2,2,2,2,2,2,2,2,2,2,2,2,2,2,2,2,2,0,0,0,0,0,0,0,0,0,0,0,0,0,0,0,0,0,0,0,0,0,0,0,0,0,0,0,0,0,0,0,0,0,0,0,0,0,0,0,0,0,0,
0,0,0,0,0,0,0,0,0,0,0,0,0,0,0,0,0,0,0,0,0,0,0,0,0,0,0,2,2,2,2,2,2,2,2,2,2,2,2,2,2,2,2,2,2,2,2,2,2,2,2,2,2,2,2,2,2,2,2,2,2,2,2,2,2,2,2,2,2,2,2,2,2,2,2,2,2,2,2,2,0,0,0,0,0,0,0,0,0,0,0,0,0,0,0,0,0,0,0,0,0,0,0,0,0,0,0,0,0,0,0,0,0,0,0,0,0,0,0,0,
0,0,0,0,0,0,0,0,0,0,0,0,0,0,0,0,0,0,0,0,0,0,0,0,0,2,2,2,2,2,2,2,2,2,2,2,2,2,2,2,2,2,2,2,2,2,2,2,2,2,2,2,2,2,2,2,2,2,2,2,2,2,2,2,2,2,2,2,2,2,2,2,2,2,2,2,2,2,2,2,2,2,0,0,0,0,0,0,0,0,0,0,0,0,0,0,0,0,0,0,0,0,0,0,0,0,0,0,0,0,0,0,0,0,0,0,0,0,0,0,
0,0,0,0,0,0,0,0,0,0,0,0,0,0,0,0,0,0,0,0,0,0,0,0,2,2,2,2,2,2,2,2,2,2,2,2,2,2,2,2,2,2,2,2,2,2,2,2,2,2,2,2,2,2,2,2,2,2,2,2,2,2,2,2,2,2,2,2,2,2,2,2,2,2,2,2,2,2,2,2,2,2,2,0,0,0,0,0,0,0,0,0,0,0,0,0,0,0,0,0,0,0,0,0,0,0,0,0,0,0,0,0,0,0,0,0,0,0,0,0,
0,0,0,0,0,0,0,0,0,0,0,0,0,0,0,0,0,0,0,0,0,0,0,2,2,2,2,2,2,2,2,2,2,2,2,2,2,2,2,2,2,2,2,2,2,2,2,2,2,2,2,2,2,2,2,2,2,2,2,2,2,2,2,2,2,2,2,2,2,2,2,2,2,2,2,2,2,2,2,2,2,2,2,2,0,0,0,0,0,0,0,0,0,0,0,0,0,0,0,0,0,0,0,0,0,0,0,0,0,0,0,0,0,0,0,0,0,0,0,0,
0,0,0,0,0,0,0,0,0,0,0,0,0,0,0,0,0,0,0,0,0,0,2,2,2,2,2,2,2,2,2,2,2,2,2,2,2,2,2,2,2,2,2,2,2,2,2,2,2,2,2,2,2,2,2,2,2,2,2,2,2,2,2,2,2,2,2,2,2,2,2,2,2,2,2,2,2,2,2,2,2,2,2,2,2,0,0,0,0,0,0,0,0,0,0,0,0,0,0,0,0,0,0,0,0,0,0,0,0,0,0,0,0,0,0,0,0,0,0,0,
0,0,0,0,0,0,0,0,0,0,0,0,0,0,0,0,0,0,0,0,0,0,2,2,2,2,2,2,2,2,2,2,2,2,2,2,2,2,2,0,0,0,0,0,0,0,0,0,0,0,0,0,0,0,0,0,0,0,0,0,0,0,0,0,0,0,0,0,0,0,0,0,2,2,2,2,2,2,2,2,2,2,2,2,2,2,0,0,0,0,0,0,0,0,0,0,0,0,0,0,0,0,0,0,0,0,0,0,0,0,0,0,0,0,0,0,0,0,0,0,
0,0,0,0,0,0,0,0,0,0,0,0,0,0,0,0,0,0,0,0,2,2,2,2,2,2,2,2,2,2,2,2,2,2,2,2,2,0,0,0,0,0,0,0,0,0,0,0,0,0,0,0,0,0,0,0,0,0,0,0,0,0,0,0,0,0,0,0,0,0,0,0,0,0,2,2,2,2,2,2,2,2,2,2,2,2,2,0,0,0,0,0,0,0,0,0,0,0,0,0,0,0,0,0,0,0,0,0,0,0,0,0,0,0,0,0,0,0,0,0,
0,0,0,0,0,0,0,0,0,0,0,0,0,0,0,0,0,0,2,2,2,2,2,2,2,2,2,2,2,2,2,2,2,2,2,2,2,0,0,0,0,0,0,0,0,0,0,0,0,0,0,0,0,0,0,0,0,0,0,0,0,0,0,0,0,0,0,0,0,0,0,0,0,0,0,0,2,2,2,2,2,2,2,2,2,2,2,2,0,0,0,0,0,0,0,0,0,0,0,0,0,0,0,0,0,0,0,0,0,0,0,0,0,0,0,0,0,0,0,0,
0,0,0,0,0,0,0,0,0,0,0,0,0,0,0,0,0,2,2,2,2,2,2,2,2,2,2,2,2,2,2,2,2,2,2,0,0,0,0,0,0,0,0,0,0,0,0,0,0,0,0,0,0,0,0,0,0,0,0,0,0,0,0,0,0,0,0,0,0,0,0,0,0,0,0,0,0,0,0,2,2,2,2,2,2,2,2,2,2,2,0,0,0,0,0,0,0,0,0,0,0,0,0,0,0,0,0,0,0,0,0,0,0,0,0,0,0,0,0,0,
0,0,0,0,0,0,0,0,0,0,0,0,0,0,0,0,2,2,2,2,2,2,2,2,2,2,2,2,2,2,2,2,0,0,0,0,0,0,0,0,0,0,0,0,0,0,0,0,0,0,0,0,0,0,0,0,0,0,0,0,0,0,0,0,0,0,0,0,0,0,0,0,0,0,0,0,0,0,0,0,2,2,2,2,2,2,2,2,2,2,2,2,2,2,0,0,0,0,0,0,0,0,0,0,0,0,0,0,0,0,0,0,0,0,0,0,0,0,0,0,
0,0,0,0,0,0,0,0,0,0,0,0,0,0,0,2,2,2,2,2,2,2,2,2,2,2,2,2,2,2,0,0,0,0,0,0,0,0,0,0,0,0,0,0,0,0,0,0,0,0,0,0,0,0,0,0,0,0,0,0,0,0,0,0,0,0,0,0,0,0,0,0,0,0,0,0,0,0,0,0,0,2,2,2,2,2,2,2,2,2,2,2,2,2,2,2,0,0,0,0,0,0,0,0,0,0,0,0,0,0,0,0,0,0,0,0,0,0,0,0,
0,0,0,0,0,0,0,0,0,0,0,0,0,0,0,2,2,2,2,2,2,2,2,2,2,2,2,2,2,2,0,0,0,0,0,0,0,0,0,0,0,0,0,0,0,0,0,0,0,0,0,0,0,0,0,0,0,0,0,0,0,0,0,0,0,0,0,0,0,0,0,0,0,0,0,0,0,0,0,0,0,0,2,2,2,2,2,2,2,2,2,2,2,2,2,2,2,0,0,0,0,0,0,0,0,0,0,0,0,0,0,0,0,0,0,0,0,0,0,0,
0,0,0,0,0,0,0,0,0,0,0,0,0,2,2,2,2,2,2,2,2,2,2,2,2,2,2,2,0,0,0,0,0,0,0,0,0,0,0,0,0,0,0,0,0,0,0,0,0,0,0,0,0,0,0,0,0,0,0,0,0,0,0,0,0,0,0,0,0,0,0,0,0,0,0,0,0,0,0,0,0,0,0,0,2,2,2,2,2,2,2,2,2,2,2,2,2,2,2,2,0,0,0,0,0,0,0,0,0,0,0,0,0,0,0,0,0,0,0,0,
0,0,0,0,0,0,0,0,0,0,0,2,2,2,2,2,2,2,2,2,2,2,2,2,2,2,2,0,0,0,0,0,0,0,0,0,0,0,0,0,0,0,0,0,0,0,0,0,0,0,0,0,0,0,0,0,0,0,0,0,0,0,0,0,0,0,0,0,0,0,0,0,0,0,0,0,0,0,0,0,0,0,0,0,0,2,2,2,2,2,2,2,2,2,2,2,2,2,2,2,2,0,0,0,0,0,0,0,0,0,0,0,0,0,0,0,0,0,0,0,
0,0,0,0,0,0,0,0,2,2,2,2,2,2,2,2,2,2,2,2,2,2,2,2,2,2,0,0,0,0,0,0,0,0,0,0,0,0,0,0,0,0,0,0,0,0,0,0,0,0,0,0,0,0,0,0,0,0,0,0,0,0,0,0,0,0,0,0,0,0,0,0,0,0,0,0,0,0,0,0,0,0,0,0,0,0,2,2,2,2,2,2,2,2,2,2,2,2,2,2,2,2,0,0,0,0,0,0,0,0,0,0,0,0,0,0,0,0,0,0,
0,0,0,0,0,0,0,2,2,2,2,2,2,2,2,2,2,2,2,2,2,2,2,2,0,0,0,0,0,0,0,0,0,0,0,0,0,0,0,0,0,0,0,0,0,0,0,0,0,0,0,0,0,0,0,0,0,0,0,0,0,0,0,0,0,0,0,0,0,0,0,0,0,0,0,0,0,0,0,0,0,0,0,0,0,0,0,2,2,2,2,2,2,2,2,2,2,2,2,2,2,2,2,0,0,0,0,0,0,0,0,0,0,0,0,0,0,0,0,0,
0,0,0,0,0,0,2,2,2,2,2,2,2,2,2,2,2,2,2,2,2,2,2,0,0,0,0,0,0,0,0,0,0,0,0,0,0,0,0,0,0,0,0,0,0,0,0,0,0,0,0,0,0,0,0,0,0,0,0,0,0,0,0,0,0,0,0,0,0,0,0,0,0,0,0,0,0,0,0,0,0,0,0,0,0,0,0,0,0,0,2,2,2,2,2,2,2,2,2,2,2,2,2,2,2,2,0,0,0,0,0,0,0,0,0,0,0,0,0,0,
0,0,0,0,0,2,2,2,2,2,2,2,2,2,2,2,2,2,2,2,2,0,0,0,0,0,0,0,0,0,0,0,0,0,0,0,0,0,0,0,0,0,0,0,0,0,0,0,0,0,0,0,0,0,0,0,0,0,0,0,0,0,0,0,0,0,0,0,0,0,0,0,0,0,0,0,0,0,0,0,0,0,0,0,0,0,0,0,0,0,0,2,2,2,2,2,2,2,2,2,2,2,2,2,2,2,2,2,0,0,0,0,0,0,0,0,0,0,0,0,
0,0,2,2,2,2,2,2,2,2,2,2,2,2,2,2,2,2,2,2,0,0,0,0,0,0,0,0,0,0,0,0,0,0,0,0,0,0,0,0,0,0,0,0,0,0,0,0,0,0,0,0,0,0,0,0,0,0,0,0,0,0,0,0,0,0,0,0,0,0,0,0,0,0,0,0,0,0,0,0,0,0,0,0,0,0,0,0,0,0,0,0,2,2,2,2,2,2,2,2,2,2,2,2,2,2,2,2,2,0,0,0,0,0,0,0,0,0,0,0,
2,2,2,2,2,2,2,2,2,2,2,2,2,2,2,2,2,2,2,0,0,0,0,0,0,0,0,0,0,0,0,0,0,0,0,0,0,0,0,0,0,0,0,0,0,0,0,0,0,0,0,0,0,0,0,0,0,0,0,0,0,0,0,0,0,0,0,0,0,0,0,0,0,0,0,0,0,0,0,0,0,0,0,0,0,0,0,0,0,0,0,0,0,2,2,2,2,2,2,2,2,2,2,2,2,2,2,2,2,2,2,2,2,2,2,0,0,0,0,0,
2,2,2,2,2,2,2,2,2,2,2,2,2,2,2,2,2,2,0,0,0,0,0,0,0,0,0,0,0,0,0,0,0,0,0,0,0,0,0,0,0,0,0,0,0,0,0,0,0,0,0,0,0,0,0,0,0,0,0,0,0,0,0,0,0,0,0,0,0,0,0,0,0,0,0,0,0,0,0,0,0,0,0,0,0,0,0,0,0,0,0,0,0,0,0,0,2,2,2,2,2,2,2,2,2,2,2,2,2,2,2,2,2,2,2,2,0,0,0,0,
2,2,2,2,2,2,2,2,2,2,2,2,2,2,2,2,2,0,0,0,0,0,0,0,0,0,0,0,0,0,0,0,0,0,0,0,0,0,0,0,0,0,0,0,0,0,0,0,0,0,0,0,0,0,0,0,0,0,0,0,0,0,0,0,0,0,0,0,0,0,0,0,0,0,0,0,0,0,0,0,0,0,0,0,0,0,0,0,0,0,0,0,0,0,0,0,0,0,0,2,2,2,2,2,2,2,2,2,2,2,2,2,2,2,2,2,2,0,0,0,
2,2,2,2,2,2,2,2,2,2,2,2,2,2,2,0,0,0,0,0,0,0,0,0,0,0,0,0,0,0,0,0,0,0,0,0,0,0,0,0,0,0,0,0,0,0,0,0,0,0,0,0,0,0,0,0,0,0,0,0,0,0,0,0,0,0,0,0,0,0,0,0,0,0,0,0,0,0,0,0,0,0,0,0,0,0,0,0,0,0,0,0,0,0,0,0,0,0,0,0,2,2,2,2,2,2,2,2,2,2,2,2,2,2,2,2,2,2,0,0,
2,2,2,2,2,2,2,2,2,2,2,2,2,0,0,0,0,0,0,0,0,0,0,0,0,0,0,0,0,0,0,0,0,0,0,0,0,0,0,0,0,0,0,0,0,0,0,0,0,0,0,0,0,0,0,0,0,0,0,0,0,0,0,0,0,0,0,0,0,0,0,0,0,0,0,0,0,0,0,0,0,0,0,0,0,0,0,0,0,0,0,0,0,0,0,0,0,0,0,0,0,2,2,2,2,2,2,2,2,2,2,2,2,2,2,2,2,2,2,2,
2,2,2,2,2,2,2,2,2,2,2,0,0,0,0,0,0,0,0,0,0,0,0,0,0,0,0,0,0,0,0,0,0,0,0,0,0,0,0,0,0,0,0,0,0,0,0,0,0,0,0,0,0,0,0,0,0,0,0,0,0,0,0,0,0,0,0,0,0,0,0,0,0,0,0,0,0,0,0,0,0,0,0,0,0,0,0,0,0,0,0,0,0,0,0,0,0,0,0,0,0,0,0,2,2,2,2,2,2,2,2,2,2,2,2,2,2,2,2,2,
2,2,2,2,2,2,2,2,2,2,0,0,0,0,0,0,0,0,0,0,0,0,0,0,0,0,0,0,0,0,0,0,0,0,0,0,0,0,0,0,0,0,0,0,0,0,0,0,0,0,0,0,0,0,0,0,0,0,0,0,0,0,0,0,0,0,0,0,0,0,0,0,0,0,0,0,0,0,0,0,0,0,0,0,0,0,0,0,0,0,0,0,0,0,0,0,0,0,0,0,0,0,0,0,0,0,2,2,2,2,2,2,2,2,2,2,2,2,2,2,
2,2,2,2,2,2,2,2,2,0,0,0,0,0,0,0,0,0,0,0,0,0,0,0,0,0,0,0,0,0,0,0,0,0,0,0,0,0,0,0,0,0,0,0,0,0,0,0,0,0,0,0,0,0,0,0,0,0,0,0,0,0,0,0,0,0,0,0,0,0,0,0,0,0,0,0,0,0,0,0,0,0,0,0,0,0,0,0,0,0,0,0,0,0,0,0,0,0,0,0,0,0,0,0,0,0,0,0,0,0,0,2,2,2,2,2,2,2,2,2,
2,2,2,2,2,2,2,0,0,0,0,0,0,0,0,0,0,0,0,0,0,0,0,0,0,0,0,0,0,0,0,0,0,0,0,0,0,0,0,0,0,0,0,0,0,0,0,0,0,0,0,0,0,0,0,0,0,0,0,0,0,0,0,0,0,0,0,0,0,0,0,0,0,0,0,0,0,0,0,0,0,0,0,0,0,0,0,0,0,0,0,0,0,0,0,0,0,0,0,0,0,0,0,0,0,0,0,0,0,0,0,0,2,2,2,2,2,2,2,2
</data>
 </layer>
 <layer id="3" name="drum" width="120" height="80">
  <data encoding="csv">
0,0,0,0,0,49,5,0,0,0,0,0,0,0,0,0,0,0,0,0,0,0,0,0,0,0,0,0,0,0,0,0,0,0,0,0,0,0,0,0,0,0,0,0,0,20,37,37,37,37,37,37,37,37,37,37,37,37,37,37,37,37,37,37,37,37,37,54,0,0,0,0,0,0,0,0,0,0,0,0,0,0,0,0,0,0,0,0,0,0,0,0,0,0,0,0,0,0,0,0,0,0,0,0,0,0,0,0,0,0,0,0,4,51,0,0,0,0,0,0,
0,0,0,0,0,0,49,5,0,0,0,0,0,0,0,0,0,0,0,0,0,0,0,0,0,0,0,0,0,0,0,0,0,0,0,0,0,0,0,0,9,0,0,0,0,0,52,37,37,37,37,37,37,37,37,37,37,37,37,37,37,37,37,37,37,37,54,9,0,0,0,0,0,0,0,0,0,0,0,0,0,0,0,0,0,0,0,0,0,0,0,0,0,0,0,0,0,0,0,0,0,0,0,0,0,0,0,0,0,0,0,4,51,0,0,0,0,0,0,0,
0,0,0,0,0,0,0,49,50,5,0,0,0,0,0,0,0,0,0,0,0,0,0,0,0,0,0,0,0,0,0,0,0,0,0,0,0,0,0,0,0,9,0,0,0,0,0,52,53,37,37,37,37,37,37,37,37,37,37,37,37,37,37,37,37,38,0,0,0,9,0,0,0,0,0,0,0,0,0,0,0,0,0,0,0,0,0,0,0,0,0,0,0,0,0,0,0,0,0,0,0,0,0,0,0,0,0,0,0,4,50,51,0,0,0,0,0,0,0,0,
0,0,0,0,0,0,0,0,0,49,50,5,0,0,0,0,0,0,0,0,0,0,0,0,0,0,0,0,0,0,0,0,0,0,0,0,0,0,0,0,0,0,20,22,0,0,0,0,0,52,37,37,37,37,37,37,37,37,37,37,37,37,37,37,53,54,0,0,0,0,0,0,0,0,0,0,0,0,0,0,0,0,0,0,0,0,0,0,0,0,0,0,0,0,0,0,0,0,0,0,0,0,0,0,0,0,0,4,50,51,0,0,0,0,0,0,0,0,0,0,
0,0,0,0,0,0,0,0,0,0,0,49,5,0,0,0,0,0,0,0,0,0,0,0,0,0,0,0,0,0,0,0,0,0,0,0,0,0,0,0,0,0,52,54,0,0,0,0,0,0,52,53,37,37,53,37,37,37,53,37,37,53,53,54,0,0,0,0,20,22,0,0,0,0,0,0,0,0,0,0,0,0,0,0,0,0,0,0,0,0,0,0,0,0,0,0,0,0,0,0,0,0,0,0,4,50,50,51,0,0,0,0,0,0,0,0,0,17,18,18,
0,0,0,0,0,0,0,0,0,0,0,0,49,50,5,0,0,0,0,0,0,0,0,0,0,0,0,0,0,0,0,0,0,0,0,0,0,0,9,0,0,0,0,0,0,0,0,0,0,0,0,52,53,54,0,52,53,54,0,52,54,0,0,0,0,0,0,0,52,54,0,0,0,9,0,0,9,0,0,0,0,0,0,0,0,0,0,0,0,0,0,0,0,0,0,0,0,0,0,0,0,0,0,4,51,0,0,0,0,0,0,0,0,0,0,17,18,7,0,0,
0,0,0,0,0,0,0,0,0,0,0,0,0,0,49,5,0,0,0,0,0,0,0,0,0,0,0,0,0,0,0,0,0,0,20,22,0,0,0,0,0,0,0,0,9,0,0,0,0,0,0,0,0,0,0,0,0,0,0,0,0,0,0,0,0,0,0,0,0,0,0,0,0,0,0,0,0,0,0,0,0,0,0,0,0,0,0,0,0,0,0,0,0,0,0,0,0,0,0,0,0,4,50,51,0,0,0,0,0,0,0,0,0,0,17,7,0,0,0,0,
0,0,0,0,0,0,0,0,0,0,0,0,0,0,0,49,5,0,0,0,0,0,0,0,0,0,0,0,0,0,0,0,0,0,52,54,0,0,0,20,22,0,0,0,0,0,0,0,0,0,0,9,0,0,0,0,0,0,0,0,0,0,0,0,0,0,0,0,0,0,0,0,0,0,9,0,20,22,0,0,0,0,0,0,0,0,0,0,0,0,0,0,0,0,0,0,0,0,0,4,50,51,0,0,0,0,0,0,0,0,0,0,18,18,7,0,0,0,0,0,
0,0,0,0,0,0,0,0,0,0,0,0,0,0,0,0,49,50,50,5,0,0,0,0,0,0,0,0,0,0,0,0,0,0,0,0,0,0,0,52,54,0,0,0,0,0,0,0,0,0,0,0,0,0,0,0,0,0,0,0,0,0,0,0,0,0,0,0,9,0,0,0,0,0,0,0,52,54,0,0,9,0,0,0,0,0,0,0,0,0,0,0,0,0,0,0,0,4,50,51,0,0,0,0,0,0,0,0,0,0,0,0,0,0,0,0,0,0,0,0,
0,0,0,0,0,0,0,0,0,0,0,0,0,0,0,0,0,0,0,49,5,0,0,0,0,0,0,0,0,9,0,0,0,0,0,0,0,0,0,0,0,0,0,0,0,0,0,0,0,0,0,0,0,0,0,0,0,0,0,0,0,0,0,0,0,0,0,0,0,0,20,22,0,0,0,0,0,0,0,0,0,0,0,0,0,0,0,0,0,0,0,0,0,0,0,0,4,51,0,0,0,0,0,0,0,0,0,0,0,0,0,0,0,0,0,0,0,0,0,0,
0,0,0,0,0,0,0,0,0,0,0,0,0,0,0,0,0,0,0,0,49,5,0,0,0,0,0,20,22,0,0,0,0,9,0,0,0,0,0,0,0,0,0,0,0,0,0,0,0,0,0,0,0,0,0,0,9,0,0,0,0,0,0,0,0,0,0,0,0,0,52,54,0,0,0,0,0,0,0,0,0,0,0,0,9,0,0,0,0,0,0,0,0,0,0,4,51,0,0,0,0,0,0,0,0,0,0,0,0,0,0,0,0,0,0,0,0,0,0,0,
0,0,0,0,0,0,0,0,0,0,0,0,0,0,0,0,0,0,0,0,0,49,5,0,0,0,0,52,54,0,0,0,20,22,0,0,0,0,0,0,0,0,0,0,0,0,0,0,0,0,0,9,0,0,0,0,0,0,0,0,0,0,0,0,0,0,0,0,0,0,0,0,0,0,0,0,0,0,0,0,0,0,0,0,9,0,0,0,0,0,0,0,0,0,4,51,0,0,0,0,0,0,0,0,0,0,0,0,0,0,0,0,0,0,0,0,0,0,0,0,
0,0,0,0,0,0,0,0,0,0,0,0,0,0,0,0,0,0,0,0,0,0,49,5,0,0,0,0,0,0,0,0,52,54,0,0,0,0,0,0,0,0,0,0,0,0,0,0,0,0,0,0,0,0,0,0,0,0,0,0,0,0,0,0,0,0,0,0,0,0,0,0,0,9,0,0,20,22,0,0,0,0,0,0,0,0,0,0,0,0,0,0,0,4,51,0,0,0,0,0,0,0,0,0,0,0,0,0,0,0,0,0,0,0,0,0,0,0,0,0,
0,0,0,0,0,0,0,0,0,0,0,0,0,0,0,0,0,0,0,0,0,0,0,49,5,0,0,0,0,0,0,0,0,0,0,0,0,0,0,0,0,0,0,0,0,0,0,0,0,0,0,0,0,0,0,0,0,0,0,0,0,0,0,0,0,0,0,0,0,0,0,0,0,0,0,0,52,54,0,0,0,0,20,22,0,0,0,0,0,0,0,0,4,51,0,0,0,0,0,0,0,0,0,0,0,0,0,0,0,0,0,0,0,0,0,0,0,0,0,0,
0,0,0,0,0,0,0,0,0,0,0,0,0,0,0,0,0,0,0,0,0,0,0,0,49,8,8,8,0,0,0,0,0,0,0,0,0,0,0,0,0,0,0,0,0,0,0,0,0,0,0,0,0,0,0,0,0,0,0,0,0,0,0,0,0,0,0,0,0,0,0,0,0,0,0,0,0,0,0,0,0,0,52,54,0,0,0,9,0,0,4,50,51,0,0,0,0,0,0,0,0,0,0,0,0,0,0,0,0,0,0,0,0,0,0,0,0,0,0,0,
0,0,0,0,0,0,0,0,0,0,0,0,0,0,0,0,0,0,0,0,0,0,0,0,8,8,8,5,0,0,0,0,0,0,0,0,0,0,0,0,0,0,0,0,0,0,0,0,0,0,0,0,0,0,0,0,0,0,0,0,0,0,0,0,0,0,0,0,0,0,0,0,0,0,0,0,0,0,0,0,0,0,0,0,0,0,0,0,4,50,51,0,0,0,0,0,0,0,0,0,0,0,0,0,0,0,0,0,0,0,0,0,0,0,0,0,0,0,0,0,
0,0,0,0,0,0,0,0,0,0,0,0,0,0,0,0,0,0,0,0,0,0,0,8,8,8,0,49,5,0,0,0,0,0,0,0,0,0,0,0,0,0,0,0,0,0,0,0,0,0,0,0,0,0,0,0,0,0,0,0,0,0,0,0,0,0,0,0,0,0,0,0,0,0,0,0,0,0,0,0,0,0,0,9,0,0,0,0,35,0,0,0,0,0,0,0,0,0,0,0,0,0,0,0,0,0,0,0,0,0,0,0,0,0,0,0,0,0,0,0,
0,0,0,0,0,0,0,0,0,0,0,0,0,0,0,6,19,0,0,0,0,0,8,8,8,0,0,0,49,50,5,0,0,0,0,0,0,0,0,0,0,0,0,0,0,0,0,0,0,0,0,9,0,0,0,0,0,0,0,0,0,0,0,0,0,0,0,0,0,0,0,0,0,0,0,0,0,0,0,0,0,0,0,0,0,0,8,8,8,0,0,0,0,0,0,0,0,0,0,0,0,0,0,0,0,0,0,0,0,0,0,0,0,0,0,0,0,0,0,0,
0,0,0,0,0,0,0,0,0,0,0,0,0,0,0,0,6,18,18,18,19,8,8,8,0,0,0,0,0,0,49,5,0,0,0,0,0,0,0,0,0,0,0,0,0,0,0,0,0,0,0,0,0,0,0,9,0,0,0,0,0,0,0,0,0,0,0,0,0,0,0,0,0,0,0,0,0,0,0,0,0,0,4,50,50,50,51,8,8,8,0,0,0,0,0,0,0,0,0,0,0,0,0,0,0,0,0,0,0,0,0,0,0,0,0,0,0,0,0,0,
0,0,0,0,0,0,0,0,0,0,0,0,0,0,0,0,0,0,0,0,8,8,8,0,0,0,0,0,0,0,0,49,5,0,0,0,0,0,0,0,0,0,0,0,0,0,0,0,0,0,0,0,0,0,0,0,0,0,0,0,0,0,0,0,0,0,0,0,0,0,0,0,0,0,0,0,0,0,0,0,0,4,51,0,0,0,0,0,8,8,8,0,0,17,18,18,0,0,0,0,0,0,0,0,0,0,0,0,0,0,0,0,0,0,0,0,0,0,0,0,
0,0,0,0,0,0,0,0,0,0,0,0,0,0,0,0,0,0,20,22,0,0,0,0,0,0,0,0,0,0,0,0,49,50,5,0,0,0,0,4,50,50,50,50,50,50,50,50,50,50,50,50,50,8,8,50,50,50,50,50,50,50,50,50,50,50,50,50,50,5,0,0,0,0,0,0,4,50,50,50,50,51,0,0,0,0,0,0,0,8,8,8,8,7,0,0,0,0,0,0,0,0,0,0,0,0,0,0,0,0,0,0,0,0,0,0,0,0,0,0,
0,0,0,0,0,0,0,0,0,0,0,0,0,0,0,0,9,0,52,54,0,0,0,0,0,0,0,0,0,0,0,0,0,0,49,50,50,50,50,51,0,0,0,0,0,0,0,0,0,0,0,0,0,8,8,0,0,0,0,0,0,0,0,0,0,0,0,0,0,49,50,50,50,50,50,50,51,0,0,0,0,0,0,0,0,0,0,0,0,8,8,8,0,0,0,9,0,0,0,0,0,0,0,0,0,0,0,0,0,0,0,0,0,0,0,0,0,0,0,0,
0,0,0,0,0,0,0,0,0,0,0,0,0,20,22,0,0,0,0,0,0,0,0,0,0,0,0,0,0,0,0,0,0,0,0,0,0,0,0,0,0,0,0,0,0,0,0,0,0,0,0,0,0,8,8,0,0,0,0,0,0,0,0,0,0,0,0,0,0,0,0,0,0,0,0,0,0,0,0,0,0,0,0,0,0,0,0,17,18,8,0,0,0,0,0,0,0,0,0,0,0,0,0,0,0,0,0,0,0,0,0,0,0,0,0,0,0,0,0,0,
0,0,0,0,0,0,0,0,0,0,0,0,0,52,54,0,0,0,0,0,0,0,0,0,0,0,0,0,0,0,0,0,0,0,0,0,0,0,0,0,0,0,0,0,0,0,0,0,0,0,0,0,0,8,8,0,0,0,0,0,0,0,0,0,0,0,0,0,0,0,0,0,0,0,0,0,0,0,0,0,0,0,0,0,0,0,18,7,0,0,0,0,0,9,0,0,0,0,0,9,0,0,0,0,0,0,0,0,0,0,0,0,0,0,0,0,0,0,0,0,
0,0,0,0,0,0,0,0,0,0,0,0,0,0,0,0,0,0,0,0,0,0,0,0,0,0,0,0,0,0,0,0,0,0,0,0,0,0,0,0,0,0,0,0,0,0,0,0,0,0,0,0,0,8,8,0,0,0,0,0,0,0,0,0,0,0,0,0,0,0,0,0,0,0,0,0,0,0,0,0,0,0,0,0,0,0,0,0,0,0,0,0,0,0,0,0,0,0,0,0,0,0,0,0,0,0,0,0,0,0,0,0,0,0,0,0,0,0,0,0,
0,0,0,0,0,0,0,0,0,0,0,0,0,0,0,0,20,22,0,0,0,0,0,0,0,0,0,0,0,0,0,0,0,0,0,0,0,0,0,0,0,0,0,0,0,0,0,0,0,0,0,0,0,8,8,0,0,0,0,0,0,0,0,0,0,0,0,0,0,0,0,0,0,0,0,0,0,0,0,0,0,0,0,0,0,0,0,0,9,0,20,22,0,0,0,0,0,0,0,0,0,0,0,0,0,0,9,0,0,0,0,0,0,0,0,0,0,0,0,0,
0,0,0,0,0,0,0,0,0,0,0,0,0,0,0,0,52,54,0,0,0,0,0,0,0,0,0,0,0,0,0,0,0,0,0,0,0,0,0,0,0,0,0,0,0,0,0,0,0,0,0,0,0,8,8,0,0,0,0,0,0,0,0,0,0,0,0,0,0,0,0,0,0,0,0,0,0,0,0,0,0,0,0,0,0,0,0,0,0,0,52,54,0,0,0,0,0,0,0,0,0,0,9,0,0,0,0,0,0,0,0,0,0,0,0,0,0,0,0,0,
0,0,0,0,0,0,0,0,0,0,0,20,22,0,0,0,0,0,0,0,0,0,0,0,0,0,0,0,0,0,0,0,0,0,0,0,0,0,0,0,0,0,0,0,17,18,18,18,18,18,18,18,18,8,8,18,18,18,18,18,18,18,18,18,18,19,0,0,0,0,0,0,0,0,0,0,0,0,0,0,0,0,0,0,0,0,0,0,0,0,0,0,0,0,0,9,0,0,0,0,0,0,0,0,0,0,0,0,0,0,0,0,0,0,0,0,0,0,0,0,
0,0,0,0,0,0,0,0,0,0,0,52,54,0,0,0,0,0,0,0,0,0,0,0,0,0,0,0,0,0,0,0,0,0,0,0,0,0,0,0,0,0,0,17,7,0,0,0,0,0,0,0,0,0,0,0,0,0,0,0,0,0,0,0,0,6,19,0,0,0,0,0,0,0,0,0,0,0,0,0,0,0,0,0,0,0,0,0,0,0,0,0,0,0,0,9,0,0,20,22,0,0,0,0,20,22,0,0,0,0,0,0,0,0,0,0,0,0,0,0,
0,0,0,0,0,0,0,0,0,0,0,0,0,0,0,0,0,0,0,0,0,0,0,0,0,0,0,0,0,0,35,0,0,0,0,0,0,0,0,0,0,0,17,7,0,0,0,0,0,0,0,0,0,0,0,0,0,0,0,0,0,0,0,0,0,0,6,19,0,0,0,0,0,0,0,0,0,33,0,0,0,0,0,0,0,0,0,0,0,0,0,0,0,0,0,0,0,0,52,54,0,0,0,0,52,54,0,0,0,9,0,0,0,0,0,9,0,0,0,0,
0,0,0,0,0,0,0,0,0,0,0,0,0,20,22,0,0,0,0,0,0,0,0,0,0,0,0,0,0,0,35,0,0,0,0,0,0,0,0,0,0,17,7,0,0,0,0,0,0,0,0,0,0,0,0,0,0,0,0,0,0,0,0,0,0,0,0,6,19,0,0,0,0,0,0,0,0,33,0,0,0,0,0,0,0,0,0,0,0,0,0,0,0,0,0,0,0,0,0,0,0,0,0,0,0,0,0,0,0,0,0,0,0,0,0,0,20,21,21,21,
0,0,0,0,0,0,0,0,0,0,0,9,0,52,54,0,0,0,0,0,0,0,0,0,0,0,0,0,0,0,35,0,0,0,0,0,0,0,0,0,17,7,0,0,0,0,0,0,0,0,0,0,0,0,0,0,0,0,0,0,0,0,0,0,0,0,0,0,6,19,0,0,0,0,0,0,0,0,0,0,0,0,0,0,0,0,0,0,0,0,0,0,0,0,0,9,0,0,9,0,0,0,0,0,0,0,0,0,0,0,0,0,0,0,9,20,37,37,37,37,
0,0,0,0,0,0,0,0,0,0,0,0,0,0,0,0,0,0,0,0,0,0,0,0,0,0,0,0,0,0,35,0,0,0,0,0,0,0,0,17,7,0,0,0,0,0,0,0,0,0,0,0,0,0,0,0,0,0,0,0,0,0,0,0,0,0,0,0,0,6,19,0,0,0,0,0,0,0,0,0,0,0,0,0,0,0,0,0,0,0,0,0,0,0,0,0,0,0,0,0,0,0,0,0,0,0,0,0,0,0,9,0,0,0,0,36,37,37,37,37,
0,0,9,0,0,0,0,0,0,0,0,0,20,22,0,0,0,0,0,0,0,0,0,0,0,0,0,0,0,0,35,0,0,0,0,0,0,0,17,7,0,0,0,0,0,0,0,0,0,0,0,0,0,0,0,0,0,0,0,0,0,0,0,0,0,0,0,0,0,0,6,19,0,0,0,0,0,0,0,0,0,0,0,0,0,0,0,0,0,0,0,0,0,0,0,0,0,0,0,0,0,20,22,0,0,0,0,0,0,0,0,0,0,0,20,37,37,37,37,37,
0,0,0,0,0,0,0,0,0,9,0,0,52,54,0,0,0,0,0,0,0,0,0,0,0,0,0,0,0,0,35,0,0,0,0,0,0,0,33,0,0,0,0,0,0,0,0,0,0,0,0,0,0,0,0,0,0,0,0,0,0,0,0,0,0,0,0,0,0,0,0,35,0,0,0,0,0,33,0,0,0,0,0,0,0,0,0,0,0,0,0,0,0,0,0,0,0,0,0,0,0,52,54,0,0,0,0,0,0,20,22,0,0,0,36,37,37,37,37,37,
0,0,0,0,0,0,0,0,0,0,0,0,0,0,0,0,0,0,0,0,0,0,0,0,0,0,0,0,0,0,35,0,0,0,0,0,0,0,33,0,0,0,0,0,0,0,0,0,0,0,0,0,0,0,0,0,0,0,0,0,0,0,0,0,0,0,0,0,0,0,0,35,0,0,0,0,0,33,0,0,0,0,0,0,0,0,0,0,0,0,0,0,0,0,0,0,0,0,0,0,0,0,0,0,9,0,0,0,0,52,54,0,0,0,36,37,37,37,37,37,
22,0,0,0,0,0,0,0,0,0,0,0,0,0,0,0,0,0,0,0,0,0,0,0,0,0,0,0,0,0,35,0,0,0,0,0,0,0,33,0,0,0,0,0,0,0,0,0,0,0,0,0,0,0,0,0,0,0,0,0,0,0,0,0,0,0,0,0,0,0,0,35,0,0,0,0,0,33,0,0,0,0,0,0,0,0,0,0,0,0,0,0,0,0,0,0,0,0,0,0,0,0,0,0,0,0,0,0,0,0,0,0,0,20,37,37,37,37,37,37,
37,21,21,21,21,22,0,0,0,0,20,22,0,0,0,20,21,21,21,21,21,21,21,21,21,21,21,21,21,22,35,0,0,0,0,0,0,0,33,0,0,0,0,0,0,0,0,0,0,0,0,0,0,0,0,0,0,0,0,0,0,0,0,0,0,0,0,0,0,0,0,35,0,0,0,0,0,33,0,0,0,0,9,0,0,0,0,0,0,0,0,0,0,0,0,0,0,9,0,0,0,0,0,0,0,0,0,0,0,0,0,0,0,36,37,37,37,37,37,37,
37,37,37,37,37,37,21,21,21,21,37,37,21,21,21,37,37,37,37,37,37,37,37,37,37,37,37,37,37,38,8,8,8,8,8,8,8,8,8,0,0,0,0,0,0,0,0,0,0,0,0,0,0,0,0,0,0,0,0,0,0,0,0,0,0,0,0,0,0,0,0,8,8,8,8,8,8,8,0,0,0,0,0,0,0,0,0,0,0,0,0,9,0,0,0,0,0,0,0,0,0,0,0,0,0,0,0,0,0,0,0,0,0,36,37,37,37,37,37,37,
37,37,53,53,53,53,53,53,37,37,37,37,37,37,37,37,37,37,53,37,37,37,37,37,53,37,37,37,37,38,8,8,8,8,8,8,8,8,8,0,0,0,0,0,0,0,0,0,0,0,0,0,0,0,0,0,0,0,0,0,0,0,0,0,0,0,0,0,0,0,0,8,8,8,8,8,8,8,0,0,0,0,0,0,0,0,0,0,0,0,0,0,0,0,0,0,0,0,0,0,0,0,0,0,0,0,0,0,0,0,0,0,0,36,37,37,37,37,37,37,
53,54,0,0,0,0,0,0,52,37,37,37,37,37,37,53,53,54,0,52,53,53,53,54,0,52,53,53,37,38,35,0,0,0,0,0,0,0,33,0,0,0,0,0,0,0,0,0,0,0,0,0,0,0,0,0,0,0,0,0,0,0,0,0,0,0,0,0,0,0,0,35,0,0,0,0,0,33,0,0,0,0,0,0,0,0,0,0,0,0,0,0,0,0,0,0,0,0,0,0,0,0,0,0,0,0,0,0,0,0,0,0,0,52,37,37,37,37,37,37,
0,0,0,0,0,0,0,0,0,52,53,53,53,53,54,0,0,0,0,0,0,0,0,0,0,0,0,0,52,54,35,0,0,0,0,0,0,0,33,0,0,0,0,0,0,0,0,0,0,0,0,0,0,0,0,0,0,0,0,0,0,0,0,0,0,0,0,0,0,0,0,35,0,0,0,0,0,33,0,0,0,0,0,0,0,0,0,0,0,0,0,0,0,0,0,0,0,0,0,0,0,0,0,0,0,0,0,0,0,0,0,0,0,0,52,37,37,37,37,37,
0,0,0,0,0,0,0,0,0,0,0,0,0,0,0,0,0,0,0,0,0,0,0,0,0,0,0,0,0,0,35,0,0,0,0,0,0,0,33,0,0,0,0,0,0,0,0,0,0,0,0,0,0,0,0,0,0,0,0,0,0,0,0,0,0,0,0,0,0,0,0,35,0,0,0,0,0,33,0,0,0,0,0,0,0,0,0,0,0,0,0,0,0,0,0,0,0,0,0,0,0,0,9,0,0,0,0,0,0,0,0,0,0,0,0,36,37,37,37,37,
0,0,0,0,0,0,0,0,0,0,20,22,0,0,9,0,0,0,0,0,0,0,0,0,0,0,0,0,0,0,35,0,0,0,0,0,0,0,49,5,0,0,0,0,0,0,0,0,0,0,0,0,0,0,0,0,0,0,0,0,0,0,0,0,0,0,0,0,0,0,4,51,0,0,0,0,0,33,0,0,0,0,0,0,0,0,0,0,0,0,0,0,0,0,0,0,0,0,0,0,0,0,0,0,0,0,0,0,0,0,0,0,0,0,0,36,37,37,37,37,
0,0,0,0,0,0,0,0,0,0,52,54,0,0,0,0,0,0,0,0,0,0,0,0,0,0,0,0,0,0,35,0,0,0,0,0,0,0,0,49,5,0,0,0,0,0,0,0,0,0,0,0,0,0,0,0,0,0,0,0,0,0,0,0,0,0,0,0,0,4,51,0,0,0,0,0,0,33,0,0,0,0,0,0,0,0,0,0,0,0,0,0,0,0,0,0,0,0,0,9,0,0,0,20,22,0,0,0,0,0,0,0,0,0,0,52,37,37,37,37,
0,0,0,0,0,0,0,9,0,0,0,0,0,0,0,0,0,0,0,0,0,0,0,0,0,0,0,0,0,0,35,0,0,0,0,0,0,0,0,0,49,5,0,0,0,0,0,0,0,0,0,0,0,0,0,0,0,0,0,0,0,0,0,0,0,0,0,0,4,51,0,0,0,0,0,0,0,33,0,0,0,0,0,0,0,0,0,0,0,0,0,0,0,0,0,0,0,0,0,0,0,0,0,52,54,0,0,0,0,0,0,9,0,0,0,0,52,37,37,37,
0,0,0,0,0,0,0,0,0,0,0,0,20,22,0,0,0,0,0,0,0,0,0,0,0,0,0,0,0,0,0,0,0,0,0,0,0,0,0,0,0,49,5,0,0,0,0,0,0,0,0,0,0,0,0,0,0,0,0,0,0,0,0,0,0,0,0,4,51,0,0,0,0,0,0,0,0,33,0,0,0,0,0,0,0,0,0,0,0,0,0,0,0,0,0,0,0,0,0,0,0,0,0,0,0,0,0,0,0,0,0,0,0,0,9,0,0,52,37,37,
0,0,0,0,0,0,0,0,0,0,0,0,52,54,0,0,0,0,0,0,0,0,0,0,0,0,0,0,0,0,0,0,0,0,0,0,0,0,0,0,0,0,49,5,0,0,0,0,0,0,0,0,0,0,0,0,0,0,0,0,0,0,0,0,0,0,4,51,0,0,0,0,0,0,0,0,0,33,0,0,0,0,0,0,0,0,0,0,0,0,0,0,0,0,0,0,0,0,9,0,0,0,0,0,0,0,0,0,0,0,9,0,0,0,9,0,0,0,52,53,
0,0,0,0,0,0,0,0,0,0,0,0,0,0,0,0,0,0,0,0,0,0,0,0,0,0,0,0,0,0,0,0,0,0,0,0,0,0,0,0,0,0,0,49,5,0,0,0,0,0,0,0,0,0,0,0,0,0,0,0,0,0,0,0,0,4,51,0,0,0,0,0,0,0,0,0,0,33,0,0,0,0,0,0,0,0,0,0,0,0,0,0,0,0,0,0,0,0,9,0,0,0,0,0,0,0,0,0,0,0,0,0,0,0,0,0,9,0,0,0,
0,0,0,0,0,0,0,0,0,0,20,22,0,0,0,0,0,0,0,0,0,0,0,0,0,0,0,0,0,0,0,0,0,0,0,0,0,0,0,0,0,0,0,0,49,50,50,50,50,50,50,50,50,8,8,50,50,50,50,50,50,50,50,50,50,51,0,0,0,0,0,0,0,0,0,0,0,33,0,0,0,0,0,0,0,0,0,0,0,0,0,0,0,0,0,0,0,0,0,0,0,0,0,0,0,20,22,0,0,0,0,0,0,0,0,0,0,0,0,0,
0,0,0,0,0,0,0,0,0,0,52,54,0,0,0,0,0,9,0,0,0,0,0,0,0,0,0,0,0,0,0,0,0,0,0,0,0,0,0,0,0,0,0,0,0,0,0,0,0,0,0,0,0,8,8,0,0,0,0,0,0,0,0,0,0,0,0,0,0,0,0,0,0,0,0,0,0,33,0,0,0,0,0,0,0,0,0,0,0,0,0,0,0,0,0,9,0,0,20,22,0,0,0,0,0,52,54,0,0,0,0,0,0,0,0,0,0,0,0,0,
0,0,0,0,0,0,0,0,0,0,0,0,0,0,0,0,0,0,0,0,0,0,0,0,0,0,0,0,0,0,0,0,0,0,0,0,0,0,0,0,0,0,0,0,0,0,0,0,0,0,0,0,0,8,8,0,0,0,0,0,0,0,0,0,0,0,0,0,0,0,0,0,0,0,0,0,0,33,0,0,0,0,0,0,0,0,0,0,0,0,0,0,0,0,0,0,0,0,52,54,0,0,0,0,0,0,0,0,0,0,0,0,0,0,0,0,0,0,0,0,
0,0,0,0,0,0,0,0,0,0,0,0,20,22,0,0,0,0,0,0,0,0,0,0,0,0,0,0,0,0,0,0,0,0,0,0,0,0,0,0,0,0,0,0,0,0,0,0,0,0,0,0,0,8,8,0,0,0,0,0,0,0,0,0,0,0,0,0,0,0,0,0,0,0,0,0,0,49,50,5,0,0,0,0,0,0,0,0,0,0,0,0,0,0,0,0,0,0,0,0,0,0,0,0,0,0,0,0,0,0,0,0,0,0,0,0,0,0,0,0,
0,0,0,0,0,0,0,0,0,0,0,0,52,54,0,0,0,0,0,0,0,0,0,0,0,0,0,0,0,0,0,0,0,0,0,0,0,0,0,0,0,0,0,0,0,0,0,0,0,0,0,0,0,8,8,0,0,0,0,0,0,0,0,0,0,0,0,0,0,0,0,0,0,0,0,0,0,0,0,49,50,5,0,0,0,0,0,0,0,0,0,0,0,0,9,0,0,0,0,0,0,0,0,0,0,9,0,0,0,0,0,0,0,0,0,0,0,0,0,0,
0,0,0,0,0,0,0,0,0,0,0,0,0,0,0,9,0,0,0,0,0,0,0,0,4,50,0,0,0,0,0,0,0,0,0,0,0,0,0,0,0,0,0,0,0,0,0,0,0,0,0,0,0,8,8,0,0,0,0,0,0,0,0,0,0,0,0,0,0,0,0,0,0,0,0,0,0,0,0,0,0,49,5,0,0,0,0,0,0,0,0,0,0,0,0,0,0,0,0,0,0,0,0,0,0,0,0,0,0,0,0,0,0,0,0,0,0,0,0,0,
0,0,0,0,0,0,0,0,0,0,0,20,22,0,0,0,0,0,0,0,0,9,0,4,51,0,0,0,0,0,0,0,0,0,0,0,0,0,0,0,0,0,0,0,0,0,0,0,0,0,0,0,0,8,8,0,0,0,0,0,0,0,0,0,0,0,0,0,0,0,0,0,0,0,0,0,0,0,0,0,0,0,49,5,0,0,0,0,0,0,0,0,0,0,0,0,0,0,0,0,0,0,0,0,0,0,0,0,0,0,0,0,0,0,0,0,0,0,0,0,
0,0,0,0,0,0,0,0,0,0,0,52,54,0,0,0,0,0,0,0,0,0,4,51,0,0,0,0,0,0,0,0,0,0,0,0,0,0,0,0,0,0,0,0,0,0,0,0,0,18,18,18,18,8,8,18,18,18,18,0,0,0,0,0,0,0,0,0,0,0,0,0,0,0,0,0,0,0,0,0,0,0,0,49,5,0,0,0,9,0,0,0,20,22,0,0,0,0,20,22,0,0,0,0,0,9,0,0,0,0,0,0,0,0,0,0,0,0,0,0,
0,0,0,0,0,0,0,0,0,0,0,0,0,0,0,20,22,0,0,0,0,0,35,0,0,0,0,0,0,0,0,0,0,0,0,0,0,0,0,0,0,0,0,0,0,0,0,0,0,0,0,0,0,0,0,0,0,0,0,0,0,0,0,0,0,0,0,0,0,0,0,0,0,0,0,0,0,0,0,0,0,0,0,0,49,5,0,0,0,0,0,0,52,54,0,0,0,0,52,54,0,0,0,0,0,0,0,0,0,0,0,0,0,0,0,0,0,0,0,0,
0,0,0,0,0,0,0,0,0,0,0,0,0,0,0,52,54,0,0,0,4,50,51,0,0,0,0,0,0,0,0,0,0,0,0,0,0,0,0,0,0,0,0,0,0,0,0,0,0,0,0,0,0,0,0,9,0,9,0,0,0,0,0,0,0,0,0,0,0,0,0,0,0,0,0,0,0,0,0,0,0,0,0,0,0,49,5,0,0,0,0,0,0,0,0,0,0,0,0,0,0,0,9,0,0,0,0,0,0,0,0,0,0,0,0,0,0,0,0,0,
0,0,0,0,0,0,0,0,0,0,0,0,0,0,0,0,0,0,8,4,51,0,0,0,0,0,0,0,0,0,0,0,0,0,0,0,0,0,0,0,0,0,0,0,0,0,0,0,0,0,0,0,0,0,0,0,0,0,0,0,0,0,0,0,0,0,0,0,0,0,0,0,0,0,0,0,0,0,0,0,0,0,0,0,0,0,49,8,0,0,0,0,0,0,0,0,0,0,0,0,0,0,0,0,0,0,0,0,0,0,0,0,0,0,0,0,0,0,0,0,
0,0,0,0,0,0,0,0,0,0,0,0,0,0,0,0,0,8,8,8,0,0,0,0,0,0,0,0,0,0,0,0,0,0,0,0,0,0,0,0,0,0,0,0,0,0,0,0,0,0,0,0,0,0,0,0,0,0,0,0,0,0,0,0,0,0,0,0,0,0,0,0,0,0,0,0,0,0,0,0,19,0,0,0,0,0,0,8,8,8,0,0,0,0,0,0,0,0,0,0,0,0,0,0,0,0,0,0,0,0,0,0,0,0,0,0,0,0,0,0,
0,0,0,0,0,0,0,0,0,0,0,0,0,9,0,0,4,51,8,8,8,0,0,0,0,0,0,0,0,17,18,7,0,0,0,0,0,0,0,0,0,0,0,0,0,0,0,0,0,0,0,0,0,0,0,0,0,0,0,0,0,0,0,0,0,0,0,0,0,0,0,0,0,0,0,0,0,0,0,0,6,19,0,0,0,0,8,8,8,49,50,50,50,5,0,0,0,0,0,0,0,0,0,0,0,0,0,0,0,0,0,0,0,0,0,0,0,0,0,0,
0,0,0,0,0,0,0,0,0,0,0,0,0,0,0,4,51,0,0,8,8,8,0,0,0,0,0,0,0,33,0,0,0,0,0,0,0,0,0,0,0,0,0,0,0,0,0,0,0,0,0,0,0,0,0,0,0,0,0,0,0,0,0,0,0,0,0,0,0,0,0,0,0,0,0,0,0,0,0,0,0,6,19,0,0,8,8,8,0,0,0,0,0,0,50,5,0,0,0,0,0,0,0,0,0,0,0,0,0,0,0,0,0,0,0,0,0,0,0,0,
0,0,0,0,0,0,0,0,0,0,0,0,0,0,0,35,0,0,0,0,8,8,8,0,0,0,0,17,18,7,0,0,0,0,9,0,0,0,0,0,0,0,0,0,0,0,0,0,0,0,0,0,0,0,0,0,0,9,0,0,0,0,0,0,0,0,0,0,0,0,0,0,0,0,0,0,0,0,0,0,0,0,8,8,8,8,8,0,0,0,0,0,0,0,0,0,5,0,0,0,0,9,0,0,0,0,0,0,0,0,0,0,0,0,0,0,0,0,0,0,
0,0,0,0,0,0,0,0,0,0,0,0,0,4,50,51,0,0,0,0,0,8,8,8,0,0,17,7,0,0,0,0,0,0,0,0,0,0,0,0,0,0,0,0,0,0,0,0,0,0,0,0,0,0,0,0,0,0,0,0,0,0,0,0,0,0,0,0,0,0,0,0,0,0,0,0,0,0,0,20,22,0,0,0,8,8,0,0,0,0,0,0,0,0,0,0,49,50,50,5,0,0,0,0,0,0,0,0,0,0,0,0,0,0,0,0,0,0,0,0,
0,0,0,0,0,0,0,0,0,0,0,4,50,0,0,0,0,0,0,0,0,0,8,8,8,17,7,0,0,0,0,0,0,0,0,0,0,0,0,0,0,0,0,0,0,0,0,0,0,0,0,0,0,0,0,0,0,0,0,0,0,0,0,0,0,0,0,0,0,0,0,0,0,0,0,0,0,0,0,52,54,0,0,0,0,8,19,0,0,0,0,0,0,0,0,0,0,0,0,49,5,0,0,0,0,0,0,0,0,0,0,0,0,0,0,0,0,0,0,0,
0,0,0,0,0,0,0,0,4,50,50,51,0,0,0,0,0,0,0,0,0,0,0,8,8,8,0,0,9,0,0,0,0,0,0,0,0,0,0,0,0,0,0,0,0,0,0,0,0,0,9,0,0,0,0,0,0,0,0,0,0,0,0,0,0,0,0,0,0,0,9,0,0,0,0,0,9,0,0,0,0,0,0,0,0,0,6,0,0,0,0,0,0,0,0,0,0,0,0,0,49,5,0,0,0,0,0,0,0,0,0,0,0,0,0,0,0,0,0,0,
0,0,0,0,0,0,0,4,51,0,0,0,0,0,0,0,0,0,0,0,0,0,0,0,0,0,0,0,0,0,0,20,22,0,0,0,0,0,0,0,0,0,0,0,0,0,0,0,0,0,0,0,0,0,0,0,0,0,0,0,0,0,0,0,0,0,0,0,0,0,0,0,0,0,0,0,9,0,0,0,0,0,0,9,0,0,0,0,0,0,0,0,0,0,0,0,0,0,0,0,0,49,5,0,0,0,0,0,0,0,0,0,0,0,0,0,0,0,0,0,
0,0,0,0,0,0,4,51,0,0,0,0,0,0,0,0,0,0,0,0,0,0,0,0,0,0,20,22,0,0,0,52,54,0,0,0,0,9,0,0,0,0,0,0,0,0,0,0,0,0,0,0,0,0,0,0,0,0,0,0,0,0,0,0,0,0,0,0,0,0,0,0,0,0,0,0,0,0,0,0,0,0,0,0,0,0,0,0,0,0,0,0,0,0,0,0,0,0,0,0,0,0,49,0,5,0,0,0,0,0,0,0,0,0,0,0,0,0,0,0,
0,0,0,0,0,0,0,0,0,0,0,0,0,0,0,0,0,0,0,0,0,0,0,0,0,0,52,54,0,0,0,0,0,0,0,0,0,0,0,0,0,0,0,0,0,0,0,0,0,0,0,0,0,0,0,0,0,0,0,0,0,0,0,0,0,0,0,0,0,0,0,20,22,0,0,0,0,0,0,0,0,0,0,0,0,0,0,0,0,0,0,0,0,0,0,0,0,0,0,0,0,0,0,0,49,50,50,5,0,0,0,0,0,0,0,0,0,0,0,0,
0,0,0,0,0,0,0,0,0,0,0,0,0,0,0,0,0,0,0,0,0,0,0,0,0,0,0,0,0,0,0,0,0,0,0,0,0,0,0,0,0,0,0,0,0,0,0,0,0,0,0,0,0,0,0,0,0,0,0,0,0,0,0,0,0,0,0,0,0,0,0,52,54,0,0,0,0,0,20,22,0,0,0,0,0,0,0,0,0,0,0,0,0,0,0,0,0,0,0,0,0,0,0,0,0,0,0,49,5,0,0,0,0,0,0,0,0,0,0,0,
0,0,0,0,0,0,0,0,0,0,0,0,0,0,0,0,0,0,0,0,0,0,0,9,0,0,0,0,0,0,0,0,0,20,22,0,0,0,20,22,0,0,0,0,0,0,0,0,0,0,0,0,0,0,0,0,0,0,0,0,9,0,0,0,0,9,0,0,0,0,0,0,0,0,0,0,0,0,52,54,0,0,0,0,0,0,0,0,0,0,0,0,0,0,0,0,0,0,0,0,0,0,0,0,0,0,0,0,49,50,50,50,50,50,0,0,0,0,0,0,
0,0,0,0,0,0,0,0,0,0,0,0,0,0,0,0,0,0,0,0,0,0,0,0,0,0,0,0,0,0,0,0,0,52,54,0,0,0,52,54,0,0,0,9,0,0,0,0,0,0,9,0,0,0,0,0,0,0,0,0,0,0,0,0,0,0,0,0,0,0,0,0,0,0,0,0,0,0,0,0,0,0,0,0,0,0,0,0,0,0,0,0,0,0,0,0,0,0,0,0,0,0,0,0,0,0,0,0,0,0,0,0,0,0,0,0,0,0,0,0,
0,0,0,0,0,0,0,0,0,0,0,0,0,0,0,0,0,0,0,0,0,0,0,0,0,0,0,0,0,0,0,0,0,0,0,0,0,0,0,0,0,0,0,0,0,0,0,0,0,0,0,20,21,21,21,21,21,21,22,0,0,0,0,0,20,22,0,0,0,0,0,0,0,0,0,0,0,0,0,9,0,0,0,0,0,0,0,0,0,0,0,0,0,0,0,0,0,0,0,0,0,0,0,0,0,0,0,0,0,0,0,0,0,0,0,0,0,0,0,0,
0,0,0,0,0,0,0,0,0,0,0,0,0,0,0,0,0,0,0,0,0,0,0,0,0,0,0,0,0,9,0,0,0,0,0,0,0,0,0,0,20,22,0,0,0,0,9,0,0,20,21,37,37,37,37,37,37,37,37,21,22,0,0,0,52,54,0,0,0,0,0,0,0,0,0,9,0,0,0,0,0,0,0,0,0,0,0,0,0,0,0,0,0,0,0,0,0,0,0,0,0,0,0,0,0,0,0,0,0,0,0,0,0,0,0,0,0,0,0,0,
0,0,0,0,0,0,0,0,0,0,0,0,0,0,0,0,0,0,0,0,0,0,0,0,0,0,0,0,0,0,0,0,0,0,0,0,0,0,9,0,52,54,0,0,0,0,0,0,0,36,37,37,37,37,37,37,37,37,37,37,37,22,0,0,0,0,0,0,0,0,0,20,22,0,0,0,0,0,0,0,0,0,0,0,0,0,0,0,0,0,0,0,0,0,0,0,0,0,0,0,0,0,0,0,0,0,0,0,0,0,0,0,0,0,0,0,0,0,0,0,
0,0,0,0,0,0,0,0,0,0,0,0,0,0,0,0,0,0,0,0,0,0,0,0,0,0,0,0,0,0,0,0,0,0,0,0,0,0,0,0,0,0,0,0,0,0,20,21,21,37,37,37,37,37,37,37,37,37,37,37,37,37,21,22,0,0,0,0,0,0,0,52,54,0,0,0,0,0,0,0,0,0,0,0,0,0,0,0,0,0,0,0,0,0,0,0,0,0,0,0,0,0,0,0,0,0,0,0,0,0,0,0,0,0,0,0,0,0,0,0,
0,0,0,0,0,0,0,0,0,0,0,0,0,0,0,0,0,0,0,0,0,0,0,0,0,0,0,0,0,0,0,0,0,0,0,0,0,0,0,0,0,0,0,0,0,20,37,37,37,37,37,37,37,37,37,37,37,37,37,37,37,37,37,38,0,0,0,0,0,0,0,9,0,0,0,0,0,0,0,0,0,0,0,0,0,0,0,0,0,0,0,0,0,0,0,0,0,0,0,0,0,0,0,0,0,0,0,0,0,0,0,0,0,0,0,0,0,0,0,0,
0,0,0,0,0,0,0,0,0,0,0,0,0,0,0,0,0,0,0,0,0,0,0,0,0,0,0,0,0,0,0,0,0,0,0,0,0,0,0,0,0,0,0,0,0,36,37,37,37,37,37,37,37,37,37,37,37,37,37,37,37,37,37,38,0,0,9,0,0,0,0,0,0,0,0,0,0,0,0,0,0,0,0,0,0,0,0,0,0,0,0,0,0,0,0,0,0,0,0,0,0,0,0,0,0,0,0,0,0,0,0,0,0,0,0,0,0,0,0,0,
0,0,0,0,0,0,0,0,0,0,0,0,0,0,0,0,0,0,0,0,0,0,0,0,0,0,0,0,0,0,0,0,0,0,0,0,0,0,0,0,0,0,0,0,0,36,37,37,37,37,37,37,37,37,37,37,37,37,37,37,37,37,37,38,0,0,0,0,0,0,9,0,0,0,0,0,0,0,0,0,0,0,0,0,0,0,0,0,0,0,0,0,0,0,0,0,0,0,0,0,0,0,0,0,0,0,0,0,0,0,0,0,0,0,0,0,0,0,0,0
</data>
 </layer>
 <layer id="4" name="Collision" width="120" height="80">
  <data encoding="csv">
0,0,0,0,2,0,0,0,0,0,0,0,0,0,0,82,0,0,0,0,0,82,0,0,0,97,98,99,0,0,0,0,66,0,0,0,0,82,0,0,0,0,0,0,0,0,0,0,0,0,0,0,0,0,0,0,0,0,0,0,0,0,0,0,0,0,0,0,0,0,0,82,0,0,0,0,0,82,0,0,0,0,0,0,0,0,0,0,66,0,0,0,0,66,0,0,0,0,82,0,0,0,0,0,0,82,0,97,98,99,0,0,0,0,0,0,0,2,2,2,
0,0,0,0,2,2,0,0,0,0,0,0,0,0,97,98,99,0,0,0,97,98,99,0,0,113,114,115,0,0,0,0,82,0,0,0,97,98,99,0,0,0,0,0,0,0,0,0,0,0,0,0,0,0,0,0,0,0,0,0,0,0,0,0,0,0,0,0,0,0,97,98,99,0,0,0,97,98,99,0,0,66,0,0,0,0,0,0,82,0,0,0,0,82,0,0,0,97,98,99,0,0,0,0,97,98,99,113,114,115,0,0,0,0,0,2,2,2,0,2,
0,0,0,0,0,2,2,0,0,0,0,0,0,0,113,114,115,0,0,0,113,114,115,0,0,0,0,0,0,0,0,97,98,99,0,0,113,114,115,0,0,0,0,0,0,0,0,0,0,0,0,0,0,0,0,0,0,0,0,0,0,0,0,0,0,0,0,0,0,0,113,114,115,0,0,0,113,114,115,0,0,82,0,0,0,0,0,97,98,99,0,0,97,98,99,0,0,113,114,115,0,0,0,0,113,114,115,0,0,0,0,0,0,2,2,2,0,0,2,2,
0,0,0,0,0,0,2,2,2,0,0,0,0,0,0,0,0,0,0,66,0,0,0,0,0,0,0,0,0,66,0,113,114,115,0,0,0,0,0,0,0,0,0,0,0,0,0,0,0,0,0,0,0,0,0,0,0,0,0,0,0,0,0,0,0,0,0,0,0,0,0,0,0,0,0,0,0,0,0,0,97,98,99,0,0,0,0,113,114,115,0,0,113,114,115,0,0,0,66,0,0,0,0,0,0,0,0,0,0,0,0,2,2,2,0,0,2,2,0,0,
0,0,0,0,0,0,0,2,2,2,2,0,0,0,0,0,0,0,0,82,0,0,0,0,0,0,0,0,0,82,0,0,0,0,0,0,0,0,0,0,0,0,0,0,0,0,0,0,0,0,0,0,0,0,0,0,0,0,0,0,0,0,0,0,0,0,0,0,0,0,0,0,0,0,0,0,0,0,0,0,113,114,115,0,0,0,0,0,0,0,0,0,0,0,0,0,0,0,82,0,0,0,0,0,0,0,0,0,2,2,2,2,0,0,2,2,2,0,0,0,
2,0,0,0,0,0,0,0,0,2,2,2,0,0,0,0,0,0,97,98,99,0,0,0,66,0,0,0,97,98,99,0,0,0,0,0,0,0,0,0,0,0,0,0,0,0,0,0,0,0,0,0,0,0,0,0,0,0,0,0,0,0,0,0,0,0,0,0,0,0,0,0,0,0,0,0,0,0,0,0,0,0,0,0,0,0,0,0,0,0,0,0,0,66,0,0,0,97,98,0,0,0,0,0,0,0,2,2,2,0,0,0,0,2,2,0,0,0,0,0,
0,2,2,2,0,0,0,0,0,0,0,2,2,2,0,0,0,0,113,114,115,0,0,0,82,0,0,0,113,114,115,0,0,0,0,0,0,0,0,0,0,0,0,0,0,0,0,0,0,0,0,0,0,0,0,0,0,0,0,0,0,0,0,0,0,0,0,0,0,0,0,0,0,0,0,0,0,0,0,0,0,0,66,0,0,0,0,0,0,0,0,0,0,82,0,0,0,113,0,0,0,0,0,0,2,2,2,0,0,0,0,2,2,0,0,0,0,0,0,0,
0,0,0,2,2,0,0,0,0,0,0,0,2,2,2,0,0,0,0,0,0,0,0,97,98,99,0,0,0,0,0,0,0,0,0,0,0,0,0,0,0,0,0,0,0,0,66,0,0,0,0,0,0,0,0,0,0,0,0,66,0,0,0,0,0,0,66,0,0,0,0,0,0,0,0,0,0,0,0,0,0,0,82,0,0,0,0,66,0,0,0,0,97,98,99,0,0,0,0,0,0,0,2,2,2,0,0,0,0,0,2,2,0,0,0,0,0,0,0,0,
0,0,0,0,2,2,0,0,0,0,0,0,0,2,2,2,0,0,0,0,0,0,0,113,114,115,0,0,0,0,0,0,0,0,0,0,0,0,0,0,0,0,0,0,0,0,82,0,0,0,0,0,0,0,0,0,0,0,0,82,0,0,0,0,0,0,82,0,0,0,0,0,0,0,0,0,0,0,0,0,0,97,98,99,0,0,0,82,0,0,0,0,113,114,115,0,0,0,0,0,0,2,2,0,0,0,0,0,2,2,0,0,0,0,0,0,0,66,0,0,
0,0,0,0,0,2,2,0,0,0,0,0,0,0,0,2,2,2,2,0,0,0,0,0,0,0,0,0,0,0,0,0,0,0,0,0,0,0,0,0,0,0,0,0,0,97,98,99,0,0,0,0,0,0,0,0,0,0,97,98,99,0,0,0,0,97,98,99,0,0,0,0,0,0,0,0,0,0,0,0,0,113,114,115,0,0,97,98,99,0,0,0,0,0,0,0,0,0,0,0,2,2,0,0,0,0,2,2,2,0,0,0,0,0,0,0,0,82,0,0,
0,0,0,0,0,0,2,2,0,0,0,0,0,0,0,0,0,0,2,2,0,0,0,0,0,0,0,0,0,0,0,0,0,0,0,0,0,66,0,0,0,0,0,0,0,113,114,115,0,0,0,0,0,0,0,0,0,0,113,114,115,0,0,0,66,113,114,115,0,0,0,0,0,0,0,0,0,0,0,0,0,0,0,0,0,0,113,114,115,0,0,0,0,0,0,0,0,0,0,2,2,0,0,0,2,2,2,0,0,0,0,0,0,0,0,0,97,98,99,0,
0,0,0,0,0,0,0,2,2,2,0,0,0,0,0,0,0,0,2,2,2,0,0,0,0,0,0,0,0,0,0,0,0,0,0,0,0,82,0,0,0,0,0,0,0,0,0,0,66,0,0,0,0,0,0,0,0,0,0,0,0,0,0,0,82,0,0,0,0,0,0,0,0,0,0,0,0,0,0,0,0,0,0,0,0,0,0,0,66,0,0,0,0,0,0,0,0,0,2,2,0,0,0,2,2,0,0,0,0,0,0,113,0,0,0,0,113,114,115,0,
0,0,0,0,0,0,0,0,0,2,2,0,0,0,0,0,0,0,0,0,2,2,0,0,0,0,0,0,0,0,0,0,0,0,0,0,97,98,99,0,0,0,0,0,0,0,0,0,82,0,0,0,0,0,0,0,0,0,0,0,0,0,0,97,98,99,0,0,0,0,0,0,66,0,0,0,0,0,0,0,0,0,0,0,0,0,0,0,82,0,0,0,0,0,0,0,2,2,0,0,0,2,2,0,0,0,0,0,0,0,0,0,0,0,0,0,0,0,0,0,
0,0,0,0,0,0,0,0,0,0,2,2,2,2,0,0,0,0,0,0,0,2,2,0,0,0,0,0,0,0,0,0,0,0,0,0,113,114,115,0,0,0,0,0,66,0,0,97,98,99,0,0,0,0,0,0,0,0,0,66,0,0,0,113,114,115,0,0,66,0,0,0,82,0,0,0,0,0,0,0,0,0,0,0,0,0,0,97,98,0,0,0,0,0,2,2,2,0,0,2,2,2,0,0,0,0,0,0,0,0,0,0,0,0,0,0,0,0,0,0,
0,0,0,0,0,0,0,0,0,97,0,0,0,2,2,2,0,0,0,0,0,0,2,0,0,0,0,0,0,0,0,0,0,66,0,0,0,0,0,0,66,0,0,0,82,0,0,113,114,115,0,0,0,0,0,0,0,0,0,82,0,0,0,0,0,0,0,0,82,0,0,97,98,99,0,0,0,0,0,0,0,0,0,0,0,0,0,113,0,0,0,0,0,2,2,0,0,0,2,2,0,0,0,0,0,0,0,0,0,82,0,0,0,0,66,0,0,66,0,0,
0,0,0,0,0,0,0,0,0,0,0,115,0,0,0,2,0,0,0,0,0,2,0,0,0,0,0,0,0,0,0,0,0,82,0,0,0,0,0,0,82,0,0,97,98,99,0,0,0,0,0,0,0,0,0,0,0,0,97,98,99,0,0,0,0,0,0,97,98,99,0,113,114,115,0,0,0,0,66,66,0,0,0,0,0,0,0,0,0,0,0,0,2,2,0,2,2,2,0,0,0,0,0,0,0,0,0,0,97,98,99,0,0,0,82,0,0,82,0,0,
0,82,0,0,0,0,0,0,0,0,0,0,0,0,0,0,2,0,0,0,2,0,0,0,0,0,2,0,0,0,0,0,97,98,99,0,0,66,0,97,98,99,0,113,114,115,0,0,0,0,66,0,0,0,0,0,0,0,113,114,115,0,0,66,0,0,0,113,114,115,0,0,0,0,0,66,0,0,82,82,0,0,0,0,0,0,0,0,0,0,2,2,2,0,2,2,0,0,0,0,0,0,0,0,0,0,0,0,113,114,115,0,0,97,98,99,97,98,99,0,
97,98,99,0,0,0,0,0,82,0,0,0,0,0,0,0,0,2,2,2,0,0,0,0,0,2,2,2,0,0,0,0,113,114,115,0,0,82,0,113,114,115,0,0,0,0,0,0,0,0,82,0,0,0,0,0,0,0,0,0,0,0,0,82,0,0,0,0,0,0,0,66,0,0,0,0,0,0,0,99,99,0,0,0,0,0,0,0,0,0,0,2,2,2,2,0,0,0,0,0,0,0,0,0,82,0,0,0,0,0,0,0,0,113,114,115,113,114,115,0,
113,114,115,0,0,0,0,97,98,99,0,0,0,0,0,0,0,0,0,0,0,0,0,0,2,2,2,2,2,2,0,0,0,0,0,0,97,98,0,0,0,0,0,0,0,0,0,0,0,97,0,0,0,0,0,0,0,0,0,0,0,0,0,0,99,0,0,0,0,0,0,0,0,0,97,98,99,113,0,115,115,0,0,0,0,0,0,0,0,0,0,0,0,2,2,0,0,0,0,0,0,0,0,97,98,99,0,0,66,0,0,0,0,0,0,0,0,0,0,0,
0,0,0,0,0,0,0,113,114,115,0,0,0,0,0,0,0,0,0,0,0,0,0,2,2,0,0,0,0,2,2,0,0,0,0,0,0,0,0,0,0,0,0,0,0,0,0,0,0,0,0,0,0,0,0,0,0,0,0,0,0,0,0,0,0,0,0,0,0,0,97,0,99,0,0,0,0,0,0,0,0,0,0,2,2,2,0,0,0,0,0,0,0,0,0,0,0,0,66,0,0,0,0,113,114,115,0,0,82,0,0,0,66,0,0,0,0,0,0,0,
0,0,66,0,0,0,0,0,0,0,0,0,0,0,0,0,0,0,0,0,0,0,2,2,0,0,0,0,0,0,2,2,0,0,0,0,0,0,0,0,0,0,0,0,0,0,0,0,0,0,0,0,0,0,0,0,0,0,0,0,0,0,0,0,0,0,0,0,0,0,113,0,0,0,0,0,0,0,0,0,0,0,2,2,0,0,2,0,0,0,0,0,0,0,0,0,0,0,82,0,0,0,0,0,0,0,0,97,98,99,0,0,82,0,0,0,0,0,0,0,
0,0,82,0,0,0,0,0,66,66,0,0,0,0,0,0,0,0,0,0,0,0,0,2,0,0,0,0,0,0,0,2,2,2,0,0,0,0,0,0,2,2,2,2,2,2,2,2,2,2,2,2,0,0,0,0,2,2,2,2,2,2,2,2,2,2,2,2,2,0,0,0,0,0,0,0,0,2,2,2,2,2,2,0,0,0,2,2,0,0,0,0,0,0,0,0,0,97,98,99,0,0,0,66,0,0,0,113,114,115,0,97,98,99,0,0,0,0,66,0,
0,97,98,99,0,0,0,0,82,82,0,0,0,0,0,0,0,0,0,0,0,0,0,2,2,2,2,0,0,0,0,0,0,2,2,2,2,2,2,2,2,0,0,0,0,0,0,0,0,0,0,2,0,0,0,0,2,0,0,0,0,0,0,0,0,2,2,2,2,2,2,2,2,2,2,2,2,2,0,0,0,0,0,0,0,2,2,0,0,0,0,0,0,0,0,0,0,113,114,115,0,0,0,82,0,0,0,0,0,0,0,113,114,115,0,0,0,0,82,0,
0,113,114,115,0,0,0,97,98,99,99,0,0,0,0,0,0,0,0,0,0,0,0,0,0,0,2,2,2,0,0,0,0,0,0,0,0,0,0,0,0,0,0,0,0,0,0,0,0,0,0,2,0,0,0,0,2,0,0,0,0,0,0,0,0,0,0,2,2,2,0,0,0,0,0,0,0,0,0,0,2,2,2,2,2,2,0,0,0,0,0,0,0,0,0,0,0,0,0,0,0,0,97,98,99,0,0,0,0,66,0,0,0,0,0,0,0,97,98,99,
0,0,0,0,66,0,0,113,114,115,115,0,0,0,0,0,0,0,0,0,0,0,0,0,0,0,0,0,2,0,0,0,0,0,0,0,0,0,0,0,0,0,0,0,0,0,0,0,0,0,0,2,0,0,0,0,2,0,0,0,0,0,0,0,0,0,0,0,0,0,0,0,0,0,0,0,0,0,2,2,2,0,0,0,0,0,0,0,0,0,0,0,0,0,0,0,0,0,0,0,0,0,113,114,115,0,0,0,0,82,0,0,0,0,0,0,66,113,114,115,
0,0,0,0,82,0,0,0,0,0,0,0,0,0,0,0,0,0,0,0,0,82,0,0,0,0,0,0,2,2,0,0,0,0,0,0,0,0,0,0,0,0,0,0,0,0,0,0,0,0,0,2,0,0,0,0,2,0,0,0,0,66,0,0,0,0,0,0,0,0,0,0,0,0,0,0,2,2,2,0,0,0,0,0,0,0,0,0,0,0,0,0,0,0,0,0,0,0,0,0,0,0,0,0,0,0,0,0,97,98,99,0,0,0,0,0,82,0,0,0,
0,0,0,97,98,99,0,0,0,0,0,0,0,0,0,0,0,0,0,0,97,98,99,0,0,0,0,0,0,2,2,2,0,0,0,0,0,0,0,0,0,0,0,2,2,2,66,2,2,2,66,2,0,0,0,0,2,66,2,2,2,82,2,2,66,2,2,2,0,0,0,0,0,0,0,0,2,0,0,0,0,0,0,0,0,0,0,66,0,0,0,0,0,0,0,0,0,0,0,0,0,0,0,0,0,0,0,0,113,114,115,66,0,0,0,97,98,99,0,0,
0,0,0,113,114,115,0,0,0,0,0,0,0,0,0,0,0,0,0,0,113,114,115,0,0,0,66,66,0,0,0,2,0,0,0,0,0,0,0,0,0,2,2,2,0,0,82,0,0,0,82,0,0,0,0,0,0,82,0,0,97,98,99,0,82,0,2,2,0,0,0,0,0,0,0,0,2,0,0,0,0,0,0,0,0,0,0,82,0,0,0,0,0,0,0,0,0,0,0,0,0,0,0,0,0,0,0,0,0,0,0,82,0,0,0,113,114,115,0,0,
0,0,66,0,0,0,0,0,0,0,0,0,0,0,0,0,0,0,0,0,0,0,0,0,0,0,82,82,0,0,0,2,0,0,0,0,0,0,0,0,0,2,2,0,0,97,98,99,0,97,98,99,0,0,0,0,97,98,99,0,113,114,115,97,98,99,0,2,2,0,0,0,0,0,0,0,2,0,0,0,0,114,115,0,0,0,97,98,99,0,0,0,0,0,0,0,0,0,0,0,0,0,0,0,0,0,0,0,0,0,97,98,99,0,0,0,0,0,0,0,
0,0,82,0,0,0,0,0,0,66,0,0,0,0,0,0,0,0,0,0,0,0,0,66,0,97,97,98,0,0,0,2,0,0,0,0,0,0,0,0,2,2,0,66,0,113,114,115,0,113,114,115,0,0,0,0,113,114,115,0,0,0,0,113,114,115,0,66,2,2,0,0,0,0,0,0,2,0,0,0,0,0,0,0,0,0,113,114,115,0,0,0,66,0,0,0,0,0,0,0,0,0,0,0,0,0,0,0,0,0,113,114,115,0,0,0,0,0,0,0,
0,97,98,99,0,0,0,0,0,82,0,0,0,0,0,0,0,0,0,0,0,0,0,82,0,113,113,114,0,0,0,2,0,0,0,0,0,0,0,2,2,0,0,82,0,0,0,0,0,0,0,0,0,0,0,0,0,0,0,0,0,0,0,0,0,0,0,82,0,2,2,0,0,0,0,0,2,0,97,0,99,0,0,0,66,0,0,0,0,0,0,0,82,0,0,0,0,0,0,0,0,0,0,0,0,0,0,0,0,0,0,0,0,0,0,0,0,0,0,0,
0,113,114,115,0,0,0,0,97,98,99,0,0,0,0,0,0,0,0,0,66,0,97,98,99,0,0,0,0,0,0,2,0,0,0,0,0,0,2,2,66,0,97,98,99,0,0,0,0,0,0,0,0,0,0,0,0,0,0,0,0,0,0,0,0,0,97,98,99,0,2,2,0,0,0,0,2,0,0,114,115,0,0,0,82,0,0,0,0,0,0,97,98,99,0,0,0,0,0,0,0,0,0,0,0,0,0,0,0,0,0,0,0,0,0,0,0,0,0,0,
0,0,0,0,0,0,0,0,113,114,115,0,0,0,0,0,66,0,0,0,82,0,113,114,115,0,0,97,82,0,0,2,0,0,0,0,0,2,2,0,82,0,113,114,115,0,0,0,0,0,0,0,0,0,0,0,0,0,0,0,0,0,0,0,0,0,113,114,115,0,0,2,2,0,0,0,2,0,0,0,66,0,0,97,98,99,0,0,0,0,0,113,114,115,0,0,0,0,0,0,0,0,0,0,0,0,0,0,0,0,0,0,0,0,0,0,0,0,0,0,
0,0,0,0,0,0,0,0,0,0,0,0,0,0,0,0,82,0,0,97,98,99,0,0,0,66,0,97,98,0,0,2,0,0,0,0,0,2,0,97,98,99,0,0,0,0,0,0,0,0,0,0,0,0,0,0,0,0,0,0,0,0,0,0,0,0,0,0,0,66,0,0,2,0,0,0,2,0,0,0,82,0,0,113,114,115,0,66,0,0,0,0,0,0,0,66,0,0,0,0,0,0,0,0,0,0,0,0,0,0,0,0,0,0,0,0,0,0,0,0,
0,0,0,0,0,0,0,0,0,0,0,0,0,0,0,97,98,99,0,113,114,115,0,0,0,82,0,113,114,0,0,2,0,0,0,0,0,2,0,113,114,115,0,0,0,0,0,0,0,0,0,0,0,0,0,0,0,0,0,0,0,0,0,0,0,0,0,0,0,82,0,0,2,0,0,0,2,0,0,97,98,99,0,0,0,0,0,82,0,0,0,0,0,0,0,82,0,0,0,0,66,0,0,0,0,0,0,0,0,0,0,0,0,0,0,0,0,0,0,0,
0,0,0,0,0,0,0,0,0,0,0,0,0,0,0,113,114,115,0,0,0,0,0,0,97,98,99,0,0,0,0,2,0,0,0,0,0,2,0,0,0,0,0,0,0,0,0,0,0,0,0,0,0,0,0,0,0,0,0,0,0,0,0,0,0,0,0,0,97,98,99,0,2,0,0,0,2,0,0,113,114,115,0,0,0,0,97,98,99,0,0,0,0,0,97,98,99,0,0,0,82,0,0,0,0,0,0,0,0,0,0,0,0,0,0,0,0,0,0,0,
0,0,0,0,0,0,0,0,0,0,0,0,0,0,0,0,0,0,0,0,0,0,0,0,113,114,115,0,0,0,0,2,2,2,2,2,2,2,0,0,0,0,0,0,0,0,0,0,0,0,0,0,0,0,0,0,0,0,0,0,0,0,0,0,0,0,0,0,113,114,115,0,2,2,2,2,2,0,0,0,0,0,0,0,0,0,113,114,115,0,0,0,0,0,113,114,115,0,0,97,98,99,0,0,0,0,0,0,0,0,0,0,0,0,0,0,0,0,0,0,
0,0,0,0,0,0,0,0,0,0,0,0,0,0,0,0,0,0,0,0,0,0,0,0,0,0,0,0,0,0,0,0,0,0,0,0,0,0,0,0,0,0,0,0,0,0,0,0,0,0,0,0,0,0,0,0,0,0,0,0,0,0,0,0,0,0,0,0,0,0,0,0,0,0,0,0,0,0,0,0,0,0,0,0,0,0,0,0,0,0,0,0,0,0,0,0,0,0,0,113,114,115,0,0,0,0,0,0,0,0,0,0,0,0,0,0,0,0,0,0,
0,0,0,0,0,0,0,0,0,0,0,0,0,0,0,0,0,0,0,0,0,0,0,0,0,0,0,0,0,0,0,0,0,0,0,0,0,0,0,0,0,0,0,0,0,0,0,0,0,0,0,0,0,0,0,0,0,0,0,0,0,0,0,0,0,0,0,0,0,0,0,0,0,0,0,0,0,0,0,0,0,0,0,0,0,0,0,0,0,0,0,0,0,0,0,0,0,0,0,0,0,0,0,0,0,0,0,0,0,0,0,0,0,0,0,0,0,0,0,0,
0,0,0,0,0,0,0,0,0,0,0,0,0,0,0,0,0,0,0,0,0,0,0,0,0,0,0,0,0,0,0,0,0,0,0,0,0,0,0,0,0,0,0,0,0,0,0,0,0,0,0,0,0,0,0,0,0,0,0,0,0,0,0,0,0,0,0,0,0,0,0,0,0,0,0,0,0,0,0,0,0,0,0,0,0,0,0,0,0,0,0,0,0,0,0,0,0,0,0,0,0,0,0,0,0,0,0,0,0,0,0,0,0,0,0,0,0,0,0,0,
0,0,0,0,0,0,0,0,0,0,0,0,0,0,0,0,0,0,0,0,0,0,0,0,0,0,0,0,0,0,0,2,2,2,2,2,2,2,0,0,0,0,0,0,0,0,0,0,0,0,0,0,0,0,0,0,0,0,0,0,0,0,0,0,0,0,0,0,0,66,0,0,2,2,2,2,2,0,0,0,0,0,0,0,0,0,0,0,0,0,0,0,0,0,0,0,0,0,0,0,0,0,0,0,0,0,0,0,0,0,0,0,0,0,0,0,0,0,0,0,
0,0,0,66,0,0,0,0,0,0,0,0,0,0,0,0,0,0,0,0,0,0,0,66,0,0,0,0,0,0,0,2,0,0,0,0,0,2,0,97,98,99,66,0,0,0,0,0,0,0,0,0,0,0,0,0,0,0,0,0,0,0,0,0,0,0,0,0,0,82,0,0,2,0,0,0,2,0,0,0,0,0,0,0,0,0,0,0,0,0,0,0,66,0,0,0,0,0,0,66,0,0,0,0,0,0,0,0,0,0,0,0,0,0,0,0,0,0,0,0,
0,0,0,82,0,0,0,0,0,0,0,0,0,0,0,0,0,66,0,0,0,0,0,82,0,0,0,0,0,0,0,2,0,0,0,0,0,2,0,113,114,115,82,0,0,0,0,0,0,0,0,0,0,0,0,0,0,0,0,0,0,0,0,0,0,0,0,0,97,98,99,0,2,0,0,0,2,0,0,0,0,0,0,66,0,0,0,0,0,0,0,0,82,0,0,0,0,0,0,82,0,0,0,0,0,0,0,0,0,0,0,0,0,0,0,0,0,0,0,0,
0,0,97,98,99,0,0,66,0,0,0,0,0,0,0,0,0,82,0,0,0,0,97,98,99,0,0,0,0,0,0,2,0,0,0,0,0,2,0,0,0,97,98,99,0,0,0,0,0,0,0,0,0,0,0,0,0,0,0,0,0,0,0,0,0,0,66,0,113,114,115,0,2,0,0,0,2,0,0,0,0,0,0,82,0,0,0,0,0,0,0,97,98,99,0,0,0,0,97,98,99,0,0,0,0,0,0,0,0,0,0,0,0,0,0,0,0,0,0,0,
0,0,113,114,115,0,0,82,0,0,0,0,0,0,0,0,97,98,99,0,0,0,113,114,115,0,66,0,0,0,0,2,0,0,0,0,0,2,2,0,0,113,114,115,0,66,0,0,0,0,0,0,0,0,0,0,0,0,0,0,0,0,0,0,0,0,82,0,0,0,0,2,2,0,0,0,2,0,0,0,0,0,97,98,99,0,0,0,0,0,0,113,114,115,0,0,0,0,113,114,115,0,0,0,0,0,0,0,0,0,0,0,0,0,0,0,0,0,0,0,
0,66,0,0,0,0,97,98,99,0,0,0,0,0,0,0,113,114,115,0,0,0,0,0,0,0,82,0,0,0,0,2,0,0,0,0,0,0,2,2,0,0,0,0,0,82,0,0,0,66,0,0,0,0,0,0,0,0,0,66,0,0,0,66,0,97,98,99,0,0,2,2,0,0,0,0,2,0,0,0,0,0,113,114,115,0,0,0,66,0,0,0,0,0,0,66,0,0,0,0,0,0,0,0,0,0,0,0,0,0,0,0,66,0,0,0,0,0,0,0,
0,82,0,0,0,0,113,114,115,0,0,0,0,0,0,0,0,0,0,0,0,66,0,0,0,97,98,99,0,0,0,2,0,0,0,0,0,0,0,2,2,0,0,0,97,98,99,0,0,82,0,0,0,0,0,0,0,0,0,82,0,0,0,82,0,113,114,115,0,2,2,0,0,0,0,0,2,0,0,66,0,0,0,0,0,0,0,0,82,0,0,0,0,0,0,82,0,0,0,0,0,0,0,0,0,0,0,0,0,0,0,0,82,0,0,0,0,0,0,0,
97,98,99,0,0,66,0,0,0,0,0,0,0,0,0,0,0,0,0,0,0,82,0,0,0,113,114,115,0,0,0,2,0,0,0,0,0,0,0,0,2,2,0,0,113,114,115,0,97,98,99,0,0,0,0,0,0,0,97,98,99,0,97,98,99,0,0,0,2,2,0,0,0,0,0,0,2,0,0,82,0,0,0,0,0,0,0,97,98,99,0,0,0,0,97,98,99,0,0,0,0,0,0,0,0,0,0,0,0,0,0,97,98,99,0,0,0,0,0,0,
113,114,115,0,0,82,0,0,0,0,0,0,0,0,0,0,0,0,0,0,97,98,99,0,66,0,0,0,0,0,0,2,0,0,0,0,0,0,0,0,0,2,2,0,0,0,0,0,113,114,115,0,0,0,0,0,0,0,113,114,115,0,113,114,115,0,0,2,2,0,0,0,0,0,0,0,2,0,0,98,99,0,0,0,0,0,0,113,114,115,0,0,0,0,113,114,115,0,0,0,0,0,0,0,0,0,0,0,0,0,0,113,114,115,0,0,0,0,0,0,
0,0,0,0,97,98,99,0,0,0,0,0,0,0,0,0,0,66,0,0,113,114,115,0,82,0,0,0,0,0,0,2,0,0,0,0,0,0,0,0,0,0,2,2,0,0,0,0,0,0,0,0,0,0,0,0,0,0,0,0,0,0,0,0,0,0,2,2,0,0,0,0,0,0,0,0,2,0,0,114,115,0,0,0,0,0,0,0,0,0,0,66,0,0,0,0,0,0,0,0,0,0,0,0,0,0,0,0,0,0,0,0,0,0,0,0,0,0,66,0,
0,0,0,0,113,114,115,0,0,0,0,0,0,0,0,0,0,82,0,0,0,0,0,97,98,99,0,0,0,0,2,2,0,0,0,0,0,0,0,0,0,0,0,2,2,2,2,2,2,2,2,2,0,0,0,0,2,2,2,2,2,2,2,2,2,2,2,2,0,0,0,0,0,0,0,0,2,0,0,0,0,0,0,0,66,0,0,0,0,0,0,82,0,0,0,0,0,0,0,0,0,0,0,0,0,0,0,0,0,0,0,0,0,66,0,0,0,0,82,0,
0,0,66,0,0,0,0,0,66,0,0,0,0,0,0,0,97,98,99,0,0,0,0,113,114,115,0,0,0,2,2,0,0,0,0,0,0,0,0,0,0,0,0,0,0,0,0,0,0,0,0,2,0,0,0,0,2,0,0,0,0,0,0,0,0,0,0,0,0,0,0,0,0,0,0,0,2,0,0,0,0,0,0,0,82,0,0,0,0,0,97,98,99,0,0,0,0,0,0,0,0,0,0,0,0,0,0,0,0,0,0,0,0,82,0,0,0,97,98,99,
0,0,82,0,0,0,0,0,82,0,0,0,0,0,0,0,113,114,115,0,0,0,0,0,0,0,0,0,2,2,0,0,0,0,0,0,0,0,0,0,0,0,0,0,0,0,0,0,0,0,0,2,0,0,0,0,2,0,0,0,0,0,0,0,0,0,0,0,0,0,0,0,0,0,0,0,2,0,0,0,0,0,0,97,98,99,0,0,0,0,113,114,115,0,0,0,0,0,0,0,0,0,0,0,0,0,0,0,0,0,0,0,97,98,99,0,0,113,114,115,
0,97,98,99,0,0,0,97,98,99,0,0,0,0,0,0,0,0,0,0,0,0,0,0,0,0,0,2,2,0,0,0,0,0,0,0,0,0,0,0,0,0,0,0,0,0,0,0,0,0,0,2,0,0,0,0,2,0,0,0,0,0,0,0,0,0,0,0,0,0,0,0,0,0,0,0,2,2,2,0,0,0,0,113,114,115,0,0,66,0,0,0,0,0,0,0,0,0,0,0,0,0,0,0,0,0,0,0,0,66,0,0,113,114,115,0,0,0,0,0,
0,113,114,115,0,0,0,113,114,115,0,0,0,0,0,0,0,0,0,66,0,0,0,0,0,0,2,0,0,0,0,0,0,0,0,0,0,0,0,0,0,0,0,0,0,0,0,0,0,0,0,2,0,0,0,0,2,0,0,0,0,0,0,0,0,0,0,0,0,0,0,0,0,0,0,0,0,0,2,2,0,0,0,0,0,0,0,0,82,0,0,0,0,0,0,0,0,0,0,0,0,0,0,0,0,0,0,0,0,82,0,0,0,0,0,0,0,0,0,0,
0,0,0,0,0,66,0,0,0,0,0,0,0,0,0,0,0,0,0,82,0,0,0,0,0,2,2,0,0,0,0,0,0,0,0,0,0,2,2,2,2,2,2,2,2,2,2,2,2,2,2,2,0,0,0,0,2,2,2,2,2,2,2,2,2,2,2,2,2,2,2,2,2,0,0,0,0,0,0,2,2,0,0,0,0,0,0,97,98,99,0,0,0,0,0,0,0,0,0,0,0,0,0,0,0,0,0,0,97,98,99,0,0,0,0,0,0,0,0,0,
0,0,0,0,0,82,0,0,0,0,0,0,0,0,0,0,0,0,97,98,99,0,0,0,2,2,0,0,0,0,0,0,0,0,0,2,2,2,0,0,0,0,0,0,0,0,0,0,0,0,0,0,0,0,0,0,0,0,0,0,0,0,0,0,0,0,0,0,0,0,0,0,2,2,2,0,0,0,0,0,2,2,2,0,0,0,0,113,114,115,0,0,0,0,0,0,0,0,0,0,0,0,0,0,0,66,0,0,113,114,115,0,0,0,0,0,66,0,0,0,
0,0,0,0,97,98,99,0,0,0,0,0,0,0,0,0,0,0,113,114,115,0,0,2,2,0,0,0,0,0,0,0,0,0,0,2,0,0,0,0,0,0,0,0,0,0,0,0,0,0,0,0,0,0,0,0,0,97,98,99,0,0,66,0,0,0,0,82,0,0,0,0,0,0,2,2,0,0,0,0,0,0,2,0,0,0,0,0,0,0,0,0,0,0,0,0,0,0,0,0,0,0,0,0,0,82,0,0,0,0,0,0,0,0,0,0,82,0,0,0,
0,0,66,0,113,114,115,0,0,66,0,0,0,0,0,0,0,0,0,0,0,0,0,2,0,0,0,0,0,0,0,0,0,0,0,2,0,0,0,0,0,0,113,114,115,0,0,0,97,98,99,0,0,0,0,0,0,113,114,115,0,0,82,0,0,0,97,98,99,0,0,0,0,0,0,2,2,2,2,2,0,0,2,2,2,0,0,0,0,0,0,0,0,0,0,0,0,0,0,0,0,0,0,0,97,98,99,0,0,0,0,0,0,0,0,97,98,99,0,0,
0,0,82,0,0,0,0,0,0,82,0,0,0,0,0,0,0,0,0,0,0,2,2,2,0,0,0,0,0,0,0,0,0,2,2,0,0,0,0,0,66,0,0,0,0,0,0,0,113,114,115,0,0,0,0,0,0,0,0,0,0,97,98,99,0,0,113,114,115,0,0,0,0,66,0,0,0,0,0,2,2,0,0,0,2,2,0,0,0,0,0,0,0,0,0,0,0,0,0,0,0,0,0,0,113,114,115,0,0,0,66,0,0,0,0,113,114,115,0,0,
0,97,98,99,0,0,0,0,97,98,99,0,0,66,0,0,0,0,0,0,0,0,2,0,0,0,0,0,2,2,2,2,2,2,0,0,0,0,0,0,82,0,0,0,0,66,0,0,0,0,0,0,0,0,0,0,0,0,0,0,0,113,114,115,0,0,0,0,0,0,0,0,0,82,0,0,0,0,0,0,2,2,0,2,2,0,0,0,0,0,0,0,0,0,0,0,0,0,0,0,0,0,0,0,0,0,0,0,0,0,82,0,0,0,0,0,0,0,0,0,
0,113,114,115,0,0,0,0,113,114,115,0,0,82,0,0,0,0,0,0,0,0,0,2,0,0,0,0,2,0,0,0,0,0,0,0,0,0,0,97,98,99,0,0,0,82,0,0,0,0,0,0,0,0,0,0,0,0,0,0,0,0,0,0,0,0,0,0,0,0,0,0,97,98,99,0,0,0,0,0,0,2,2,2,0,0,0,0,0,0,0,0,0,0,0,0,0,0,0,0,0,66,0,0,0,0,0,0,0,97,98,99,0,0,0,0,0,0,0,0,
0,0,0,0,0,0,0,0,0,0,0,0,97,98,99,0,0,2,2,0,0,0,0,0,2,0,2,2,2,0,0,0,0,0,0,66,0,0,0,113,114,115,0,0,97,98,99,0,0,0,0,0,0,0,0,0,0,0,0,0,0,0,0,0,0,0,0,66,0,0,0,0,113,114,115,0,0,0,0,0,0,0,0,0,0,0,0,0,0,0,2,2,2,0,0,0,0,0,0,0,0,82,0,0,0,0,0,0,0,113,114,115,0,0,0,0,66,0,0,0,
0,0,0,0,0,66,0,0,0,0,0,0,113,114,0,0,0,2,2,2,0,0,0,0,0,2,2,0,0,0,0,0,0,0,0,82,0,0,0,0,0,0,0,0,113,114,115,0,0,0,66,0,0,0,0,0,0,0,0,0,66,0,0,0,0,0,0,82,0,0,0,0,0,0,0,0,0,0,0,0,0,0,0,0,0,0,0,0,0,2,2,0,0,2,0,0,0,0,0,0,97,98,99,0,0,0,0,0,0,0,0,0,0,0,0,0,82,0,0,0,
0,0,0,0,0,82,0,0,0,0,0,0,0,0,0,0,2,2,2,2,2,0,0,0,0,0,0,0,0,0,0,0,0,0,97,98,99,0,0,0,0,0,0,0,0,0,0,0,0,0,82,0,0,0,0,0,0,0,0,0,82,0,0,0,0,0,97,98,99,0,0,0,0,66,0,0,0,0,0,0,0,0,0,0,0,0,0,0,2,2,0,0,0,2,2,2,0,0,0,0,113,114,115,0,0,0,0,66,0,0,0,0,0,0,0,97,98,99,0,0,
0,0,66,0,97,98,99,0,0,0,0,0,0,0,0,2,2,0,0,0,2,2,0,0,0,0,0,0,0,0,0,0,0,0,113,114,115,0,0,0,0,66,0,0,0,0,0,0,0,97,98,99,0,0,0,0,0,0,0,97,98,99,0,0,0,0,113,114,115,0,0,0,0,82,0,0,0,0,0,0,0,0,0,0,0,0,0,0,2,0,0,0,0,0,0,2,2,2,0,0,0,0,0,0,0,0,0,82,0,0,0,0,0,0,0,113,114,115,0,0,
0,0,82,0,113,114,115,0,0,0,0,0,2,2,2,2,0,0,0,0,0,2,0,0,0,0,0,0,0,0,0,0,0,0,0,0,0,0,0,0,0,82,0,0,0,0,0,0,0,113,114,115,0,0,0,0,0,0,0,113,114,115,0,66,0,0,0,0,0,0,0,0,97,98,99,0,0,0,0,0,0,0,0,0,0,0,0,0,0,2,2,2,0,0,0,0,0,0,2,2,0,0,0,0,0,0,97,98,99,0,0,0,66,0,0,0,0,0,0,0,
0,97,98,99,0,0,0,0,0,0,2,2,2,0,0,0,0,0,0,0,0,2,0,0,0,0,0,0,0,0,0,0,0,0,0,0,0,0,0,0,97,98,99,0,0,0,0,66,0,0,0,0,0,0,0,0,0,0,0,0,0,0,0,82,0,0,0,0,0,0,0,0,113,114,115,0,0,0,0,0,0,0,0,0,0,0,0,0,0,0,0,2,2,0,0,0,0,0,0,2,0,0,0,0,0,0,113,114,115,0,0,0,82,0,0,0,0,0,0,0,
0,113,114,115,0,0,0,0,0,2,2,0,0,0,0,0,0,0,0,2,2,0,0,0,0,0,0,0,0,0,0,0,0,0,0,0,0,0,0,0,113,114,115,0,0,0,0,82,0,0,0,0,0,0,0,0,0,0,0,0,0,0,97,98,99,0,0,0,0,0,0,0,0,0,0,0,0,0,0,0,0,0,0,0,0,0,0,0,0,0,0,0,2,2,0,0,0,0,0,2,2,0,0,0,0,0,0,0,0,0,0,97,98,99,0,0,0,0,0,0,
0,0,0,0,0,0,0,2,2,2,0,0,0,0,0,0,0,2,2,0,0,82,0,0,0,0,0,0,0,0,0,0,0,0,0,0,0,0,0,0,0,0,0,0,0,0,97,98,99,0,0,0,66,0,0,0,0,0,0,0,0,0,113,114,115,0,0,0,0,0,0,0,0,0,0,0,0,0,0,0,0,0,0,0,0,0,0,0,0,0,0,0,0,2,2,0,0,0,0,0,2,2,2,0,0,0,0,0,0,0,0,113,114,115,0,0,0,0,66,0,
0,0,0,0,0,2,2,2,0,0,0,0,0,0,0,2,2,2,0,0,0,0,0,0,0,0,0,0,0,0,0,0,0,0,0,0,0,0,0,0,0,0,0,0,0,0,113,114,115,0,0,0,82,0,0,0,0,0,0,0,0,0,66,0,0,0,0,0,0,0,0,0,0,0,0,0,0,0,0,0,0,0,0,0,0,0,0,113,0,0,0,0,0,0,2,2,2,2,0,0,0,0,2,2,2,2,2,2,0,0,0,0,0,0,0,0,0,0,82,0,
0,0,0,0,2,2,0,0,0,0,0,0,0,0,2,2,0,0,0,0,0,0,115,0,0,0,0,0,0,0,0,0,0,0,0,0,0,0,0,0,0,0,0,0,0,0,0,0,0,0,0,97,98,99,0,0,0,0,0,0,0,0,82,0,0,0,0,0,0,0,0,0,0,0,0,0,0,0,0,0,0,0,0,66,0,0,0,0,0,0,0,0,0,0,0,0,0,2,2,0,0,0,0,0,0,0,0,2,0,0,0,0,0,0,0,0,0,0,98,99,
0,0,2,2,2,0,0,0,0,0,0,0,0,0,2,0,0,0,0,0,0,0,0,0,0,0,0,0,66,0,0,0,0,0,0,0,0,0,0,0,0,0,0,0,0,0,66,0,0,0,0,113,114,115,0,0,0,0,0,0,0,97,98,99,0,0,0,0,0,0,0,0,0,0,0,0,0,0,0,0,0,0,0,82,0,0,0,0,0,0,0,0,0,0,0,0,0,0,2,2,0,0,0,0,0,0,0,2,2,0,0,0,0,0,0,0,0,0,114,115,
2,2,2,0,0,0,0,0,0,0,0,0,2,2,2,0,0,0,66,0,0,0,0,0,66,0,0,0,82,0,0,0,0,0,0,0,0,0,0,0,0,0,0,0,0,0,82,0,0,0,0,0,0,0,0,0,0,0,0,0,0,113,114,115,0,0,0,0,0,0,0,0,0,0,0,0,0,0,0,0,0,0,0,0,0,0,0,0,0,0,0,82,0,0,0,0,0,0,0,2,2,2,0,0,0,0,0,0,0,2,2,2,2,0,0,0,0,0,0,0,
2,0,0,0,0,0,0,0,0,0,2,2,2,0,0,0,0,0,82,0,0,0,0,0,82,0,0,97,98,99,0,0,0,0,0,0,0,0,0,0,0,0,0,0,0,97,98,99,0,0,0,0,0,0,0,0,0,0,0,0,0,0,0,0,0,0,0,0,0,0,0,0,0,0,0,0,0,0,0,0,66,0,113,114,115,0,0,0,66,0,97,98,99,0,0,0,0,0,0,0,0,2,2,2,0,0,0,0,0,0,0,0,2,0,0,0,0,0,0,0,
0,0,0,0,0,0,0,0,2,2,2,0,0,0,0,0,0,97,98,99,0,0,0,97,98,99,0,113,114,115,0,0,0,0,66,0,0,0,0,0,0,0,0,0,0,113,114,115,0,0,0,0,0,0,0,0,0,0,0,0,0,0,0,0,0,0,0,0,0,0,0,0,0,0,0,0,0,0,0,0,82,0,0,0,0,0,0,0,82,0,113,114,115,0,113,114,115,0,0,82,0,0,0,2,2,2,0,0,0,0,0,0,2,2,2,2,0,0,0,0,
0,0,0,0,0,0,0,2,2,0,0,0,98,99,0,0,0,113,114,115,0,0,0,113,114,115,0,0,0,0,0,0,0,0,82,0,0,0,0,0,0,0,0,0,0,0,0,0,0,0,0,0,0,0,0,0,0,0,0,0,0,0,0,0,0,0,0,0,0,0,0,0,0,0,0,0,66,0,0,97,98,99,0,0,0,0,0,97,98,99,0,0,0,0,0,0,0,0,97,98,0,0,0,0,0,2,2,2,2,2,2,0,0,0,0,2,2,2,0,0,
0,0,0,0,0,0,2,2,0,0,0,113,114,115,0,0,0,0,0,0,0,66,0,0,0,0,0,0,0,0,0,0,0,97,98,99,0,0,0,0,0,0,0,0,0,0,0,0,0,0,0,0,0,0,0,0,0,0,0,0,0,0,0,0,0,0,0,0,0,0,0,0,0,0,0,0,82,0,0,113,114,115,0,0,66,0,0,113,114,115,0,0,66,0,0,0,0,0,113,114,0,0,0,0,0,0,0,0,0,0,2,2,2,0,0,0,0,0,2,2,
0,0,0,0,2,2,0,0,0,0,0,0,0,0,0,0,0,0,0,0,0,82,0,0,0,0,0,0,66,0,0,0,0,113,114,115,0,0,0,0,66,0,0,0,0,0,0,0,0,0,0,0,0,0,0,0,0,0,0,0,0,0,0,0,0,0,0,0,0,66,0,0,0,0,0,97,98,99,0,0,0,0,0,0,82,0,0,0,0,0,0,0,82,0,0,0,0,0,0,0,0,0,0,82,0,0,0,0,0,82,0,0,0,2,2,2,0,0,2,2,
0,0,0,2,2,0,0,0,0,0,0,0,0,0,0,66,0,0,0,0,97,98,99,0,0,0,0,0,82,0,0,0,0,0,0,0,0,0,0,0,82,0,0,0,0,0,0,0,0,0,0,0,0,0,0,0,0,0,0,0,0,0,0,0,0,0,0,0,0,82,0,0,0,0,0,113,114,115,0,0,0,0,0,97,98,99,0,0,0,0,0,97,98,99,0,0,0,66,0,0,0,0,97,0,0,0,0,0,0,0,0,0,0,0,0,2,2,0,0,0
</data>
 </layer>
 <layer id="5" name="OverPlayer1" width="120" height="80">
  <data encoding="csv">
0,0,0,0,0,0,0,0,0,116,117,118,119,116,117,118,119,0,0,116,117,118,119,0,116,117,118,119,0,68,69,70,71,100,101,102,103,116,117,118,119,0,0,0,0,0,0,0,0,0,0,0,0,0,0,0,0,0,0,0,0,0,0,0,0,0,0,0,0,116,117,118,119,0,0,116,117,118,119,84,85,86,87,68,69,70,71,117,68,69,70,100,101,102,103,0,132,133,134,135,84,85,86,116,117,118,132,133,134,135,132,133,134,135,0,0,0,0,0,0,
0,0,0,0,0,0,0,0,0,132,133,134,135,132,133,134,135,68,69,132,133,134,135,0,132,133,134,135,0,84,85,86,87,116,117,118,119,132,133,134,135,0,0,0,0,0,0,0,0,0,0,0,0,0,0,0,0,0,0,0,0,0,0,0,0,0,0,0,0,132,133,134,135,0,0,132,133,134,135,100,101,102,103,84,85,86,87,133,84,85,86,116,117,118,119,0,68,69,70,71,100,101,102,132,133,134,135,0,0,0,0,0,0,0,0,0,0,0,0,0,
0,0,0,0,0,0,0,0,0,0,0,0,0,0,0,0,0,84,85,86,87,68,69,70,71,68,69,70,71,100,101,102,103,132,133,134,135,0,0,0,0,0,0,0,0,0,0,0,0,0,0,0,0,0,0,0,0,0,0,0,0,0,0,0,0,0,0,0,0,0,0,0,0,0,0,0,0,0,0,116,117,118,119,100,101,102,103,0,100,101,102,132,133,134,135,0,84,85,86,87,116,117,118,119,0,0,0,0,0,0,0,0,0,0,0,0,0,0,0,0,
0,0,0,0,0,0,0,0,0,0,0,0,0,0,0,0,0,100,101,102,103,84,85,86,87,84,85,86,87,116,117,118,119,0,0,0,0,0,0,0,0,0,0,0,0,0,0,0,0,0,0,0,0,0,0,0,0,0,0,0,0,0,0,0,0,0,0,0,0,0,0,0,0,0,0,0,0,0,0,132,133,134,135,116,117,118,119,0,116,117,118,119,69,70,71,0,100,101,102,103,132,133,134,135,0,0,0,0,0,0,0,0,0,0,0,0,0,0,0,0,
0,0,0,0,0,0,0,0,0,0,0,0,0,0,0,0,0,116,117,118,119,100,101,102,103,100,101,102,103,132,133,134,135,0,0,0,0,0,0,0,0,0,0,0,0,0,0,0,0,0,0,0,0,0,0,0,0,0,0,0,0,0,0,0,0,0,0,0,0,0,0,0,0,0,0,0,0,0,0,0,0,68,69,132,133,134,135,69,132,133,134,135,85,86,68,69,70,71,118,119,0,0,0,0,0,0,0,0,0,0,0,0,0,0,0,0,0,0,0,0,
0,0,0,0,0,0,0,0,0,0,0,0,0,0,0,0,0,132,133,134,135,116,117,118,119,116,117,118,119,0,0,0,0,0,0,0,0,0,0,0,0,0,0,0,68,69,70,71,0,0,0,0,0,0,0,0,0,68,69,70,71,0,0,0,0,68,69,70,71,0,0,0,0,0,0,0,0,0,0,0,0,84,85,86,87,0,84,85,86,87,0,100,101,102,84,85,86,87,134,135,0,0,0,0,0,0,0,0,0,0,0,0,0,0,0,0,0,0,0,0,
0,0,0,0,0,0,0,0,0,0,0,0,0,0,0,0,0,0,0,0,0,132,133,134,135,132,133,134,135,0,0,0,0,0,0,0,0,0,0,0,0,0,0,0,84,85,86,87,0,0,0,0,0,0,0,0,0,84,85,86,87,0,0,0,0,84,85,86,87,0,0,0,0,0,0,0,0,0,0,0,0,100,101,68,69,70,71,101,102,103,0,116,117,118,100,101,102,103,0,0,0,0,0,0,0,0,0,0,0,0,68,69,70,71,0,0,68,69,70,71,
69,70,71,0,0,0,0,0,0,0,0,0,0,0,0,0,0,0,0,0,0,0,0,0,0,0,0,0,0,0,0,0,0,0,0,0,0,0,0,68,69,70,71,0,100,101,102,103,0,0,0,0,0,0,0,0,0,100,101,102,103,0,0,0,0,100,101,102,103,0,0,0,0,0,0,0,0,0,0,0,0,116,117,84,85,86,87,117,118,68,69,70,71,134,116,117,118,119,0,0,0,0,0,0,0,0,0,0,0,0,84,85,86,68,69,70,71,85,86,87,
85,86,87,0,0,0,0,0,0,0,0,0,0,0,0,0,0,0,0,0,0,0,0,0,0,0,0,0,0,0,0,0,0,0,0,68,69,70,71,84,85,86,87,0,116,117,118,68,69,70,71,0,0,0,0,0,0,116,117,118,119,0,68,69,70,116,117,118,119,0,0,0,0,0,0,0,0,0,0,0,0,132,133,100,101,102,103,133,134,84,85,86,87,0,132,133,134,135,0,0,0,0,0,0,0,0,0,0,0,0,100,101,102,84,85,86,87,101,102,103,
101,102,103,68,69,70,71,0,0,0,0,0,0,0,0,0,0,0,0,0,0,0,0,0,0,0,0,0,0,0,0,0,0,0,0,84,85,86,87,100,101,102,103,0,132,133,134,84,85,86,87,0,0,0,0,0,0,132,133,134,135,0,84,85,86,132,133,134,135,0,0,0,0,0,0,0,0,0,0,0,0,0,0,116,117,118,119,68,69,70,71,102,103,0,0,0,0,0,0,0,0,0,0,0,0,0,0,0,0,0,116,117,118,100,101,102,103,117,118,119,
117,118,119,84,85,86,87,0,68,69,70,71,0,0,0,0,0,0,0,0,0,0,0,0,0,0,0,0,0,0,0,0,0,0,0,100,101,102,103,116,117,118,119,68,69,70,71,100,101,102,103,0,0,0,0,0,0,0,0,0,0,0,100,101,102,103,0,0,0,0,68,69,70,71,0,0,0,0,0,0,0,0,0,132,133,134,135,84,85,86,87,118,119,0,0,0,0,0,0,0,0,0,0,0,0,0,0,0,0,0,132,133,134,116,117,118,119,133,134,135,
133,134,135,100,101,102,103,0,84,85,86,87,0,0,0,0,0,0,0,0,0,0,0,0,0,0,0,0,0,0,0,0,0,0,0,116,117,118,119,132,133,134,135,84,85,86,87,116,117,118,119,0,0,0,0,0,0,68,69,70,71,0,116,117,118,119,68,69,70,71,84,85,86,87,0,0,0,0,0,0,0,0,0,0,0,0,100,100,101,102,103,134,135,0,0,0,0,0,0,0,0,0,0,0,0,0,0,68,69,70,71,0,0,132,133,134,135,0,0,0,
0,0,0,116,117,118,119,0,100,101,102,103,0,0,0,0,0,0,0,0,0,0,0,0,0,0,0,0,0,0,0,68,69,70,71,132,133,134,135,68,69,70,71,100,101,102,103,132,133,134,135,0,0,0,0,0,0,84,85,86,87,0,132,133,134,135,84,85,86,87,100,101,102,103,0,0,0,0,0,0,0,0,0,0,0,0,116,116,117,118,119,0,0,0,0,0,0,0,0,0,0,0,0,0,0,0,0,84,85,86,87,0,68,69,70,71,68,69,70,71,
69,70,71,132,133,134,135,0,116,117,118,119,0,0,0,0,0,0,0,0,0,0,0,0,0,0,0,0,0,0,0,84,85,86,87,0,0,0,0,84,85,86,87,116,117,118,119,0,0,0,0,0,0,0,0,0,0,100,101,102,103,0,0,0,0,0,100,101,102,103,116,117,118,119,0,0,0,68,69,70,71,0,0,0,0,0,132,132,133,134,135,0,0,0,0,0,0,0,0,68,69,70,71,0,0,0,0,100,101,102,103,0,84,85,86,87,84,85,86,87,
85,86,87,0,0,0,68,69,70,71,134,135,68,69,70,71,0,0,0,0,0,0,0,0,0,0,0,0,0,0,0,100,101,102,103,68,69,70,71,100,101,102,103,132,133,134,135,0,68,69,70,71,0,0,0,0,0,116,117,118,119,68,69,70,71,0,116,117,118,119,132,133,134,68,69,70,71,84,85,86,87,0,0,0,0,0,0,0,0,0,0,0,0,0,0,0,0,0,0,84,85,86,87,68,69,70,71,116,117,118,119,0,100,101,102,103,100,101,102,103,
101,102,103,0,0,0,84,85,86,87,0,0,84,85,86,87,0,0,0,0,0,0,0,0,0,0,0,0,0,0,0,116,117,118,119,84,85,86,87,116,117,118,119,0,0,0,0,0,84,85,86,87,0,0,0,0,0,132,133,134,135,84,85,86,87,0,132,133,134,68,69,70,71,84,85,86,87,100,101,102,103,0,0,0,0,0,0,0,0,0,0,0,0,0,0,0,0,0,0,100,101,102,103,84,85,86,87,132,133,134,135,0,116,117,118,119,116,117,118,119,
117,118,119,0,0,0,100,101,102,103,0,0,100,101,102,103,0,0,0,0,0,0,0,0,0,0,0,0,0,0,0,132,133,134,135,100,101,102,103,132,133,134,135,0,0,0,0,0,100,101,102,103,0,0,0,0,0,0,0,0,0,100,101,102,103,0,0,0,0,84,85,86,87,100,101,102,103,116,117,118,119,0,0,0,0,0,0,0,0,0,0,0,0,0,0,0,0,0,0,116,117,118,119,100,101,102,68,69,70,71,0,0,132,133,134,135,132,133,134,135,
133,134,135,0,0,0,116,117,118,119,0,0,116,117,118,119,0,0,0,0,0,0,0,0,0,0,0,0,0,0,0,0,0,0,0,116,117,118,119,0,0,0,0,0,0,0,0,0,116,117,118,119,0,0,0,0,0,0,0,0,0,116,117,118,119,0,0,0,0,100,101,102,103,116,117,118,119,132,133,134,135,0,0,0,0,0,0,0,0,0,0,0,0,0,0,0,68,69,70,132,133,134,135,116,117,118,84,85,86,87,68,69,70,71,68,69,70,71,0,0,
68,69,70,71,0,0,132,133,134,135,0,0,132,133,134,135,0,0,0,0,0,0,0,0,0,0,0,0,0,0,0,0,0,0,0,132,133,134,135,0,0,0,0,0,0,0,0,0,132,133,134,135,0,0,0,0,0,0,0,0,0,132,133,134,135,0,0,0,0,116,117,118,119,132,133,134,135,0,0,0,0,0,0,0,0,0,0,0,0,0,0,0,0,0,0,0,84,85,86,87,0,0,0,132,133,134,100,101,102,103,84,85,86,87,84,85,86,87,69,70,
84,85,86,87,0,0,0,68,69,70,71,0,0,0,0,0,0,0,0,0,0,0,0,0,0,0,0,0,0,0,0,0,0,0,0,0,0,0,0,0,0,0,0,0,0,0,0,0,0,0,0,0,0,0,0,0,0,0,0,0,0,0,0,0,0,0,0,0,0,132,133,134,135,0,0,0,0,0,0,0,0,0,0,0,0,0,0,0,0,0,0,0,0,0,0,0,100,101,102,103,0,68,69,70,71,0,116,117,118,119,100,101,102,103,100,101,102,103,85,86,
100,101,102,103,0,0,0,84,85,86,87,0,0,0,0,0,0,0,0,0,0,0,0,0,0,0,0,0,0,0,0,0,0,0,0,0,0,0,0,0,0,0,0,0,0,0,0,0,0,0,0,0,0,0,0,0,0,0,0,0,0,0,0,0,0,0,0,0,0,0,0,0,0,0,0,0,0,0,0,0,0,0,0,0,0,0,0,0,0,0,0,0,0,0,0,0,116,117,118,119,0,84,85,86,87,0,132,133,134,135,116,117,118,119,116,117,118,119,101,102,
116,117,118,119,69,70,71,100,101,102,103,0,0,0,0,0,0,0,0,0,0,0,0,0,0,0,0,0,0,0,0,0,0,0,0,0,0,0,0,0,0,0,0,0,0,0,0,0,0,0,0,0,0,0,0,0,0,0,0,0,0,0,0,0,0,0,0,0,0,0,0,0,0,0,0,0,0,0,0,0,0,0,0,0,0,0,0,0,0,0,0,0,0,0,0,0,132,133,134,135,0,100,101,102,103,0,0,68,69,70,71,133,134,135,132,133,134,135,117,118,
132,133,134,135,85,86,87,116,117,118,119,0,0,0,0,0,0,0,0,0,68,69,70,71,0,0,0,0,0,0,0,0,0,0,0,0,0,0,0,0,0,0,0,0,0,0,0,0,0,0,0,0,0,0,0,0,0,0,0,0,0,0,0,0,0,0,0,0,0,0,0,0,0,0,0,0,0,0,0,0,68,69,70,71,0,0,0,0,0,0,0,0,0,0,0,0,0,0,0,0,0,116,117,118,119,0,0,84,85,86,87,0,0,0,68,69,70,132,133,134,
0,0,0,100,101,102,103,132,133,134,135,0,0,0,0,0,0,0,0,0,84,85,86,87,0,0,0,0,0,0,0,0,0,0,0,0,0,0,0,0,0,0,0,0,0,0,0,0,0,0,0,0,0,0,0,0,0,0,0,68,69,70,71,0,0,0,0,0,0,0,0,0,0,0,0,0,0,0,0,0,84,85,86,87,0,0,0,0,0,0,0,0,0,0,0,0,0,0,0,0,0,132,133,134,135,0,0,100,101,102,103,0,0,0,84,85,86,87,0,0,
0,0,0,116,117,118,119,0,0,0,0,0,0,0,0,0,0,0,0,0,100,101,102,103,0,0,0,0,0,0,0,0,0,0,0,0,0,0,0,0,0,0,0,0,0,68,69,70,71,68,69,70,71,0,0,68,69,70,71,84,85,86,87,68,69,70,71,0,0,0,0,0,0,0,0,0,0,0,0,0,100,101,102,103,0,0,68,69,70,71,0,0,0,0,0,0,0,0,0,0,0,0,0,0,0,0,0,116,117,118,68,69,70,71,100,101,102,103,0,0,
68,69,70,132,133,134,135,0,0,0,0,0,0,0,0,0,0,0,0,0,116,117,118,119,0,68,69,70,71,0,0,0,0,0,0,0,0,0,0,0,0,0,0,0,0,84,85,86,87,84,85,86,87,0,0,84,85,86,87,100,101,102,103,84,85,86,87,0,0,0,0,0,0,0,0,0,0,0,0,0,68,69,70,71,69,70,71,85,86,87,0,0,0,0,0,0,0,0,0,0,0,0,0,0,0,0,0,132,133,134,84,85,86,87,116,117,118,119,0,0,
84,85,86,68,69,70,71,0,0,0,0,0,0,0,0,0,0,0,0,0,132,133,134,135,0,84,85,86,87,0,0,0,0,0,0,0,0,0,0,0,0,68,69,70,71,100,101,102,103,100,101,102,103,0,0,100,101,102,103,116,117,118,119,100,101,102,103,0,0,0,0,0,0,0,0,0,0,68,69,70,84,85,86,87,85,86,87,101,102,103,0,0,0,0,0,0,0,0,0,0,0,0,0,0,0,0,0,0,0,0,100,101,102,103,132,133,134,135,0,0,
100,101,102,84,85,86,87,68,69,70,71,0,0,0,0,0,0,0,0,0,0,68,69,70,71,100,101,102,103,0,0,0,0,0,0,0,0,0,0,0,0,84,85,86,87,116,117,118,119,116,117,118,119,0,0,116,117,118,119,132,133,134,135,116,117,118,119,0,0,0,0,0,0,0,0,0,0,84,85,86,100,101,102,103,101,102,68,69,70,71,68,69,70,71,0,0,0,0,0,0,0,0,0,0,0,0,0,0,0,0,116,117,118,119,0,0,0,0,0,0,
116,117,118,100,101,102,103,84,85,86,87,0,0,0,0,0,0,0,0,0,0,84,85,86,87,116,117,118,119,0,0,0,0,0,0,0,0,0,0,0,0,100,101,102,103,132,133,134,135,132,133,134,135,0,0,132,133,134,135,0,0,0,0,132,133,134,135,0,0,0,0,0,0,0,0,0,0,100,101,102,116,117,118,119,117,118,84,85,86,87,84,85,86,87,0,0,0,0,0,0,0,0,0,0,0,0,0,0,0,0,132,133,134,135,0,0,0,0,0,0,
132,133,134,116,117,118,119,100,101,102,103,0,0,0,0,68,69,70,68,69,70,100,101,102,103,132,133,68,69,70,71,0,0,0,0,0,0,0,68,69,70,71,117,118,119,0,0,0,0,0,0,0,0,0,0,0,0,0,0,0,0,0,0,0,0,0,0,0,0,0,0,0,0,0,0,0,0,116,117,118,132,133,134,135,70,71,100,101,102,103,100,101,102,103,0,0,0,0,0,0,0,0,0,0,0,0,0,0,0,0,0,0,0,0,0,0,0,0,0,0,
0,0,0,132,133,134,135,116,117,118,119,0,0,0,0,84,85,86,84,85,86,116,117,118,119,0,0,84,85,86,87,0,0,0,0,0,0,0,84,85,86,87,133,134,135,0,0,0,0,0,0,0,0,0,0,0,0,0,0,0,0,0,0,0,0,0,0,0,0,0,0,0,0,0,0,0,0,132,133,134,68,69,84,85,86,87,116,117,118,119,116,117,118,119,0,0,0,0,0,0,0,0,0,0,0,0,0,0,0,0,0,0,0,0,0,0,0,0,0,0,
0,0,0,0,0,0,0,132,133,134,135,0,0,0,0,100,101,102,100,101,102,132,133,68,69,70,71,100,101,102,103,0,0,0,0,0,0,0,100,101,102,103,0,0,0,0,0,0,0,0,0,0,0,0,0,0,0,0,0,0,0,0,0,0,0,0,0,68,69,70,71,0,0,0,0,0,0,0,0,0,84,85,100,101,102,103,132,133,134,135,132,133,134,68,69,70,71,0,0,0,0,0,0,0,0,0,0,0,0,0,0,0,0,0,0,0,0,0,0,0,
0,0,0,0,0,0,0,0,0,0,0,0,0,0,0,116,117,118,116,117,118,119,0,84,85,86,87,116,117,118,119,0,0,0,0,0,0,0,116,117,118,119,0,0,0,0,0,0,0,0,0,0,0,0,0,0,0,0,0,0,0,0,0,0,0,0,0,84,85,86,87,0,0,0,0,0,0,0,0,0,100,101,116,117,118,119,85,86,87,68,69,70,71,84,85,86,87,0,68,69,70,71,0,0,0,0,0,0,0,0,0,0,0,0,0,0,0,0,0,0,
0,0,0,0,0,0,0,0,0,0,0,0,0,0,0,132,133,134,132,133,134,135,0,100,101,102,103,132,133,134,135,0,0,0,0,0,0,0,132,133,134,135,0,0,0,0,0,0,0,0,0,0,0,0,0,0,0,0,0,0,0,0,0,0,0,0,0,100,101,102,103,0,0,0,0,0,0,0,0,0,116,117,132,133,134,135,101,102,103,84,85,86,87,100,101,102,103,0,84,85,86,87,0,0,0,0,0,0,0,0,0,0,0,0,0,0,0,0,0,0,
0,0,0,0,0,0,0,0,0,0,0,0,0,0,0,0,0,0,0,0,0,0,0,116,117,118,119,0,0,0,0,0,0,0,0,0,0,0,0,0,0,0,0,0,0,0,0,0,0,0,0,0,0,0,0,0,0,0,0,0,0,0,0,0,0,0,0,116,117,118,119,0,0,0,0,0,0,0,0,0,132,133,134,135,0,116,117,118,119,100,101,102,103,116,117,118,119,0,100,101,102,103,0,0,0,0,0,0,0,0,0,0,0,0,0,0,0,0,0,0,
0,0,0,0,0,0,0,0,0,0,0,0,0,0,0,0,0,0,0,0,0,0,0,132,133,134,135,0,0,0,0,0,0,0,0,0,0,0,0,0,0,0,0,0,0,0,0,0,0,0,0,0,0,0,0,0,0,0,0,0,0,0,0,0,0,0,0,132,133,134,135,0,0,0,0,0,0,0,0,0,0,0,0,0,0,132,133,134,135,116,117,118,119,132,133,134,135,0,116,117,118,119,0,0,0,0,0,0,0,0,0,0,0,0,0,0,0,0,0,0,
0,0,0,0,0,0,0,0,0,0,0,0,0,0,0,0,0,0,0,0,0,0,0,0,0,0,0,0,0,0,0,0,0,0,0,0,0,0,0,0,0,0,0,0,0,0,0,0,0,0,0,0,0,0,0,0,0,0,0,0,0,0,0,0,0,0,0,0,0,0,0,0,0,0,0,0,0,0,0,0,0,0,0,0,0,0,0,0,0,132,133,134,135,0,0,0,0,0,132,133,134,135,0,0,0,0,0,0,0,0,0,0,0,0,0,0,0,0,0,0,
0,0,0,0,0,0,0,0,0,0,0,0,0,0,0,0,0,0,0,0,0,0,0,0,0,0,0,0,0,0,0,0,0,0,0,0,0,0,68,69,70,71,0,0,0,0,0,0,0,0,0,0,0,0,0,0,0,0,0,0,0,0,0,0,0,0,0,0,0,0,0,0,0,0,0,0,0,0,0,0,0,0,0,0,0,0,0,0,0,0,0,0,0,0,0,0,0,0,0,0,0,0,0,0,0,0,0,0,0,0,0,0,0,0,0,0,0,0,0,0,
0,68,69,70,71,0,0,0,0,0,0,0,0,0,0,0,0,0,68,69,70,71,0,0,0,0,0,0,0,0,0,0,0,0,0,0,0,0,84,85,86,87,0,0,0,0,0,0,0,0,0,0,0,0,0,0,0,0,0,0,0,0,0,0,0,0,0,68,69,70,71,0,0,0,0,0,0,0,0,0,0,0,0,0,0,0,0,0,0,0,0,0,0,0,0,0,0,68,69,70,71,0,0,0,0,0,0,0,0,0,0,0,0,0,0,0,0,0,0,0,
0,84,85,86,87,0,0,0,0,0,0,0,0,0,0,68,69,70,84,85,86,87,69,70,71,0,0,0,0,0,0,0,0,0,0,0,0,0,100,101,102,103,0,0,0,0,0,0,0,0,0,0,0,0,0,0,0,0,0,0,0,0,0,0,0,0,0,84,85,86,87,0,0,0,0,0,0,0,0,0,0,0,0,0,0,0,0,68,69,70,71,68,69,70,68,69,70,71,85,86,87,0,0,0,0,0,0,0,0,0,0,0,0,0,0,0,0,0,0,0,
0,100,101,102,103,0,68,69,70,71,0,0,0,0,0,84,85,86,100,101,102,103,85,86,87,0,0,0,0,0,0,0,0,0,0,0,0,0,116,117,118,119,0,0,0,0,0,0,0,0,0,0,0,0,0,0,0,0,0,0,0,0,0,0,0,0,0,100,101,102,103,0,0,0,0,0,0,68,69,70,71,68,69,70,68,69,70,84,85,86,87,84,85,86,84,85,86,87,101,102,103,0,0,0,0,0,0,0,0,0,0,0,0,0,0,0,0,0,0,0,
0,116,117,118,119,0,84,85,86,87,0,0,0,0,0,100,101,102,116,117,118,119,101,102,103,68,69,70,71,0,0,0,0,0,0,0,0,0,132,133,134,135,0,0,0,0,0,0,0,0,0,0,0,0,0,0,0,0,0,0,0,0,0,0,68,69,70,71,117,118,119,0,0,0,0,0,0,84,85,86,87,84,85,86,84,85,86,100,101,102,103,100,101,102,100,101,102,103,117,118,119,0,0,0,0,0,0,0,0,0,0,0,0,0,0,0,0,0,0,0,
0,132,133,134,135,0,100,101,102,103,0,0,0,0,0,116,117,118,132,133,134,135,117,118,119,84,85,86,87,0,0,0,0,0,0,0,0,0,0,0,0,0,0,68,69,70,71,0,0,0,0,0,0,0,0,0,0,0,0,0,0,0,0,0,84,85,86,87,133,134,135,0,0,0,0,0,0,100,101,102,103,100,101,102,100,101,102,116,117,118,68,69,70,71,116,117,118,119,133,134,135,0,0,0,0,0,0,0,0,0,0,0,0,0,0,0,0,0,0,0,
69,70,71,68,69,70,71,117,118,119,0,0,0,0,0,132,133,134,135,68,69,70,71,134,135,100,101,102,103,0,0,0,0,0,0,0,0,0,0,0,0,0,0,84,85,86,87,68,69,70,71,0,0,0,0,0,0,68,69,70,71,0,0,0,100,101,102,103,0,0,0,0,0,0,0,0,0,116,117,118,119,116,117,118,116,117,118,132,133,134,84,85,86,87,132,133,134,135,0,0,0,0,0,0,0,0,0,0,0,0,68,69,70,71,0,0,0,0,0,0,
85,86,87,84,85,86,87,133,134,135,0,0,0,0,0,68,69,70,71,84,85,86,87,0,0,116,117,68,69,70,71,0,0,0,0,0,0,0,0,0,0,0,0,100,101,102,103,84,85,86,87,0,0,0,0,0,0,84,85,86,87,0,0,0,116,117,118,119,0,0,0,0,0,0,0,0,0,132,133,134,135,70,71,68,132,133,134,135,85,86,100,101,102,103,84,85,86,87,0,0,0,0,0,0,0,0,0,0,0,0,84,85,86,87,0,0,0,0,0,0,
101,102,103,100,101,102,103,0,0,0,0,0,0,0,0,84,85,86,87,100,101,102,103,68,69,132,133,84,85,86,87,0,0,0,0,0,0,0,0,0,0,0,0,116,117,118,119,100,101,102,103,0,0,0,0,0,0,100,101,102,103,0,0,0,132,133,134,135,0,0,0,0,0,0,0,0,0,0,0,84,85,86,87,84,85,86,87,100,101,102,116,117,118,119,100,101,102,103,0,0,0,0,0,0,0,0,0,0,0,0,100,101,102,68,69,70,71,0,0,0,
117,118,119,116,117,118,68,69,70,71,0,0,0,0,0,100,68,69,70,71,117,118,119,84,85,86,87,100,101,102,103,0,0,0,0,0,0,0,0,0,0,0,0,132,133,134,135,116,117,118,119,0,0,0,0,0,0,116,117,118,119,0,0,0,0,0,0,0,0,0,0,0,0,0,0,0,0,0,0,100,101,102,103,100,101,102,103,116,117,118,132,133,134,135,116,117,118,119,0,0,0,0,0,0,0,0,0,0,0,0,116,117,118,84,85,86,87,68,69,70,
133,134,135,132,133,134,84,85,86,87,0,0,0,0,0,116,84,85,86,87,133,134,135,100,101,102,103,116,117,118,119,0,0,0,0,0,0,0,0,0,0,0,0,0,0,0,0,132,133,134,135,0,0,0,0,0,0,132,133,134,135,0,0,0,0,0,0,0,0,0,0,0,0,0,0,0,0,0,0,116,117,118,119,116,117,118,68,69,70,71,84,85,86,87,132,133,134,135,0,0,0,0,0,0,0,0,0,0,0,0,132,133,134,100,101,102,103,84,85,86,
69,70,71,0,0,0,100,101,102,103,0,0,0,0,0,132,100,101,102,68,69,70,71,116,117,68,69,132,133,134,135,0,0,0,0,0,0,0,0,0,0,0,0,0,0,0,0,0,0,0,0,0,0,0,0,0,0,0,0,0,0,0,0,0,0,0,0,0,0,0,0,0,0,0,0,0,0,0,0,68,69,70,71,69,70,71,84,85,86,87,100,101,102,103,0,0,0,0,0,0,0,0,0,0,0,0,0,0,68,69,70,71,69,116,117,118,119,100,101,102,
85,86,87,0,0,0,116,117,118,119,0,0,0,0,0,0,116,117,118,84,85,86,87,132,133,84,85,86,87,0,0,0,0,0,0,0,0,0,0,0,0,0,0,0,0,0,0,0,0,0,0,0,0,0,0,0,0,0,0,0,0,0,0,0,0,0,0,0,0,0,0,0,0,0,0,0,0,0,0,84,85,86,87,85,86,87,100,101,102,103,116,117,118,119,0,0,0,0,0,0,0,0,0,0,0,0,0,0,84,85,86,87,85,132,68,69,70,71,117,118,
101,102,103,68,69,70,71,133,134,135,0,0,0,0,0,0,132,133,134,100,101,102,103,69,70,100,101,102,103,0,0,0,0,0,0,0,0,0,0,0,0,0,0,0,0,0,0,0,0,0,0,0,0,0,0,0,0,0,0,0,0,0,0,0,0,0,0,0,0,0,0,0,0,0,0,0,0,0,0,100,101,102,103,101,68,69,70,71,118,119,132,133,134,135,0,0,0,0,0,0,0,0,0,0,0,0,0,0,100,101,102,103,101,102,84,85,86,87,133,134,
117,118,119,84,85,86,87,68,69,70,71,0,0,0,0,0,0,0,0,116,117,118,119,85,86,116,117,118,119,0,0,0,0,0,0,0,0,0,0,0,0,0,0,0,0,0,0,0,0,0,0,0,0,0,0,0,0,0,0,0,0,0,0,0,0,0,0,0,0,0,0,0,0,0,0,0,0,0,0,116,117,118,119,117,84,85,86,87,134,135,0,0,0,0,0,0,0,0,0,0,0,0,0,0,0,0,0,0,116,117,118,119,117,118,100,101,102,68,69,70,
133,134,135,100,101,102,103,84,85,86,87,0,0,0,0,0,0,0,68,132,133,134,135,101,102,132,133,134,135,0,0,0,0,0,0,0,0,0,0,0,0,0,0,0,0,0,0,0,0,0,0,0,0,0,0,0,0,0,0,0,0,0,0,0,0,0,0,0,0,0,0,0,0,0,0,0,0,0,0,132,133,134,135,133,100,101,102,103,86,87,0,0,0,0,0,0,0,0,0,0,0,0,0,0,0,0,68,69,70,71,134,135,71,134,116,117,118,84,85,86,
0,0,0,116,117,118,119,100,101,102,103,0,0,0,0,0,0,0,84,85,86,87,116,117,118,119,0,0,0,0,0,0,0,0,0,0,0,0,0,0,0,68,69,70,71,0,0,0,0,0,0,0,0,0,0,0,68,69,70,71,0,0,0,0,0,0,0,0,0,0,0,0,0,0,0,0,0,0,0,0,0,0,0,0,116,117,118,119,102,103,0,0,0,0,0,0,0,0,0,0,0,0,0,0,0,0,84,85,86,87,85,86,87,68,69,70,71,68,69,70,
0,0,0,132,133,134,135,116,117,118,119,0,0,0,0,0,0,0,100,101,102,103,132,133,134,135,0,0,0,0,0,0,0,0,0,0,0,0,0,0,0,84,85,86,68,69,70,71,69,70,71,0,0,0,0,0,84,85,86,87,0,0,0,0,0,68,69,70,71,0,0,0,0,0,0,0,0,0,0,0,0,0,0,0,132,133,134,135,118,119,0,0,0,0,0,0,0,0,0,0,0,0,0,0,0,0,100,101,102,103,101,102,103,84,85,86,87,84,85,86,
68,69,70,71,69,70,71,68,69,70,71,0,0,0,0,0,0,0,116,117,118,119,0,0,0,0,0,0,0,0,0,0,0,0,0,0,0,0,0,0,0,100,101,102,84,85,86,87,85,86,87,0,0,0,0,0,100,101,102,103,68,69,70,71,0,84,85,86,87,0,0,0,0,0,0,0,0,0,0,0,0,0,0,0,0,0,132,133,134,135,0,0,0,0,0,0,0,0,0,0,0,0,0,0,68,69,70,71,118,119,117,118,119,100,101,102,103,100,101,102,
84,85,86,87,85,86,87,68,69,70,71,0,0,0,0,0,0,0,132,133,134,135,0,0,0,0,0,0,0,0,0,0,0,0,0,68,69,70,71,69,70,71,117,118,100,101,102,103,101,102,103,0,0,0,0,0,116,117,118,119,84,85,86,87,0,100,101,102,103,0,0,68,69,70,71,0,0,0,0,0,0,0,0,0,0,0,0,0,0,0,0,0,0,0,0,0,0,0,0,0,0,0,0,0,84,85,86,87,134,135,133,134,135,68,69,70,71,116,117,118,
100,101,102,103,101,102,103,84,85,86,87,0,0,0,0,0,0,0,0,0,0,0,0,0,0,0,0,0,0,0,0,0,0,0,0,84,85,86,87,85,86,87,133,134,116,117,118,119,117,118,119,0,0,0,0,0,132,133,134,135,100,101,102,103,0,116,117,118,119,0,0,84,85,86,87,0,68,69,70,71,0,0,0,0,0,0,0,0,0,0,0,0,0,0,0,0,0,0,0,0,0,0,0,0,100,101,68,69,70,71,85,86,87,84,85,86,87,132,133,134,
116,117,118,119,117,118,119,100,101,102,103,68,69,70,71,0,0,0,0,0,0,0,0,0,0,0,0,0,0,0,0,0,0,0,0,100,101,102,103,101,102,103,0,68,132,133,134,135,69,70,71,0,0,0,0,0,0,68,69,70,71,117,118,119,0,132,133,134,135,0,0,100,101,102,103,0,84,85,86,87,0,0,0,0,0,0,0,0,0,0,0,0,0,0,0,0,0,0,0,0,68,69,70,68,69,70,84,85,86,87,101,102,103,100,101,102,103,84,85,86,
132,133,134,135,133,134,135,116,117,118,119,84,85,86,87,0,0,0,0,0,0,0,0,0,0,0,0,0,0,0,0,0,0,68,69,116,117,118,119,70,71,119,0,84,85,86,87,84,85,86,87,0,0,0,0,0,0,84,85,86,87,133,134,135,68,69,70,71,68,69,70,71,117,118,119,0,100,101,102,103,0,0,0,0,0,0,0,0,0,0,0,0,0,0,0,0,0,0,0,0,84,85,86,84,85,86,100,101,102,103,117,118,119,116,117,118,119,100,101,102,
0,0,0,68,69,70,71,132,133,134,135,100,101,102,103,0,0,0,0,0,0,0,0,0,0,0,0,0,0,0,68,69,70,71,85,132,133,134,135,86,68,69,70,71,101,102,103,100,101,102,103,0,0,0,0,0,0,100,101,102,103,0,0,0,84,85,86,87,84,85,86,87,133,134,135,0,116,117,118,119,0,0,0,0,0,0,0,0,0,0,0,0,0,0,0,0,0,0,0,0,100,101,102,100,101,102,116,117,68,69,70,71,68,69,68,69,70,71,117,118,
0,0,0,84,85,86,87,68,69,70,71,116,117,118,119,0,0,0,0,0,0,0,0,0,0,0,0,0,0,0,84,85,86,87,101,102,103,100,101,102,84,85,86,87,117,68,69,70,71,118,119,71,0,0,0,0,0,116,117,118,68,69,70,71,100,101,102,103,100,101,68,69,70,71,68,69,70,71,134,135,0,0,0,0,0,0,0,0,0,0,0,0,0,0,0,0,0,0,68,69,70,71,118,116,68,69,70,71,84,85,86,87,84,85,84,85,86,68,69,70,
0,0,0,100,101,102,103,84,85,86,87,132,133,134,135,0,0,0,0,0,0,0,0,0,0,0,0,0,0,0,100,101,102,103,117,118,119,116,117,118,100,101,102,103,133,84,85,86,87,134,135,87,0,0,0,0,0,132,133,134,84,85,86,87,116,117,118,119,116,117,84,85,86,87,84,85,86,87,0,0,0,0,0,0,0,0,0,0,0,0,0,0,0,0,0,0,0,0,84,85,86,87,134,132,84,85,86,87,100,101,102,103,100,101,100,101,102,84,85,86,
68,69,70,71,117,118,119,100,101,102,103,0,0,0,0,0,0,0,0,0,0,0,0,0,0,0,0,0,0,0,116,117,118,119,133,134,135,132,133,68,69,70,68,69,70,100,101,102,103,101,102,103,0,0,0,0,0,0,0,0,100,101,102,68,69,70,71,135,132,133,100,101,102,103,100,101,102,103,0,0,0,0,0,0,0,0,0,0,0,0,0,0,0,0,0,0,0,0,100,101,102,68,69,70,100,101,102,103,116,117,118,119,116,117,116,117,118,100,101,102,
84,85,86,87,133,134,135,116,117,118,119,0,0,0,0,0,0,0,0,0,0,0,0,0,0,0,0,0,0,0,132,133,134,135,0,0,68,69,70,84,85,86,84,85,86,116,117,118,119,117,118,119,0,0,0,0,0,68,69,70,71,117,118,84,85,86,87,68,69,70,71,117,118,119,116,117,118,119,0,0,0,0,0,0,0,68,69,70,71,0,0,0,0,0,0,0,0,0,116,117,118,84,85,86,116,117,68,69,70,71,68,69,70,71,132,133,134,116,117,118,
100,101,102,103,0,0,0,132,133,134,135,0,0,0,0,0,0,0,0,0,0,0,0,0,0,0,0,0,0,0,0,0,0,0,0,0,84,85,86,100,101,102,100,101,102,132,133,134,135,133,134,135,0,0,0,0,0,84,85,86,87,133,134,100,101,102,103,84,85,86,87,133,134,135,132,133,134,135,0,0,0,0,0,0,0,84,85,86,87,0,0,0,0,0,0,0,0,0,132,133,134,100,101,102,132,133,84,85,86,87,84,85,86,87,69,70,71,132,133,134,
116,117,118,119,0,0,0,0,0,0,0,0,0,0,0,0,0,0,0,68,69,70,71,0,0,0,0,0,0,0,0,0,0,0,0,0,100,101,102,116,117,118,116,117,118,119,85,86,87,0,0,0,0,0,0,0,0,100,101,102,103,0,0,116,117,68,69,100,101,102,103,0,0,0,0,0,0,0,0,0,0,0,0,0,0,100,101,102,103,0,0,0,0,0,0,0,0,0,0,0,0,116,117,118,119,0,100,68,69,70,71,101,102,103,85,86,87,69,70,71,
132,133,134,135,0,0,0,0,0,0,0,0,0,0,0,0,0,0,0,84,85,68,69,70,71,0,0,0,0,0,0,0,0,0,0,0,116,117,118,132,133,68,69,70,71,135,101,102,103,0,68,69,70,71,0,0,0,116,117,118,119,69,70,71,133,84,85,116,117,118,119,0,0,0,0,0,0,0,0,0,0,0,0,0,0,116,117,118,119,68,69,70,71,0,0,0,0,0,0,0,0,132,133,134,135,0,116,84,85,86,87,117,118,119,101,102,103,85,86,87,
0,0,0,0,0,0,0,0,0,0,0,0,0,0,0,0,0,0,0,100,101,84,85,86,87,0,0,0,0,0,0,0,0,0,0,0,132,133,134,135,0,84,85,86,87,116,117,118,119,0,84,85,86,87,0,0,0,132,133,134,135,85,86,87,0,100,101,132,133,134,135,0,0,0,0,0,0,0,0,0,0,0,0,0,0,68,69,70,71,84,85,86,87,0,0,0,0,0,0,0,0,0,0,0,0,0,132,100,101,102,103,133,134,135,117,68,69,70,71,103,
0,0,0,0,0,0,0,0,0,0,0,0,0,0,0,0,0,0,0,116,117,100,101,102,103,0,0,0,0,0,0,0,0,0,0,0,0,0,0,0,0,100,101,102,103,132,133,68,69,70,71,101,102,103,0,0,0,0,0,0,100,101,102,103,0,116,117,118,119,0,0,0,0,0,0,0,0,0,0,0,0,68,69,70,71,84,85,86,87,100,101,102,103,69,68,69,70,71,0,0,0,0,0,0,0,0,0,116,117,118,119,0,0,132,133,84,85,86,87,119,
0,0,0,0,0,0,0,0,0,0,0,0,0,0,0,0,0,0,0,132,133,116,117,118,119,71,68,69,70,71,0,0,0,0,0,0,0,0,0,0,0,116,117,118,119,69,70,84,85,86,87,117,118,119,0,0,0,0,0,0,116,117,118,119,0,132,133,134,135,0,0,0,0,0,0,0,0,0,0,0,0,84,85,86,87,100,101,102,103,116,117,118,119,85,84,85,86,87,0,0,0,0,0,0,0,0,0,132,133,134,135,0,0,0,0,100,101,102,103,69,
0,0,0,0,0,0,0,0,0,0,0,0,0,0,0,0,68,69,68,69,70,132,133,134,135,87,84,85,86,87,0,0,0,0,0,0,0,0,0,0,0,132,133,134,135,85,86,100,101,102,103,133,134,135,0,0,0,0,0,0,132,133,134,135,0,0,0,0,0,0,0,0,0,0,0,0,0,0,0,0,0,100,101,102,103,116,117,118,119,132,133,134,135,101,100,101,102,103,0,0,0,0,0,0,0,0,0,0,0,0,0,0,0,0,0,116,117,118,119,85,
0,0,0,0,0,0,0,0,0,0,68,69,70,71,0,0,84,85,84,85,86,87,100,101,102,103,100,101,102,68,69,70,71,0,0,0,0,0,0,0,0,0,0,0,100,101,102,116,117,118,119,0,0,0,0,0,0,0,0,0,0,0,0,0,0,0,0,0,0,0,0,0,0,0,0,0,0,0,68,69,70,71,117,118,119,132,133,134,135,68,69,70,116,117,116,117,118,119,69,68,69,70,68,69,70,71,0,0,0,0,0,0,0,0,0,132,133,134,135,101,
0,0,0,0,0,0,0,0,0,0,84,85,86,68,69,70,71,101,100,101,102,103,116,117,118,119,116,117,118,84,85,86,87,69,70,71,0,0,0,0,0,0,0,0,116,117,118,132,133,134,135,0,0,0,0,0,0,0,0,0,0,0,0,0,0,0,0,0,0,0,0,0,0,0,0,0,0,0,84,85,86,87,69,70,71,84,85,86,87,84,85,86,132,133,132,133,134,135,85,84,85,86,84,85,86,87,0,0,0,0,0,0,0,0,0,0,0,0,116,117,
0,0,0,0,0,0,0,0,0,0,100,101,102,84,85,86,87,117,116,117,118,119,132,133,134,135,132,133,134,100,101,102,103,85,86,87,0,0,0,0,0,0,0,0,132,133,134,135,0,0,0,0,0,0,0,0,0,0,0,0,0,0,0,0,0,0,0,0,0,0,0,0,0,0,0,0,0,0,100,101,102,103,85,86,87,100,101,102,103,100,101,102,103,100,101,102,103,100,101,100,101,102,100,101,102,103,0,0,0,0,0,0,0,0,0,0,0,0,132,133,
0,0,0,0,0,0,0,0,0,0,116,117,118,100,101,102,103,133,132,133,134,135,70,68,69,70,71,0,0,116,117,118,119,101,102,103,0,0,0,0,0,0,0,0,0,0,0,0,0,0,0,0,0,0,0,0,0,0,0,0,0,0,0,0,0,0,0,0,0,0,0,0,0,0,0,68,69,70,71,117,118,119,101,102,103,116,117,118,119,116,117,118,119,116,117,118,119,116,117,116,117,118,116,68,69,70,71,70,71,69,70,71,0,0,0,0,0,0,0,0,
0,0,0,0,0,0,0,0,0,0,132,133,134,116,117,118,119,0,0,0,84,85,86,84,85,86,87,69,70,132,133,134,135,117,118,119,0,0,68,69,70,71,0,0,0,0,0,0,0,0,0,0,0,0,0,0,0,0,0,0,0,0,0,0,0,0,0,0,0,0,0,0,0,0,0,84,85,86,87,133,134,135,117,118,119,132,133,134,135,132,133,134,135,132,133,134,135,132,133,132,133,134,132,84,85,86,87,86,87,85,86,87,0,0,0,0,0,0,0,0,
0,0,0,0,0,0,0,0,0,68,69,70,71,132,133,134,135,68,69,70,71,101,102,100,101,102,103,85,86,87,68,69,70,71,68,69,70,71,84,85,86,87,0,0,0,0,0,0,0,0,0,0,0,0,0,0,0,0,0,0,0,0,0,0,0,0,0,0,68,69,70,71,68,69,70,71,101,102,103,85,86,132,133,134,135,85,86,87,84,85,84,85,86,87,85,86,87,84,85,86,87,100,101,100,101,102,103,102,103,101,102,103,0,0,0,0,0,0,0,0,
0,0,0,0,68,69,70,71,0,84,85,86,87,84,85,86,87,84,85,86,87,117,118,116,117,118,119,101,102,103,84,85,86,87,84,85,86,87,100,101,102,103,0,0,0,0,0,0,0,0,0,0,0,0,0,0,0,0,0,0,0,0,0,0,0,0,0,0,84,85,86,87,84,85,86,87,117,118,119,101,102,103,0,0,100,101,102,103,100,101,100,101,102,103,101,102,103,100,101,102,103,116,117,116,117,118,119,118,119,117,118,119,0,0,0,0,0,0,0,0,
68,69,70,71,84,85,86,87,0,100,101,102,103,100,101,102,103,100,101,102,103,133,134,132,133,134,135,117,118,119,100,101,102,103,100,101,102,103,116,117,118,119,0,0,0,0,0,0,0,0,0,0,0,0,0,0,0,0,0,0,0,0,0,0,0,0,0,0,100,101,102,103,100,101,102,103,133,134,135,117,118,119,0,0,116,117,118,119,116,117,116,117,118,119,117,118,119,116,117,118,119,132,133,132,133,134,135,134,135,133,134,135,0,0,0,0,0,0,0,0
</data>
 </layer>
 <layer id="6" name="OverPlayer2" width="120" height="80">
  <data encoding="csv">
71,132,133,134,135,132,133,134,135,0,100,101,102,103,0,0,100,101,102,103,0,0,100,101,102,103,0,0,100,101,102,103,116,117,118,119,116,117,118,119,0,132,133,134,135,0,0,132,133,134,135,0,0,116,117,118,119,0,0,0,0,132,133,134,135,0,132,133,134,135,0,0,0,116,117,118,119,0,84,85,86,87,116,117,118,119,84,85,86,87,0,100,101,102,100,101,102,103,0,100,101,102,100,101,68,69,70,71,101,102,103,0,0,0,0,0,0,0,0,0,
87,0,0,0,0,0,0,0,0,0,116,117,118,119,68,69,70,71,118,119,0,0,116,117,118,119,0,0,116,117,118,119,132,133,134,135,132,133,134,135,0,0,0,0,0,0,0,0,0,0,0,0,0,132,133,134,135,0,0,0,0,0,0,0,0,0,0,0,0,0,0,0,0,132,133,134,135,0,100,101,102,103,132,133,134,135,100,101,102,103,0,116,117,118,116,117,118,119,0,116,117,68,69,70,84,85,86,87,117,118,119,0,0,0,0,0,0,0,0,0,
103,0,0,0,0,0,0,0,0,0,132,133,134,135,84,85,86,87,134,135,68,69,132,68,69,70,71,0,68,69,70,71,0,0,0,0,0,0,0,0,0,0,0,0,0,0,0,0,0,0,0,0,0,0,0,0,0,0,0,0,0,0,0,0,0,0,0,0,0,0,0,0,0,0,0,0,0,0,116,117,118,119,0,0,0,0,116,117,118,119,0,132,133,134,132,133,134,135,0,132,133,84,85,86,100,101,102,103,133,134,135,0,0,0,0,0,0,0,0,0,
119,0,0,0,0,0,0,0,0,0,0,0,0,0,100,101,102,103,0,0,84,85,86,84,85,86,87,0,84,85,86,87,0,0,0,0,0,0,0,0,0,0,0,0,0,0,0,0,0,0,0,0,0,0,0,0,0,0,0,0,0,0,0,0,0,0,0,0,0,0,0,0,0,0,0,0,0,0,132,133,134,68,69,70,71,0,132,133,134,68,69,70,68,69,70,71,0,68,69,70,71,100,101,102,116,117,118,119,0,0,0,0,0,0,0,0,0,0,68,69,
135,0,0,0,0,0,0,0,0,0,0,0,0,0,116,117,118,119,0,0,100,101,102,100,101,102,103,0,100,101,102,103,0,0,0,0,0,0,0,0,0,0,0,0,0,0,0,0,0,0,0,0,0,0,0,0,0,0,0,0,0,0,0,68,69,70,71,0,0,0,0,0,0,0,0,0,0,0,0,0,0,84,85,86,68,69,70,71,0,84,85,86,84,85,86,87,0,84,85,86,87,116,117,118,132,133,134,135,0,0,0,0,0,0,0,0,0,0,84,85,
70,71,0,0,0,0,0,0,0,0,0,0,0,0,132,133,134,135,0,0,116,117,118,116,117,118,119,0,116,117,118,119,0,0,0,0,0,0,0,0,0,0,0,0,0,0,0,0,0,0,0,0,0,0,0,0,0,0,0,0,68,69,70,84,85,86,87,0,0,0,0,0,0,0,0,0,0,0,0,0,0,100,101,102,84,85,86,87,0,100,101,102,100,101,102,103,0,100,101,102,103,132,133,134,135,0,0,0,0,0,0,0,0,0,68,69,70,71,100,101,
86,87,0,0,0,0,0,0,0,0,0,0,0,0,0,0,0,0,0,0,132,133,134,132,133,134,135,0,132,133,134,135,0,0,0,0,0,0,0,0,0,0,68,69,70,71,68,69,70,71,0,0,0,0,0,0,0,0,0,0,84,85,86,100,101,102,103,0,0,0,0,0,0,0,0,0,0,0,0,0,0,116,117,118,100,101,102,103,0,116,117,118,116,117,118,119,0,116,117,118,119,0,0,0,0,0,0,0,0,0,0,68,69,70,71,85,86,87,116,117,
102,103,68,69,70,71,0,0,0,0,0,0,0,0,0,0,0,0,0,0,0,0,0,0,0,0,0,0,0,0,0,0,0,0,0,0,0,0,68,69,70,71,84,85,86,87,84,85,86,87,0,0,0,0,0,0,0,0,0,0,100,101,102,116,117,118,119,68,69,70,71,0,0,0,0,0,0,0,0,0,0,132,133,134,116,117,118,119,0,132,133,134,132,133,134,135,0,132,133,134,135,0,0,0,0,0,0,0,0,0,0,84,85,86,87,101,102,103,132,133,
118,119,84,85,86,87,69,70,71,0,0,0,0,0,0,0,0,0,0,0,0,0,0,0,0,0,0,0,0,0,0,0,0,0,0,0,0,0,84,85,86,87,100,101,102,103,100,101,102,103,0,0,0,0,0,0,0,0,0,0,116,117,118,132,68,69,70,84,85,86,87,0,0,0,0,0,0,0,0,0,0,0,0,0,68,69,70,71,0,0,0,0,0,0,0,0,0,0,0,0,0,0,0,0,0,0,0,0,0,68,69,70,71,102,103,117,118,68,69,70,
134,135,100,101,102,103,85,86,87,0,0,0,0,0,0,0,0,0,0,0,0,0,0,0,0,0,0,0,0,0,0,0,0,0,0,0,0,0,100,101,102,103,116,117,118,119,116,117,118,119,0,0,0,0,0,0,68,69,70,71,132,133,134,135,84,85,86,100,101,102,103,0,0,0,0,0,0,0,0,0,0,0,0,0,84,85,86,87,0,68,69,70,71,0,0,0,0,0,0,0,0,0,0,0,0,0,0,0,0,84,85,86,87,118,68,69,70,84,85,86,
69,70,116,117,118,119,101,102,103,0,0,0,0,0,0,0,0,0,0,0,0,0,0,0,0,0,0,0,0,0,0,0,0,68,69,70,71,0,116,117,118,68,132,133,134,135,132,133,134,68,69,70,71,0,0,0,84,85,86,87,68,69,70,71,100,101,102,116,117,118,119,71,0,0,0,0,0,0,0,0,0,0,0,0,100,101,102,103,0,84,85,86,87,0,0,0,0,0,0,0,0,0,0,0,0,0,0,0,0,100,101,102,103,134,84,85,86,100,101,102,
85,86,132,133,134,135,69,70,71,0,68,69,70,71,0,0,0,0,0,0,0,0,0,0,0,0,0,0,0,0,0,0,0,84,85,86,87,0,132,133,134,84,85,86,87,68,69,70,71,84,85,86,87,0,0,0,100,101,102,103,84,85,86,87,116,117,118,132,133,134,135,87,68,69,70,71,0,0,0,0,0,0,0,0,116,117,118,119,0,100,101,102,103,0,0,0,0,0,0,0,0,0,68,69,70,71,0,0,0,116,68,69,70,71,100,101,102,116,117,118,
101,102,103,0,0,84,85,86,87,0,84,85,86,87,0,0,0,0,0,0,0,0,0,0,0,0,0,0,0,0,0,0,0,100,101,102,103,68,69,70,71,100,101,102,103,84,85,86,87,100,101,102,103,0,0,0,116,117,118,119,100,101,102,68,69,70,71,135,100,101,102,103,84,85,86,87,0,0,0,0,0,0,0,0,132,133,134,135,0,116,117,118,119,0,0,0,0,0,0,0,0,0,84,85,86,87,69,70,71,132,84,85,86,87,116,117,118,132,133,134,
117,118,68,69,70,100,101,102,103,0,100,101,102,103,0,0,0,0,0,0,0,0,0,0,0,0,0,0,0,68,69,70,71,116,117,118,119,84,85,86,87,116,117,118,119,100,101,102,103,116,117,118,119,0,0,0,132,133,68,69,70,71,118,84,85,86,87,0,116,117,118,119,100,101,102,103,0,0,0,0,0,0,0,0,0,0,0,0,0,132,133,134,135,0,0,0,0,0,0,0,0,0,100,101,102,103,85,86,87,0,100,101,102,103,132,133,134,135,0,0,
133,134,84,85,86,116,117,118,119,0,116,117,118,119,0,0,0,0,0,0,0,0,0,0,0,0,0,0,0,84,85,86,87,132,133,134,135,100,101,102,103,132,133,134,135,116,117,118,119,132,133,134,135,0,0,0,0,0,84,85,86,87,134,100,101,102,103,0,132,133,134,135,116,117,118,68,69,70,71,68,69,70,71,0,0,0,0,0,0,0,0,0,0,0,0,0,0,0,0,0,0,0,116,117,118,119,101,102,103,0,116,117,118,68,69,70,71,0,0,0,
0,0,100,68,69,70,71,134,135,0,132,133,134,135,71,0,0,0,0,0,0,0,0,0,0,0,0,0,0,100,101,102,103,68,69,70,71,116,117,118,68,69,70,71,0,68,69,70,71,0,0,0,0,0,0,0,0,0,100,101,102,103,0,116,117,118,119,68,69,70,71,68,69,70,71,84,85,86,87,84,85,86,87,0,0,0,0,0,0,0,0,0,0,0,0,0,68,69,70,71,68,69,70,71,134,135,117,118,119,68,69,70,71,84,85,86,87,68,69,70,
0,0,116,84,85,86,87,0,68,69,70,84,85,86,87,0,0,0,0,0,0,0,0,0,0,0,0,0,0,116,117,118,119,84,85,86,87,132,133,134,84,85,86,87,0,84,85,86,87,0,0,0,0,0,0,0,0,0,116,117,118,119,0,132,68,69,70,84,85,86,87,84,85,86,87,100,101,102,103,100,101,102,103,0,0,0,0,0,0,0,0,0,0,0,0,0,84,85,86,87,84,85,86,87,0,132,133,134,135,84,85,86,87,100,101,102,103,84,85,86,
0,68,132,100,101,102,103,0,84,85,86,100,101,102,103,0,0,0,0,0,0,0,0,0,0,0,0,0,0,132,133,134,135,100,101,102,103,0,0,0,100,101,102,103,0,100,101,102,103,0,0,0,0,0,0,0,0,0,132,133,134,135,0,0,84,85,86,100,101,102,103,100,101,102,103,116,117,118,119,116,117,118,119,0,0,0,0,0,0,0,0,0,0,0,0,0,100,101,102,103,100,101,102,103,68,69,70,71,0,100,101,102,103,116,117,118,119,100,101,102,
0,84,85,116,117,118,119,70,100,101,102,116,117,118,119,0,0,0,0,0,0,0,0,0,0,0,0,0,0,0,0,0,0,116,117,118,119,0,0,0,116,117,118,119,0,116,117,118,119,0,0,0,0,0,0,0,0,0,0,0,0,0,0,0,100,101,102,116,117,118,119,116,117,118,119,132,133,134,135,132,133,134,135,0,0,0,0,0,0,0,0,0,0,0,0,0,116,117,118,119,116,117,118,119,84,85,86,87,0,116,117,118,119,68,69,70,71,116,117,118,
0,100,101,132,133,134,135,86,116,68,69,70,71,134,135,0,0,0,0,0,0,68,69,70,71,0,0,0,0,0,0,0,0,132,133,134,135,0,0,0,132,133,134,135,0,132,133,134,135,0,0,0,0,0,0,0,0,0,0,0,0,0,0,0,116,117,118,132,133,134,135,132,133,134,135,0,0,0,0,0,0,0,0,0,0,0,0,0,0,0,0,0,0,0,0,0,132,133,68,69,70,71,134,135,100,101,102,103,0,132,133,134,135,84,85,86,87,132,133,134,
0,116,117,118,119,100,101,102,132,84,85,86,87,0,0,0,0,0,0,0,0,84,85,86,87,0,0,0,0,0,0,0,0,0,0,0,0,0,0,0,0,0,0,0,0,0,0,0,0,0,0,0,0,0,0,0,0,0,0,0,0,0,0,0,132,133,134,135,0,0,0,0,0,0,0,0,0,0,0,0,0,0,0,0,0,0,0,0,0,0,0,0,0,0,0,0,0,0,84,85,86,87,0,0,116,117,118,119,0,68,69,70,71,100,101,102,103,68,69,70,
69,132,133,134,135,116,117,118,119,100,101,102,103,0,0,0,0,0,0,0,0,100,101,102,103,0,0,0,0,0,0,0,0,0,0,0,0,0,0,0,0,0,0,0,0,0,0,0,0,0,0,0,0,0,0,0,0,0,0,0,0,0,0,0,0,0,0,0,0,0,0,0,0,0,0,0,0,0,0,0,0,0,0,0,0,0,0,0,0,0,0,0,0,0,0,0,0,0,100,101,102,103,0,0,68,69,70,71,0,84,85,86,87,116,117,118,119,84,85,86,
85,86,87,0,68,132,133,134,135,116,117,118,119,0,0,0,0,0,68,69,70,116,117,118,119,69,70,71,0,0,0,0,0,0,0,0,0,0,0,0,0,0,0,0,0,0,0,0,0,0,0,0,0,0,0,0,0,0,0,0,0,0,0,0,0,0,0,0,0,0,0,0,0,0,0,0,0,0,0,0,0,0,68,69,70,71,0,0,0,0,0,0,0,0,0,0,0,0,116,117,118,119,0,0,84,85,86,87,0,100,101,102,68,69,70,71,135,100,101,102,
101,102,103,0,84,85,86,68,69,132,133,134,135,0,0,0,0,0,84,85,86,132,133,134,135,85,86,87,0,0,0,0,0,0,0,0,0,0,0,0,0,0,0,0,0,0,0,0,0,0,0,0,0,0,0,0,0,68,69,70,71,0,0,0,0,0,0,0,0,0,0,0,0,0,0,0,0,68,69,70,71,0,84,85,86,87,0,0,0,0,0,0,0,0,0,0,0,0,132,133,134,135,0,0,100,101,102,103,0,116,117,118,84,85,86,87,0,116,117,118,
117,118,119,0,100,101,102,84,85,86,87,0,0,0,0,0,0,0,100,101,102,103,85,86,87,101,102,103,0,0,0,0,0,0,0,0,0,0,0,0,0,0,68,69,70,71,0,68,69,70,71,0,0,0,0,0,0,84,85,86,87,68,69,70,71,0,0,0,0,0,0,0,0,0,0,0,0,84,85,86,87,0,100,101,102,68,69,70,71,0,0,0,0,0,0,0,0,0,0,0,0,0,0,0,116,117,118,119,68,69,70,71,100,101,102,103,0,132,133,134,
133,134,135,0,116,117,118,100,101,102,103,0,0,0,0,0,0,0,116,117,118,119,101,102,103,117,118,119,0,0,0,0,0,0,0,0,0,0,0,0,0,0,84,85,86,87,0,84,85,86,87,0,0,0,0,0,0,100,101,102,103,84,85,86,87,0,0,0,0,0,0,0,0,0,0,0,0,100,101,102,103,0,116,117,118,84,85,86,68,69,70,71,0,0,0,0,0,0,0,0,0,0,0,0,132,133,134,135,84,85,86,87,116,117,118,119,0,0,68,69,
0,68,69,70,132,133,134,116,117,118,119,0,0,0,0,0,68,69,132,133,134,135,117,118,119,133,134,135,68,69,70,71,0,0,0,0,0,0,0,0,0,0,100,101,102,103,0,100,101,102,103,0,0,0,0,0,0,116,117,118,119,100,101,102,103,0,0,0,0,0,0,0,0,0,0,0,0,116,117,118,119,0,132,133,134,100,101,102,84,85,86,87,0,0,0,0,0,0,0,0,0,0,0,0,0,0,0,0,100,101,102,103,132,133,134,135,0,0,84,85,
0,84,85,86,87,68,69,132,133,134,135,0,0,0,0,0,84,85,86,87,69,70,71,134,135,70,71,0,84,85,86,87,0,0,0,0,0,0,0,0,0,0,116,117,118,119,0,116,117,118,119,0,0,0,0,0,0,132,133,134,135,116,117,118,119,0,0,0,0,0,0,0,0,0,0,0,0,132,68,69,70,71,69,70,71,116,117,118,100,101,102,103,0,0,0,0,0,0,0,0,0,0,0,0,0,0,0,0,116,117,118,119,0,0,0,0,0,0,100,101,
0,100,101,102,103,84,85,86,87,0,0,0,0,0,0,0,100,101,102,103,85,86,87,84,85,86,87,0,100,101,102,103,0,0,0,0,0,0,0,68,69,70,132,133,134,135,0,132,133,134,135,0,0,0,0,0,0,0,0,0,0,132,133,134,135,0,68,69,70,71,0,0,0,0,0,0,0,0,84,85,86,87,85,86,87,132,133,134,116,117,118,119,0,0,0,0,0,0,0,0,0,0,0,0,0,0,0,0,132,133,134,135,0,0,0,0,0,0,116,117,
0,116,117,118,119,100,101,102,103,0,0,0,0,0,0,0,116,117,118,119,101,102,103,100,101,102,103,0,116,117,118,119,0,0,0,0,0,0,0,84,85,86,87,0,0,0,0,0,0,0,0,0,0,0,0,0,0,0,0,0,0,0,0,0,0,0,84,85,86,87,0,0,0,0,0,0,0,0,100,101,102,103,101,102,103,69,70,71,68,69,70,71,0,68,69,70,71,0,0,0,0,0,0,0,0,0,0,0,0,0,0,0,0,0,0,0,0,0,132,133,
0,132,133,134,135,116,117,118,119,0,0,0,0,0,0,0,132,133,134,135,117,118,119,116,117,118,119,0,132,133,134,135,0,0,0,0,0,0,0,100,101,102,103,0,0,0,0,0,0,0,0,0,0,0,0,0,0,0,0,0,0,0,0,0,0,0,100,101,102,103,0,0,0,0,0,0,68,69,70,71,118,119,117,118,119,85,86,87,84,85,86,87,0,84,85,86,87,0,0,0,0,0,0,0,0,0,0,0,0,0,0,0,0,0,0,0,0,0,0,68,
0,0,0,0,0,132,133,134,135,0,0,0,0,0,0,0,84,85,86,132,133,134,135,132,133,134,135,70,71,0,0,0,0,0,0,0,0,0,0,116,117,118,119,0,0,0,0,0,0,0,0,0,0,0,0,0,0,0,0,0,0,0,0,0,0,0,116,117,118,119,0,0,0,0,0,0,84,85,86,87,134,68,69,70,71,101,102,103,100,101,102,103,0,100,101,102,103,68,69,70,71,0,0,0,0,0,0,0,0,0,0,0,0,0,0,0,0,0,0,84,
0,0,0,0,0,0,0,0,0,0,0,0,0,0,0,0,100,101,102,103,84,85,86,87,0,84,85,86,87,0,0,0,0,0,0,0,0,0,0,132,133,134,135,0,0,0,0,0,0,0,0,0,0,0,0,0,0,0,0,0,0,0,0,0,0,0,132,133,134,135,0,0,0,0,0,0,100,101,102,103,0,84,85,86,87,117,118,119,116,117,118,119,68,69,70,71,119,84,85,86,87,0,0,0,0,0,0,0,0,0,0,0,0,0,0,0,0,0,0,100,
0,0,0,0,0,0,0,0,0,0,0,0,0,0,0,0,116,117,118,119,100,101,102,103,0,100,101,102,103,0,0,0,0,0,0,0,0,0,0,0,0,0,0,0,0,0,0,0,0,0,0,0,0,0,0,0,0,0,0,0,0,0,0,0,0,0,0,0,0,0,0,0,0,0,0,0,116,117,118,119,0,100,101,102,103,133,134,135,132,133,134,135,84,85,86,87,135,100,101,102,103,0,0,0,0,0,0,0,0,0,0,0,0,0,0,0,0,0,0,116,
0,0,0,0,0,0,0,0,0,0,0,0,0,0,0,0,132,133,134,135,116,117,118,119,0,116,117,118,119,0,0,0,0,0,0,0,0,0,0,0,0,0,0,0,0,0,0,0,0,0,0,0,0,0,0,0,0,0,0,0,0,0,0,0,0,0,0,0,0,0,0,0,0,0,0,0,132,133,134,135,0,116,117,118,119,0,0,0,0,0,0,0,100,101,102,103,0,116,117,118,119,0,0,0,0,0,0,0,0,0,0,0,0,0,0,0,0,0,0,132,
0,0,0,0,0,0,0,0,0,0,0,0,0,0,0,0,0,0,0,0,132,133,134,135,0,132,133,134,135,0,0,0,0,0,0,0,0,0,0,0,0,0,0,0,0,0,0,0,0,0,0,0,0,0,0,0,0,0,0,0,0,0,0,0,0,0,0,0,0,0,0,0,0,0,0,0,0,0,0,0,0,132,133,134,135,0,0,0,0,0,0,0,116,117,118,119,0,132,133,134,135,0,0,0,0,0,0,0,0,0,0,0,0,0,0,0,0,0,0,0,
0,0,0,0,0,0,0,0,0,0,0,0,0,0,0,0,0,0,0,0,0,0,0,0,0,0,0,0,0,0,0,0,0,0,0,0,0,0,0,0,0,0,0,0,0,0,0,0,0,0,0,0,0,0,0,0,0,0,0,0,0,0,0,0,0,0,0,0,0,0,0,0,0,0,0,0,0,0,0,0,0,0,0,0,0,0,0,0,0,0,0,0,132,133,134,135,0,0,0,0,0,0,0,0,0,0,0,0,0,0,0,0,0,0,0,0,0,0,0,68,
0,0,0,0,0,0,0,0,0,0,0,0,0,0,0,0,0,0,0,0,0,0,0,0,0,0,0,0,0,0,0,0,0,0,0,0,0,0,0,0,0,0,0,0,0,0,0,0,0,0,0,0,0,0,0,0,0,0,0,0,0,0,0,0,0,0,0,0,0,0,0,0,0,0,0,0,0,0,0,0,0,0,0,0,0,0,0,0,0,0,0,0,0,0,0,0,0,0,0,0,0,0,0,0,0,0,0,0,0,0,0,0,0,0,0,0,0,0,0,84,
0,0,0,0,0,0,68,69,70,71,0,0,0,0,0,0,0,0,0,0,0,0,0,0,0,0,0,0,0,0,0,0,0,0,0,0,0,0,0,0,0,0,0,0,0,0,0,0,0,0,0,0,0,0,0,0,0,0,0,0,0,0,0,0,0,0,0,0,0,0,0,0,0,0,0,0,0,0,0,0,0,0,0,0,0,0,0,0,0,0,0,0,68,69,70,71,68,69,70,71,0,0,0,0,0,0,0,0,0,0,0,0,0,0,0,0,0,0,0,100,
0,0,0,0,0,0,84,85,86,87,0,0,0,0,0,0,0,0,0,0,0,0,0,68,69,70,71,0,0,0,0,0,0,0,0,0,0,0,0,0,68,69,70,71,0,0,0,0,0,0,0,0,0,0,0,0,0,0,0,0,0,0,0,0,0,0,0,0,0,0,0,0,0,0,0,0,0,0,0,68,69,70,71,68,69,70,71,68,69,68,69,70,84,85,86,87,84,85,86,87,0,0,0,0,0,0,0,0,0,0,0,0,0,0,0,0,0,0,0,116,
69,70,71,68,69,70,100,101,102,103,0,0,0,0,0,0,0,68,69,70,68,69,70,84,85,86,87,0,0,0,0,0,0,0,0,0,0,0,0,0,84,85,86,87,0,0,0,0,0,0,0,0,0,0,0,0,0,0,0,0,0,0,0,0,0,0,68,69,70,71,0,0,0,0,0,0,0,0,0,84,85,86,87,84,85,86,87,84,85,84,85,86,100,101,102,103,100,101,102,103,0,0,0,0,0,0,0,0,0,0,0,0,0,0,0,0,0,0,0,132,
85,86,87,84,85,86,116,117,118,119,0,0,0,68,69,70,71,84,85,86,84,85,86,100,101,102,103,68,69,70,71,0,0,0,0,0,0,0,0,0,100,101,102,103,0,0,0,0,0,0,0,0,0,0,0,0,0,0,0,0,0,0,0,0,0,0,84,85,86,87,0,0,0,0,0,0,0,0,0,100,101,102,103,100,101,102,103,100,101,100,101,102,116,117,118,119,116,117,118,119,0,0,0,0,0,0,0,0,0,0,0,0,0,0,0,0,0,68,69,70,
101,102,103,100,101,102,132,133,134,135,0,0,0,84,85,86,87,100,101,102,100,101,102,116,117,118,119,84,85,86,87,0,0,0,0,0,0,0,0,0,116,117,118,119,0,68,69,70,71,0,0,0,0,0,0,0,0,0,0,0,0,0,0,0,0,0,100,101,102,103,0,0,0,0,0,0,0,0,0,116,117,118,119,116,117,118,119,116,117,116,117,118,132,68,69,70,71,68,69,70,71,0,0,0,0,0,0,0,0,0,0,0,0,0,0,0,0,84,85,86,
117,118,119,116,117,118,119,0,68,69,70,71,0,100,101,102,103,116,117,118,116,117,118,132,133,134,135,100,101,102,103,0,0,0,0,0,0,0,0,0,132,133,134,135,0,84,85,86,87,0,0,0,0,0,0,0,0,0,0,0,0,0,68,69,70,71,116,117,118,119,0,0,0,0,0,0,68,69,70,71,133,68,69,70,71,134,135,132,68,69,70,71,135,84,85,86,87,84,85,86,87,0,0,0,0,0,0,0,0,0,0,68,69,70,71,0,0,100,101,102,
133,134,135,132,133,134,135,0,84,85,86,87,0,116,117,118,119,132,133,134,68,69,70,71,68,69,70,71,117,118,119,0,0,0,0,0,0,0,0,0,0,0,0,0,0,100,101,102,103,0,0,0,0,0,0,0,0,0,0,0,0,0,84,85,86,87,132,133,134,135,0,0,0,0,0,0,84,85,86,87,0,84,85,86,87,68,69,70,71,85,86,87,0,100,101,102,103,100,101,102,103,0,0,0,0,0,0,0,0,0,0,84,85,86,87,0,0,116,117,118,
84,85,86,87,68,69,70,71,100,101,102,103,0,132,133,134,135,70,71,0,84,85,86,87,84,85,86,87,133,134,135,0,0,0,0,0,0,0,0,0,0,0,0,0,0,116,117,118,119,0,0,0,0,0,0,0,0,0,0,0,0,0,100,101,102,103,0,0,0,0,0,0,0,0,0,0,100,101,102,103,0,100,101,102,103,84,85,86,87,101,102,103,0,116,117,118,119,116,117,118,119,0,0,0,0,0,0,0,0,0,0,100,101,102,103,68,69,70,71,134,
100,101,102,103,84,85,86,87,116,117,118,119,0,0,0,84,85,86,87,0,100,101,102,103,100,101,102,103,0,0,0,0,0,0,0,0,0,0,0,0,0,0,0,0,0,132,133,134,135,0,0,0,0,0,0,0,0,0,0,0,0,0,116,117,118,119,0,0,0,0,0,0,0,0,0,0,116,117,118,119,0,116,117,118,119,100,101,102,103,117,118,68,69,70,71,134,135,132,133,134,135,0,0,0,0,0,0,0,0,0,0,116,117,118,119,84,85,86,87,0,
116,117,118,119,100,101,102,103,132,133,134,135,0,0,0,100,101,102,103,0,116,117,118,119,116,117,118,119,69,70,71,0,0,0,0,0,0,0,0,0,0,0,0,0,0,0,0,0,0,0,0,0,0,0,0,0,0,0,0,0,0,0,132,133,134,135,0,0,0,0,0,0,0,0,0,0,132,133,134,135,0,132,133,134,135,116,117,118,119,133,134,84,85,86,87,0,0,0,0,0,0,0,0,0,0,0,0,0,0,68,69,70,71,134,135,100,101,102,103,0,
132,133,134,135,116,117,118,119,68,69,70,71,0,0,0,116,117,118,119,0,132,68,69,70,71,133,134,135,85,86,87,0,0,0,0,0,0,0,0,0,0,0,0,0,0,0,0,0,0,0,0,0,0,0,0,0,0,0,0,0,0,0,0,0,0,0,0,0,0,0,0,0,0,0,0,0,0,68,69,70,71,68,69,70,71,132,68,69,70,71,0,100,101,102,103,0,0,0,0,0,0,0,0,0,0,0,0,0,0,84,85,86,87,68,69,70,71,118,119,0,
0,84,85,86,132,133,134,135,84,85,86,87,0,0,0,132,133,68,69,70,71,84,85,86,87,0,0,100,101,102,103,0,0,0,0,0,0,0,0,0,0,0,0,0,0,0,0,0,0,0,0,0,0,0,0,0,0,0,0,0,0,0,0,0,0,0,0,0,0,0,0,0,0,0,0,0,0,84,85,86,87,84,85,86,87,0,84,85,86,87,0,116,117,118,119,0,0,0,0,0,0,0,0,0,0,0,0,0,0,100,101,102,103,84,85,86,87,68,69,70,
0,100,101,102,103,84,85,86,100,101,102,103,0,0,0,0,0,84,85,86,87,100,101,102,68,69,70,71,117,118,119,0,0,0,0,0,0,0,0,0,0,0,0,0,0,0,0,0,0,0,0,0,0,0,0,0,0,0,0,0,0,0,0,0,0,0,0,0,0,0,0,0,0,0,0,0,0,100,101,102,103,100,101,102,103,0,100,101,102,103,0,132,133,134,135,0,0,0,0,0,0,0,0,0,0,0,0,0,0,116,117,118,119,100,101,102,103,84,85,86,
0,116,117,118,119,100,101,102,116,117,118,119,0,0,0,0,0,100,101,102,103,116,117,118,68,69,70,71,133,134,135,0,0,0,0,0,0,0,0,0,0,0,0,0,0,0,0,0,0,0,0,0,0,0,0,0,0,0,0,0,0,0,0,0,0,0,0,0,0,0,0,0,0,0,0,0,0,116,117,118,119,68,69,70,71,0,116,117,118,119,0,0,0,0,0,0,0,0,0,0,0,0,0,0,0,0,0,0,0,132,133,134,135,116,117,118,119,100,101,102,
70,132,133,134,135,116,117,118,132,133,134,135,0,0,0,0,0,116,117,118,68,69,70,71,84,85,86,87,0,0,0,0,0,0,0,0,0,0,0,0,0,0,0,0,0,0,0,0,0,0,0,0,0,0,0,0,0,0,0,0,0,0,0,0,0,0,0,0,0,0,0,0,0,0,0,0,0,132,133,134,135,84,85,86,87,68,69,70,71,135,0,0,0,0,0,0,0,0,0,0,0,0,0,0,0,0,0,0,68,69,70,71,0,132,133,134,135,116,117,118,
86,87,68,69,70,132,133,134,135,0,0,0,0,0,0,0,0,132,133,134,84,85,86,87,100,101,102,103,0,0,0,0,0,0,0,0,0,0,0,0,0,0,68,69,70,71,68,69,70,71,0,0,0,0,0,0,0,0,0,68,69,70,71,68,69,70,71,0,0,0,0,0,0,0,0,0,0,0,0,0,0,100,101,102,103,84,85,86,87,0,0,0,0,0,0,0,0,0,0,0,0,0,0,0,0,0,0,0,84,85,86,87,68,69,70,71,0,132,133,134,
102,103,84,85,86,87,85,86,87,0,0,0,0,0,0,0,0,0,0,0,100,101,102,103,116,117,118,119,0,0,0,0,0,0,0,0,0,0,68,69,70,71,84,85,86,87,84,85,86,87,0,0,0,0,0,0,0,0,0,84,85,86,87,84,85,86,87,0,0,68,69,70,71,0,0,0,0,0,0,0,0,116,117,118,119,100,101,102,103,0,0,0,0,0,0,0,0,0,0,0,0,0,0,0,0,0,0,0,100,101,102,103,84,85,86,68,69,70,71,0,
118,119,100,101,102,103,101,102,103,0,0,0,0,0,0,0,0,0,0,0,116,117,118,119,132,133,134,135,0,0,0,0,0,0,0,0,0,0,84,85,86,87,100,101,102,103,100,101,102,103,0,0,0,0,0,0,0,0,0,100,101,102,103,100,101,102,103,0,0,84,85,86,87,68,69,70,71,0,0,0,0,132,133,134,135,116,117,118,119,0,0,0,0,0,0,0,0,0,0,0,0,0,0,0,68,69,70,71,116,117,118,119,100,101,102,84,85,86,87,0,
134,135,116,117,118,119,117,118,119,69,70,71,0,0,0,0,0,0,0,0,132,133,134,135,0,0,0,0,0,0,0,0,0,0,0,0,0,0,100,101,102,103,116,117,118,119,116,117,118,119,0,0,0,0,0,0,68,69,70,116,117,118,119,116,117,118,119,0,0,100,101,102,103,84,85,86,87,0,0,0,0,0,0,0,0,132,133,134,135,0,0,0,0,0,0,0,0,0,0,0,0,0,0,0,84,85,86,87,68,69,70,71,68,69,70,71,101,68,69,70,
0,0,132,133,134,135,133,134,135,85,86,87,0,0,0,0,0,0,0,0,0,0,0,0,0,0,0,0,0,0,0,0,0,0,0,0,0,0,116,117,68,69,70,71,134,68,69,70,71,135,0,0,0,0,0,0,84,85,86,132,68,69,70,71,68,69,70,71,0,116,117,118,119,100,101,102,103,0,0,0,0,0,0,0,0,0,0,0,0,0,0,0,0,0,0,0,0,0,0,0,0,68,69,70,71,101,102,103,84,85,86,87,84,85,86,87,117,84,85,86,
0,68,69,70,84,85,86,87,100,101,102,103,0,0,0,0,0,0,0,0,0,0,0,0,0,0,0,0,0,0,0,0,0,68,69,70,71,68,69,70,84,85,86,87,0,84,85,86,87,68,69,70,71,0,0,0,100,101,102,103,84,85,86,87,84,85,86,68,69,70,71,134,68,69,70,71,119,0,0,0,0,0,0,0,0,0,0,0,0,0,0,0,0,0,0,0,0,0,0,0,0,84,85,86,87,117,118,119,100,101,102,103,100,101,102,103,70,71,101,102,
0,84,85,86,100,101,102,103,116,117,118,119,0,0,0,0,0,0,0,0,0,0,0,0,0,0,0,0,0,0,0,0,0,84,85,86,87,84,85,86,100,101,102,103,0,100,101,102,103,84,85,86,87,0,0,0,116,117,118,119,100,101,102,103,100,101,102,84,85,86,87,0,84,85,86,87,135,68,69,70,71,0,0,0,0,0,0,0,0,0,0,0,0,0,0,0,0,0,0,0,0,100,101,102,103,133,134,135,116,117,118,119,116,117,118,119,86,87,117,118,
70,100,101,102,116,117,118,119,132,133,134,135,70,71,0,0,0,0,0,0,0,0,0,0,0,0,0,0,0,0,0,0,0,100,101,102,103,100,101,102,116,117,118,119,0,116,117,118,119,100,101,102,103,0,0,0,132,133,134,135,116,117,118,119,116,117,118,100,101,102,103,0,100,101,102,103,0,84,85,86,87,0,0,0,0,0,0,0,0,0,0,0,0,0,0,0,0,0,0,0,0,116,117,68,69,70,71,68,69,70,71,135,132,133,134,135,102,103,133,68,
86,116,117,118,132,133,134,135,70,71,84,85,86,87,0,0,0,0,0,0,0,0,0,0,0,0,0,0,0,0,0,68,69,70,71,118,119,116,117,68,69,70,71,68,69,70,71,69,70,71,117,118,119,0,0,0,68,69,70,71,132,133,134,135,132,68,69,70,71,118,119,0,116,117,118,119,0,100,101,102,103,0,0,0,0,0,0,0,0,0,0,0,0,0,0,0,0,0,0,68,69,70,71,84,85,86,87,84,85,86,87,68,69,70,116,117,118,119,0,84,
102,132,133,134,135,0,84,85,86,87,100,101,102,103,0,0,0,0,0,0,0,0,0,0,0,0,0,0,0,0,0,84,85,86,87,134,135,132,133,84,85,86,87,84,85,86,87,85,86,87,133,134,135,0,0,0,84,85,86,87,0,0,0,0,0,84,85,86,87,134,135,0,132,133,134,135,0,116,117,118,119,0,0,0,0,0,0,0,0,0,0,0,0,0,0,0,0,0,0,84,85,86,87,100,101,102,103,100,101,102,103,84,85,86,132,133,134,135,0,100,
118,119,68,69,70,71,100,101,102,103,116,117,118,119,0,0,0,0,0,0,0,0,0,0,0,0,0,0,0,0,0,100,101,102,103,69,70,71,0,100,101,102,103,100,101,102,103,101,102,103,0,0,0,0,0,0,100,101,102,103,0,68,69,70,71,100,101,102,103,0,0,0,0,68,69,70,71,132,133,134,135,0,0,0,0,0,0,0,0,0,0,0,0,0,0,0,0,0,0,100,101,102,103,116,117,118,119,116,117,118,119,100,101,102,103,0,0,0,0,116,
134,135,84,85,86,87,116,117,118,119,132,133,134,135,0,0,0,0,0,0,0,0,0,0,0,0,0,0,0,0,0,116,117,118,119,85,86,87,0,116,117,118,119,116,117,118,119,117,118,119,70,71,0,0,0,0,116,117,118,119,0,84,85,86,87,116,117,118,119,0,68,69,70,84,85,86,87,0,0,0,0,0,0,0,0,0,0,0,0,0,0,0,0,0,0,0,0,0,0,116,117,118,68,69,70,71,135,132,133,134,68,69,70,71,119,68,69,70,71,132,
71,0,100,101,102,103,132,133,134,135,0,0,0,0,0,0,0,0,0,0,0,0,0,0,0,0,0,0,0,0,0,132,133,134,135,101,102,103,68,132,133,134,68,69,70,71,135,133,134,135,86,87,0,0,0,0,132,133,134,135,0,100,101,102,103,132,133,134,135,71,84,85,86,100,101,102,103,0,0,0,0,0,0,0,0,0,0,68,69,70,71,0,0,0,0,0,0,0,0,132,133,134,84,85,86,87,0,0,0,0,84,85,86,87,135,84,85,86,87,0,
87,0,116,117,118,119,0,0,0,0,0,0,0,0,0,0,0,0,0,0,68,69,70,71,0,0,0,0,0,0,0,0,0,0,116,117,118,119,84,85,86,87,84,85,86,68,69,70,71,101,102,103,0,0,0,0,0,0,68,69,70,116,117,118,119,0,84,85,86,87,100,101,102,116,117,118,119,0,0,0,0,0,0,0,0,0,0,84,85,86,87,68,69,70,71,0,0,0,0,0,0,0,100,101,102,103,0,68,69,70,100,101,102,103,0,100,101,102,103,0,
103,0,132,133,134,135,0,0,0,0,0,0,0,0,0,0,0,0,0,0,84,85,86,87,0,0,0,0,0,0,0,0,0,0,132,133,134,135,100,101,102,103,100,101,102,84,85,86,87,117,118,119,0,0,0,0,0,0,84,85,86,132,133,134,135,70,100,101,102,103,116,117,118,132,133,134,135,0,0,0,0,0,0,68,69,70,71,100,101,102,103,84,85,86,87,0,0,0,0,0,0,0,116,117,118,119,0,84,85,86,116,117,118,119,0,116,117,118,119,0,
119,0,0,0,0,0,0,0,0,0,0,0,0,0,0,0,68,69,70,71,100,101,102,103,68,69,70,71,0,0,0,0,0,0,0,0,0,0,116,117,118,119,116,117,118,100,101,102,103,68,69,70,71,0,0,0,0,0,100,101,102,103,0,84,85,86,116,117,118,119,132,133,134,135,0,0,0,0,0,0,0,0,0,84,85,86,87,116,117,118,119,100,101,102,103,0,0,0,0,0,0,0,132,133,134,135,0,100,101,102,132,133,134,135,68,69,70,71,135,0,
135,0,0,0,0,0,0,0,0,0,0,0,0,0,0,0,84,85,86,87,116,117,118,119,84,85,86,87,0,0,0,0,0,0,0,0,0,0,132,133,134,135,132,133,134,116,117,118,119,84,85,86,87,0,0,0,0,0,116,117,118,119,0,100,101,102,132,133,134,135,0,0,0,0,0,0,0,0,0,0,0,0,0,100,101,102,103,132,133,134,135,116,117,118,119,0,0,0,0,0,0,0,0,0,0,0,0,116,117,118,119,84,85,86,84,85,86,87,0,0,
0,0,0,0,0,0,0,0,0,0,0,0,0,0,0,0,100,101,102,103,132,133,134,135,100,101,102,103,0,68,69,70,71,0,0,0,0,0,0,0,0,84,85,86,87,132,133,134,135,100,101,102,103,0,0,0,0,0,132,133,134,135,0,116,117,118,119,0,0,0,0,0,0,0,0,0,0,0,0,68,69,70,71,116,117,68,69,70,71,68,69,70,71,134,135,0,68,69,70,71,0,0,0,0,0,0,0,132,133,134,135,100,101,102,100,101,102,103,0,0,
0,0,0,0,0,0,0,0,0,0,0,0,0,0,68,69,70,71,118,119,0,68,69,70,71,117,118,119,0,84,85,86,87,0,0,0,0,0,0,0,0,100,101,102,103,84,85,86,87,116,117,118,119,0,0,0,0,0,0,0,0,0,0,132,133,134,135,0,0,0,0,0,0,0,0,0,0,0,0,84,85,86,87,132,133,84,85,86,87,84,85,86,87,0,0,0,84,85,86,87,0,0,0,0,0,0,0,0,0,0,0,116,117,118,116,117,118,119,0,0,
0,0,0,0,0,0,0,0,0,0,0,68,69,70,71,85,86,87,134,135,0,84,85,86,87,133,134,135,0,100,101,102,103,68,69,70,71,0,0,0,0,116,117,118,119,100,101,102,103,132,133,134,135,0,0,0,0,0,0,0,0,0,0,0,0,0,0,0,0,0,0,0,0,0,0,0,0,0,0,100,101,102,103,0,0,100,101,102,103,100,101,102,103,69,70,71,71,101,102,103,0,0,0,0,0,0,0,0,0,0,0,132,133,134,132,133,134,68,69,70,
0,0,0,0,0,0,0,0,0,0,0,84,85,86,87,101,102,103,68,69,70,100,101,102,103,69,70,71,0,116,117,118,119,84,85,86,87,0,0,0,0,132,133,134,135,116,117,118,119,0,0,0,0,0,0,0,0,0,0,0,0,0,0,0,0,0,0,0,0,0,0,0,0,0,0,68,69,70,71,116,117,118,119,0,0,116,117,118,119,116,117,118,119,85,86,87,87,117,118,119,68,69,70,71,68,69,70,71,0,0,0,0,0,0,0,0,0,84,85,86,
0,0,0,0,0,0,0,0,0,0,0,100,101,102,103,117,118,119,84,85,86,116,117,118,119,85,86,87,68,69,70,71,135,100,101,102,103,0,0,0,0,0,0,0,0,132,133,134,135,0,0,0,0,0,0,0,0,0,0,0,0,0,0,0,0,0,0,0,0,0,0,0,0,0,0,84,85,86,87,132,133,134,68,69,70,71,133,68,69,70,71,134,135,101,102,103,103,133,134,135,84,85,86,87,68,69,70,71,0,0,0,0,0,0,0,0,0,100,101,102,
0,0,0,0,0,0,0,0,0,0,0,116,117,118,119,133,134,135,100,101,102,132,133,134,135,101,102,103,84,85,86,87,0,116,117,118,119,0,0,0,0,0,0,0,0,0,0,0,0,0,0,0,0,0,0,0,0,0,0,0,0,0,0,0,0,0,0,0,0,0,0,0,0,0,0,100,101,102,103,68,69,70,71,85,86,87,0,84,85,86,87,0,116,117,118,119,119,0,0,0,100,101,102,103,84,85,86,68,69,70,71,0,0,0,0,0,0,116,117,118,
0,0,0,0,0,0,0,68,69,70,71,68,69,70,71,68,69,70,71,117,118,119,0,0,116,117,118,119,100,101,102,103,68,69,70,71,135,69,70,71,0,0,0,0,0,0,0,0,0,0,0,0,0,0,0,0,0,0,0,0,0,0,0,0,0,0,0,0,0,0,0,68,69,70,71,116,117,118,119,84,85,86,87,101,102,103,0,100,101,102,103,68,69,70,71,135,135,69,70,71,116,117,118,119,100,101,102,84,85,86,87,0,0,0,0,0,0,132,133,134,
0,0,0,0,0,0,0,84,85,86,87,84,85,86,87,84,85,86,87,68,69,70,68,69,70,71,134,135,116,117,118,119,84,85,86,87,84,85,86,87,0,0,0,0,0,0,0,0,0,0,0,0,0,0,0,0,0,0,0,0,0,0,0,0,0,0,0,0,0,0,0,84,85,86,87,132,133,134,135,100,101,102,103,117,118,119,0,116,117,118,119,84,85,86,87,0,84,85,86,87,132,133,134,135,116,117,118,100,101,102,103,0,0,0,0,0,0,0,0,0,
0,0,0,0,0,0,0,100,101,102,103,100,101,102,103,100,101,102,103,84,85,86,84,85,86,87,68,69,70,68,69,70,71,101,102,103,100,101,102,103,68,69,70,71,0,0,0,0,0,0,0,0,0,0,0,0,0,0,0,68,69,70,71,0,0,0,0,0,0,0,0,100,101,102,103,68,69,70,71,116,117,118,119,68,69,70,71,132,68,69,70,71,101,102,103,0,100,101,102,103,68,69,70,71,132,133,134,116,117,118,119,0,0,0,0,0,0,0,0,0,
0,0,68,69,70,71,0,116,117,118,119,116,117,118,119,116,117,118,119,100,101,102,100,101,102,103,84,85,86,84,85,86,87,117,118,119,116,117,118,119,84,85,86,87,0,0,68,69,70,71,0,0,0,68,69,70,71,0,0,84,85,86,87,0,0,68,69,70,71,0,0,116,117,118,119,84,85,86,87,132,133,134,135,84,85,86,87,0,84,85,86,87,117,118,119,0,116,117,118,119,84,85,86,87,68,69,70,71,133,134,135,68,69,70,71,0,0,68,69,70
</data>
 </layer>
 <layer id="7" name="OverPlayer3" width="120" height="80">
  <data encoding="csv">
0,0,0,0,0,0,0,116,117,118,119,0,68,69,70,71,0,0,100,101,102,103,84,85,86,87,84,85,86,87,0,0,0,0,68,69,70,71,0,116,117,118,119,116,117,118,119,0,0,0,0,0,0,0,0,0,0,0,116,117,118,119,0,0,0,0,0,0,0,0,0,0,116,117,118,119,0,0,0,0,0,0,0,0,0,0,0,0,0,0,84,85,86,87,68,69,70,71,84,85,86,87,0,0,0,0,100,101,102,103,0,0,0,0,0,0,0,0,0,0,
0,0,0,0,0,0,0,132,133,134,135,0,84,85,86,87,0,0,116,117,118,119,100,101,102,103,100,101,102,103,0,68,69,70,84,85,86,87,0,132,133,134,135,132,133,134,135,0,0,0,0,0,0,0,0,0,0,0,132,133,134,135,0,0,0,0,0,0,0,0,0,0,132,133,134,135,0,0,0,68,69,70,71,0,0,0,68,69,70,71,100,101,102,103,84,85,86,87,100,101,102,103,0,0,0,0,116,117,118,119,0,0,0,0,0,0,0,0,0,0,
0,0,0,0,0,0,0,0,0,0,0,0,100,101,102,103,0,0,132,133,134,135,116,117,118,119,116,117,118,119,0,84,85,86,100,101,102,103,0,0,0,0,0,0,0,0,0,0,0,0,0,0,0,0,0,0,0,0,0,0,0,0,0,0,0,0,0,0,0,0,0,0,0,0,0,0,0,0,0,84,85,86,87,0,0,0,84,85,86,87,116,117,118,119,100,101,102,103,116,117,118,119,0,0,0,0,132,133,134,135,0,0,0,0,0,0,0,0,0,0,
0,0,0,0,0,0,0,0,0,0,0,0,116,117,118,119,0,0,0,0,0,0,132,133,134,135,132,133,134,135,0,100,101,102,116,117,118,119,0,0,0,0,0,0,0,0,0,0,0,0,0,0,0,0,0,0,0,0,0,0,0,0,0,0,0,0,0,0,0,0,0,0,0,0,0,0,0,0,0,100,101,102,103,0,0,0,100,101,102,103,132,133,134,135,116,117,118,119,132,133,134,135,0,0,0,0,0,0,0,0,0,0,0,0,0,0,0,68,69,70,
0,0,0,0,0,0,0,0,0,0,0,0,132,133,134,135,0,0,0,0,68,69,70,71,0,68,69,70,71,0,0,116,117,118,132,133,134,135,0,0,0,0,0,0,0,0,0,0,0,0,0,0,0,0,0,0,0,0,0,0,0,0,68,69,70,71,0,0,0,0,0,0,0,0,0,0,0,0,0,116,117,118,119,0,0,0,116,117,118,119,0,0,0,0,132,133,134,135,0,0,0,0,0,0,0,0,0,0,0,0,0,0,0,0,0,0,0,84,85,86,
0,68,69,70,71,0,0,0,0,0,0,0,0,0,0,0,0,0,0,0,84,85,86,87,0,84,85,86,87,0,0,132,133,134,135,0,0,0,0,0,0,68,69,70,71,0,0,0,0,0,0,0,0,0,0,0,0,0,0,0,0,0,84,85,86,87,0,0,0,0,0,0,0,0,0,0,0,0,0,132,133,134,135,0,0,0,132,133,134,135,0,0,0,0,0,0,0,0,0,0,0,0,0,0,0,0,0,0,0,0,0,0,0,0,0,0,0,100,101,102,
0,84,85,86,87,0,0,0,0,0,0,0,0,0,0,0,0,0,0,0,100,101,102,103,0,100,101,102,103,0,0,0,0,0,0,0,0,0,0,0,0,84,85,86,87,0,0,0,0,0,0,0,0,0,0,0,0,0,0,0,0,0,100,101,102,103,0,0,0,0,0,0,0,0,0,0,0,0,0,0,0,0,0,0,0,0,68,69,70,71,0,0,0,0,0,0,0,0,0,0,0,0,0,0,0,0,0,0,0,0,0,0,0,0,0,0,0,116,117,118,
0,100,101,102,103,0,0,0,0,0,0,0,0,0,0,0,0,0,0,0,116,117,118,119,0,116,117,118,119,0,0,0,0,0,0,0,0,0,0,0,0,100,101,102,103,0,0,0,0,68,69,70,71,0,0,0,0,0,0,0,0,0,116,117,118,119,0,0,0,0,0,0,0,0,0,0,0,0,0,0,0,0,0,0,0,0,84,85,86,87,0,0,68,69,70,71,0,0,0,0,0,0,0,0,0,0,0,0,0,0,0,0,0,0,0,0,0,132,133,134,
0,116,117,118,119,0,0,68,69,70,71,0,0,0,0,0,0,0,0,0,132,133,134,135,0,132,133,134,135,0,0,0,0,0,0,0,0,0,0,0,0,116,117,118,119,0,0,0,0,84,85,86,87,0,0,0,0,0,0,68,69,70,132,133,134,135,68,69,70,71,0,0,0,0,0,0,0,0,0,0,0,0,0,0,0,0,100,101,102,103,0,0,84,85,86,87,0,0,0,0,0,0,0,0,0,0,0,0,68,69,70,71,0,0,0,0,0,0,0,0,
0,132,133,134,135,0,0,84,85,86,87,0,0,0,0,0,0,0,0,0,0,0,0,0,0,0,0,0,0,0,0,0,0,0,0,0,0,0,68,69,70,71,133,134,135,0,0,0,0,100,101,102,103,0,0,0,0,0,0,84,85,86,87,0,0,0,84,85,86,87,68,69,70,71,0,0,0,0,0,0,0,0,0,0,0,0,116,117,118,119,0,0,100,101,102,103,0,0,0,0,0,0,0,0,0,0,0,0,84,85,86,87,0,0,0,0,0,0,0,0,
0,68,69,70,71,0,0,100,101,102,103,0,0,0,0,0,0,0,0,0,0,0,0,0,0,0,0,0,0,0,0,0,0,0,0,0,0,0,84,85,86,87,0,0,0,0,0,0,0,116,117,118,119,0,0,0,0,0,0,100,101,102,103,0,0,0,100,101,102,103,84,85,86,87,0,0,0,0,0,0,0,0,0,0,0,0,132,133,134,135,0,0,116,117,118,119,0,0,0,0,0,0,0,0,0,68,69,70,100,101,102,103,0,0,0,0,68,69,70,71,
0,84,85,86,87,0,0,116,117,118,119,0,68,69,70,71,0,0,0,0,0,0,0,0,0,0,0,0,0,0,0,0,0,0,0,0,0,0,100,101,102,103,0,0,0,0,0,68,69,132,133,134,135,0,0,0,0,0,0,116,117,118,119,0,0,0,116,117,118,119,100,101,102,103,0,0,0,0,0,0,0,0,0,0,0,0,0,0,0,0,0,0,132,133,134,135,0,0,0,0,0,0,0,0,0,84,85,86,116,117,118,119,0,0,0,0,84,85,86,87,
0,100,101,102,68,69,70,71,133,134,135,0,84,85,86,87,0,0,0,0,0,0,0,0,0,0,0,0,0,68,69,70,71,0,68,69,70,71,116,117,118,119,0,0,0,0,0,84,85,86,87,0,0,0,0,0,0,0,0,132,133,68,69,70,71,0,132,133,134,135,116,117,118,119,0,68,69,70,71,0,0,0,0,0,0,0,0,0,0,0,0,0,0,0,0,0,0,0,0,0,0,0,0,0,0,100,101,102,132,133,134,135,0,0,0,0,100,101,102,103,
0,116,117,118,84,85,86,87,0,0,0,0,100,101,102,103,0,0,0,0,0,0,0,0,0,0,0,0,0,84,85,86,87,0,84,85,86,87,132,133,134,135,68,69,70,71,0,100,101,102,103,0,0,0,0,0,0,0,0,0,0,84,85,86,87,0,0,0,0,0,68,69,70,71,0,84,85,86,87,0,0,0,0,0,0,0,0,0,0,0,0,0,0,0,0,0,0,0,0,0,0,0,0,0,0,116,117,118,119,0,0,0,0,0,0,0,116,117,118,119,
0,68,69,70,71,101,102,103,0,0,0,0,116,117,118,119,0,0,0,0,0,0,0,0,0,0,0,0,0,100,101,102,103,0,100,101,102,103,0,0,0,0,84,85,86,87,0,116,117,118,119,0,0,0,0,0,68,69,70,71,0,100,101,102,103,0,0,0,0,0,84,85,86,87,0,100,101,102,103,0,0,0,0,0,0,0,0,0,0,0,0,0,0,0,0,0,0,0,0,0,0,0,0,0,0,132,133,134,135,0,0,68,69,70,71,0,132,133,134,135,
71,84,85,86,87,117,118,119,68,69,70,71,132,133,134,135,0,0,0,0,0,0,0,0,0,0,0,0,0,116,117,118,119,0,116,117,118,119,68,69,70,71,100,101,102,103,0,132,133,134,135,0,0,0,0,0,84,85,86,87,0,116,117,118,119,0,0,0,0,0,100,101,102,103,0,116,117,118,119,0,0,0,0,0,0,0,0,0,0,0,0,0,0,0,0,0,0,0,0,0,0,0,0,0,0,0,0,0,0,0,0,84,85,86,87,0,0,0,0,0,
87,100,101,102,103,133,134,135,84,85,86,87,0,0,0,0,0,0,0,0,0,0,0,0,0,0,0,0,0,132,133,134,135,0,132,133,134,135,84,85,86,87,116,117,118,119,0,0,0,0,0,0,0,0,0,0,100,101,102,68,69,132,133,134,135,0,68,69,70,71,116,117,118,119,0,132,133,134,135,0,0,0,0,0,0,0,0,0,0,0,0,0,0,0,68,69,70,71,0,0,0,0,0,0,0,0,0,0,0,0,0,100,101,102,103,0,0,0,0,0,
103,116,117,118,119,85,86,87,100,101,102,103,68,69,70,71,0,0,0,0,0,0,0,0,0,0,0,0,0,0,0,0,0,0,0,0,0,0,100,101,102,103,132,133,134,135,0,0,0,0,0,0,0,0,0,0,116,117,118,84,85,86,87,0,0,0,84,85,86,87,132,133,134,135,0,0,0,0,0,0,0,0,0,0,0,0,0,0,0,0,0,0,0,0,84,85,86,87,0,0,0,0,0,0,68,69,70,71,0,0,0,116,117,118,119,68,69,70,71,0,
119,132,133,134,135,101,102,103,116,117,118,119,84,85,86,87,0,0,0,0,0,0,0,0,0,0,0,0,0,0,0,0,0,0,0,0,0,0,116,117,118,119,0,0,0,0,0,0,0,0,0,0,0,0,0,0,132,133,134,100,101,102,103,0,0,0,100,101,102,103,0,0,0,0,0,0,0,0,0,0,0,0,0,0,0,0,0,0,0,0,0,0,0,0,100,101,102,103,0,0,0,0,0,0,84,85,86,87,0,0,0,132,133,134,135,84,85,86,87,0,
135,68,69,70,116,117,118,119,132,133,134,135,100,101,102,103,0,0,0,0,0,0,0,0,0,0,0,0,0,0,0,0,0,0,0,0,0,0,132,133,134,135,0,0,0,0,0,0,0,0,0,0,0,0,0,0,0,0,0,116,117,118,119,0,0,0,116,117,118,119,0,0,0,0,0,0,0,0,0,0,0,0,0,0,0,0,0,0,0,0,0,0,0,0,116,117,118,119,0,0,0,0,0,0,100,101,102,103,0,0,68,69,70,71,0,100,101,102,103,0,
0,84,85,86,132,133,134,135,71,0,0,0,116,117,118,119,0,0,0,68,69,70,71,0,0,0,0,0,0,0,0,0,0,0,0,0,0,0,0,0,0,0,0,0,0,0,0,0,0,0,0,0,0,0,0,0,0,0,0,132,133,134,135,0,0,0,132,133,134,135,0,0,0,0,0,0,0,0,0,0,0,0,0,0,0,0,0,0,0,0,0,0,0,0,132,133,134,135,0,0,0,0,0,0,116,117,118,119,0,0,84,85,86,87,0,116,117,118,119,0,
0,100,101,102,103,84,85,86,87,0,0,0,132,133,134,135,0,0,0,84,85,86,87,0,0,0,0,0,0,0,0,0,0,0,0,0,0,0,0,0,0,0,0,0,0,0,0,0,0,0,0,0,0,0,0,0,0,0,0,0,0,0,0,0,0,0,0,0,0,0,0,0,0,0,0,0,0,0,0,0,0,0,0,0,0,0,0,0,0,0,0,0,0,0,0,0,0,0,0,0,0,0,0,0,132,133,134,135,0,0,100,101,102,103,0,132,133,134,135,70,
0,116,117,118,119,100,101,102,103,68,69,70,71,0,0,0,0,0,0,100,101,102,103,69,70,71,0,0,0,0,0,0,0,0,0,0,0,0,0,0,0,0,0,0,0,0,0,0,0,0,0,0,0,0,0,0,0,0,0,0,0,0,0,0,0,0,0,0,0,0,0,0,0,0,0,0,0,0,0,0,0,0,0,0,0,0,0,0,0,0,0,0,0,0,0,0,0,0,0,0,0,0,0,0,0,0,68,69,70,71,116,117,118,119,0,0,0,84,85,86,
0,132,133,134,135,116,117,118,119,84,85,86,87,0,0,0,0,0,0,116,117,118,119,85,86,87,0,68,69,70,71,0,0,0,0,0,0,0,0,0,0,0,0,0,0,0,0,0,0,0,0,0,0,0,0,0,0,0,0,0,0,0,0,0,0,0,0,0,0,0,0,0,0,0,0,0,0,0,0,0,0,0,0,0,0,0,0,0,0,0,0,0,0,0,0,0,0,0,0,0,0,0,0,0,0,0,84,85,86,87,132,133,134,135,0,0,0,100,101,102,
0,84,85,86,87,132,133,134,135,100,101,102,103,0,0,0,68,69,70,71,68,69,70,71,102,103,0,84,85,86,87,0,0,0,0,0,0,0,0,0,0,0,0,0,0,0,0,0,0,0,0,0,0,0,0,0,0,0,0,0,0,0,0,0,0,0,0,0,0,0,0,0,0,0,0,0,0,0,0,0,0,0,0,0,0,0,0,0,0,0,0,0,0,0,0,0,0,0,0,0,0,0,0,0,0,0,100,101,102,103,0,0,68,69,70,71,0,116,117,118,
0,100,101,102,103,68,69,70,71,116,117,118,119,0,0,0,84,85,86,87,84,85,86,87,118,119,0,100,101,102,103,0,0,0,0,0,0,0,0,0,0,0,0,0,0,0,0,0,0,0,0,0,0,0,0,0,0,0,68,69,70,71,0,0,0,0,0,0,0,0,0,0,0,0,0,0,0,0,0,0,0,0,0,0,0,0,0,0,0,0,0,0,0,0,0,0,0,0,0,0,0,0,0,0,0,0,116,117,118,119,0,0,84,85,86,87,0,132,133,134,
71,116,117,118,119,84,85,86,87,132,133,134,135,0,0,0,100,101,102,103,100,101,102,103,134,135,0,116,117,118,119,0,0,0,0,0,0,0,0,0,0,0,0,0,68,69,70,71,0,0,0,0,0,0,0,0,0,0,84,85,86,87,0,0,0,0,0,0,0,0,0,0,0,0,0,0,0,0,0,0,0,0,0,0,0,0,0,0,0,0,0,0,0,0,0,0,0,0,0,0,0,0,0,0,0,0,132,133,134,135,0,0,100,101,102,103,0,0,0,0,
87,132,133,134,135,100,101,102,103,0,0,0,0,0,0,0,116,117,118,119,116,117,118,119,0,0,0,132,133,134,135,0,0,0,0,0,0,0,0,0,0,0,0,0,84,85,86,87,0,0,0,0,0,0,0,0,0,0,100,101,102,103,0,0,68,69,70,71,0,0,0,0,0,0,0,0,0,0,0,0,0,0,0,0,0,0,0,0,0,0,0,0,0,0,0,0,0,0,0,0,0,0,0,0,0,0,0,0,0,0,0,0,116,117,118,119,0,0,0,0,
103,0,0,0,0,116,117,118,119,0,0,0,0,0,0,68,132,133,134,135,132,133,134,135,0,0,0,0,0,0,0,0,0,0,0,0,0,0,0,0,0,0,0,0,100,101,102,103,0,0,0,0,0,0,0,0,0,0,116,117,118,119,0,0,84,85,86,87,0,0,0,0,0,0,0,0,0,0,0,0,0,0,0,0,0,0,0,0,0,0,0,0,0,0,0,0,0,0,0,0,0,0,0,0,0,0,0,0,0,0,0,0,132,133,134,135,0,0,0,0,
119,0,0,0,0,132,133,134,135,0,0,0,0,0,0,84,85,86,87,0,68,69,70,71,0,68,69,70,71,0,0,0,0,0,0,0,0,0,0,0,0,0,0,0,116,117,118,119,0,0,0,0,0,0,0,0,0,0,132,133,134,135,0,0,100,101,102,103,0,0,0,0,0,0,0,0,0,0,0,0,0,0,0,0,0,0,0,0,0,0,0,0,0,0,0,0,0,0,0,0,0,0,0,0,0,0,0,0,0,0,0,0,0,0,0,0,0,0,0,0,
135,0,0,0,0,0,0,0,0,0,0,0,0,0,0,100,101,102,103,0,84,85,86,87,0,84,85,86,87,0,0,0,0,0,0,0,0,0,0,0,0,0,0,0,132,133,134,135,0,0,0,0,0,0,0,0,0,0,0,0,0,0,0,0,116,117,118,119,0,0,0,0,0,0,0,0,0,0,0,0,0,0,0,0,0,0,0,0,0,0,0,0,0,0,0,0,0,0,0,0,0,0,0,0,0,0,0,0,0,0,0,0,0,0,0,0,0,0,0,0,
0,0,0,0,0,0,0,0,0,0,0,0,0,0,0,116,117,118,119,0,100,101,102,103,0,100,101,102,103,0,0,0,0,0,0,0,0,0,0,0,0,0,0,0,0,0,0,0,0,0,0,0,0,0,0,0,0,0,0,0,0,0,0,0,132,133,134,135,0,0,0,0,0,0,0,0,0,0,0,0,0,0,0,0,0,0,0,0,0,0,0,0,0,0,0,68,69,70,71,0,0,0,0,0,0,0,0,0,0,0,0,0,0,0,0,0,0,0,0,0,
0,0,0,0,0,0,0,0,0,0,0,0,0,0,0,132,133,134,135,0,116,117,118,119,0,116,117,118,119,0,0,0,0,0,0,0,0,0,0,0,0,0,0,0,0,0,0,0,0,0,0,0,0,0,0,0,0,0,0,0,0,0,0,0,0,0,0,0,0,0,0,0,0,0,0,0,0,0,0,0,0,0,0,0,0,0,0,0,0,0,0,0,0,0,0,84,85,86,87,0,0,0,0,0,0,0,0,0,0,0,0,0,0,0,0,0,0,0,0,0,
0,0,0,0,0,0,0,0,0,0,0,0,0,0,0,0,0,0,0,0,132,133,134,135,0,132,133,134,135,0,0,0,0,0,0,0,0,0,0,0,0,0,0,0,0,0,0,0,0,0,0,0,0,0,0,0,0,0,0,0,0,0,0,0,0,0,0,0,0,0,0,0,0,0,0,0,0,0,0,0,0,0,0,0,0,0,0,0,0,0,0,0,0,0,0,100,101,102,103,0,0,0,0,0,0,0,0,0,0,0,0,0,0,0,0,0,0,0,0,0,
0,0,0,0,0,0,0,0,0,0,0,0,0,0,0,0,0,0,0,0,0,0,0,0,0,0,0,0,0,0,0,0,0,0,0,0,0,0,0,0,0,0,0,0,0,0,0,0,0,0,0,0,0,0,0,0,0,0,0,0,0,0,0,0,0,0,0,0,0,0,0,0,0,0,0,0,0,0,0,0,0,0,0,0,0,0,0,0,0,0,0,0,0,0,0,116,117,118,119,0,0,0,0,0,0,0,0,0,0,0,0,0,0,0,0,0,0,0,0,0,
0,0,0,0,0,0,0,0,0,0,0,0,0,0,0,0,0,0,0,0,0,0,0,0,0,0,0,0,0,0,0,0,0,0,0,0,0,0,0,0,0,0,0,0,0,0,0,0,0,0,0,0,0,0,0,0,0,0,0,0,0,0,0,0,0,0,0,0,0,0,0,0,0,0,0,0,0,0,0,0,0,0,0,0,0,0,0,0,0,0,0,0,0,0,0,132,133,134,135,0,0,0,0,0,0,0,0,0,0,0,0,0,0,0,0,0,0,0,0,0,
0,0,0,0,0,0,0,0,0,0,0,0,0,0,0,0,0,0,0,0,0,0,0,0,0,0,0,0,0,0,0,0,0,0,0,0,0,0,0,0,0,0,0,0,0,0,0,0,0,0,0,0,0,0,0,0,0,0,0,0,0,0,0,0,0,0,0,0,0,0,0,0,0,0,0,0,0,0,0,0,0,0,0,0,0,0,0,0,0,0,0,0,0,0,0,0,0,0,0,0,0,0,0,0,0,0,0,0,0,0,0,0,0,0,0,0,0,0,0,0,
0,0,0,0,0,0,0,0,0,0,0,0,0,0,0,0,0,0,0,0,0,0,0,0,0,0,0,0,0,0,0,0,0,0,0,0,0,0,0,0,0,0,0,0,0,0,0,0,0,0,0,0,0,0,0,0,0,0,0,0,0,0,0,0,0,0,0,0,0,0,0,0,0,0,0,0,0,0,0,0,0,0,0,0,0,0,0,0,0,0,0,0,0,0,0,0,0,0,0,0,0,0,0,0,0,0,0,0,0,0,0,0,0,0,0,0,0,0,0,0,
0,0,0,0,0,0,0,0,0,0,0,0,0,0,0,0,0,0,0,0,0,0,0,0,0,0,0,0,0,0,0,0,0,0,0,0,0,0,0,0,0,0,0,0,0,0,0,0,0,0,0,0,0,0,0,0,0,0,0,0,0,0,0,0,0,0,0,0,0,0,0,0,0,0,0,0,0,0,0,0,0,0,0,0,0,0,0,0,0,0,0,0,0,0,0,0,0,0,0,0,0,0,0,0,0,0,0,0,0,0,0,0,0,0,0,0,0,0,0,0,
0,0,0,0,0,0,0,0,0,0,0,0,0,0,0,0,0,0,0,0,0,0,0,0,0,0,68,69,70,71,0,0,0,0,0,0,0,68,69,70,71,0,0,0,0,0,0,0,0,0,0,0,0,0,0,0,0,0,0,0,0,0,0,0,68,69,70,71,0,68,69,70,71,0,0,0,0,0,0,0,0,0,0,0,0,0,0,0,0,0,0,0,0,0,0,0,0,0,0,68,69,70,71,0,0,0,0,0,0,0,0,0,0,0,0,0,0,0,0,0,
0,0,0,0,0,0,0,0,0,0,0,0,0,0,0,0,0,0,0,0,0,0,0,0,0,0,84,85,86,87,0,0,0,0,0,0,0,84,85,86,87,0,68,69,70,71,0,0,0,0,0,0,0,0,0,0,0,0,0,0,0,0,0,0,84,85,86,87,0,84,85,86,87,0,0,0,0,0,0,0,0,0,0,0,0,0,0,0,0,0,0,0,0,0,0,68,69,70,71,84,85,86,87,0,0,0,0,0,0,0,0,0,0,0,0,0,0,0,0,0,
0,68,69,70,71,68,69,70,71,0,0,0,0,0,0,0,0,0,0,0,0,0,0,0,0,0,100,101,102,103,0,0,0,0,0,0,0,100,101,102,103,0,84,85,86,87,0,0,0,0,0,0,0,0,0,0,0,0,0,0,0,0,0,0,100,101,102,103,0,100,101,102,103,0,0,0,0,0,0,0,0,0,0,0,0,0,0,0,0,0,0,0,0,0,0,84,85,86,87,100,101,102,103,0,0,0,0,0,0,0,0,0,0,0,0,0,0,0,0,0,
0,84,85,86,87,84,85,86,87,0,0,0,0,0,0,0,0,0,68,69,70,71,68,69,70,71,116,117,118,119,0,0,0,0,0,0,0,116,117,118,119,0,100,101,102,103,0,0,0,0,0,0,0,0,0,0,0,0,0,0,0,0,0,0,116,117,118,119,0,116,117,118,119,0,0,0,0,0,0,0,0,0,0,0,0,0,0,0,0,0,0,0,0,0,0,100,101,102,103,116,117,118,119,0,0,0,0,0,0,0,0,0,0,0,0,0,0,0,0,0,
0,100,101,102,103,100,101,102,103,0,0,0,0,0,0,0,0,0,84,85,86,87,84,85,86,87,132,133,134,135,0,0,0,0,0,0,0,132,133,134,135,0,116,117,118,119,0,0,0,0,0,0,0,0,0,0,0,0,0,68,69,70,71,0,132,133,134,135,0,132,133,134,135,0,0,0,0,0,0,0,0,0,0,0,0,0,0,0,0,0,0,0,0,0,0,116,117,118,119,132,133,134,135,0,0,0,0,0,0,0,0,0,0,68,69,70,71,68,69,70,
0,116,117,118,119,116,117,118,119,0,0,0,0,0,68,69,70,71,100,101,102,103,100,101,102,103,0,0,68,69,70,71,0,0,0,0,0,0,0,0,0,0,132,133,134,135,69,70,71,0,0,0,0,0,0,0,0,0,0,84,85,86,87,0,0,0,0,0,0,0,0,0,0,0,0,0,0,0,0,0,0,0,0,0,0,0,0,0,0,0,0,0,0,0,0,132,133,134,135,0,0,0,0,0,0,0,0,0,0,0,0,0,0,84,85,86,87,84,85,86,
0,132,133,134,135,132,133,134,135,68,69,70,71,0,84,85,86,87,116,117,118,119,116,117,118,119,0,0,84,85,86,87,0,0,0,0,0,0,0,0,0,0,0,0,0,84,85,86,87,0,0,0,0,0,0,0,0,0,0,100,101,102,103,0,0,0,0,0,0,0,0,0,0,0,0,0,0,0,0,0,0,0,0,0,0,0,0,0,0,0,0,0,0,0,0,0,0,0,0,0,0,0,0,0,0,0,0,0,0,0,0,0,0,100,101,102,103,100,101,102,
0,0,68,69,70,71,0,0,0,84,85,86,87,0,100,101,102,103,132,133,134,135,132,133,134,135,0,0,100,101,102,103,0,0,0,0,0,0,0,0,0,0,0,0,0,100,101,102,103,0,0,0,0,0,0,0,0,0,0,116,117,118,119,0,0,0,0,0,0,0,0,0,0,0,0,0,0,0,0,0,0,0,0,0,0,0,0,0,0,0,0,0,0,0,0,0,0,0,0,0,0,0,0,0,0,0,0,0,0,0,0,0,0,116,117,118,119,116,117,118,
0,0,84,85,86,87,0,0,0,100,101,102,103,0,116,117,118,119,0,0,0,0,0,0,0,0,0,0,116,117,118,119,0,0,0,0,0,0,0,0,0,0,0,0,0,116,117,118,119,0,0,0,0,0,0,0,0,0,0,132,133,134,135,0,0,0,0,0,0,0,0,0,0,0,0,0,0,0,0,0,0,0,0,0,0,0,0,0,0,0,0,0,0,0,0,0,0,0,0,0,0,0,0,0,0,0,0,0,0,0,0,68,69,70,71,134,135,132,133,134,
0,0,100,101,102,103,0,0,0,116,117,118,119,0,132,133,134,135,0,0,0,0,0,0,0,0,0,0,132,133,134,135,0,0,0,0,0,0,0,0,0,0,0,0,0,132,133,134,135,0,0,0,0,0,0,0,0,0,0,0,0,0,0,0,0,0,0,0,0,0,0,0,0,0,0,0,0,0,0,0,0,0,0,0,0,0,0,0,0,0,0,0,0,0,0,0,0,0,0,0,0,0,0,0,0,0,68,69,70,71,0,84,85,86,87,0,0,0,0,0,
0,0,116,117,118,119,0,0,0,132,133,134,135,0,0,0,0,68,69,70,71,0,0,0,0,0,0,0,0,0,0,0,0,0,0,0,0,0,0,0,0,0,0,0,0,0,0,0,0,0,0,0,0,0,0,0,0,0,0,0,0,0,0,0,0,0,0,0,0,0,0,0,0,0,0,0,0,0,0,0,0,0,0,0,0,0,0,0,0,0,0,0,0,0,0,0,0,0,0,0,0,0,0,0,0,0,84,85,86,87,0,100,101,102,103,0,0,0,0,0,
69,70,132,133,134,135,0,0,0,0,0,0,0,0,0,0,0,84,85,86,87,0,0,0,0,0,0,0,0,0,0,0,0,0,0,0,0,0,0,0,0,0,0,0,0,0,0,0,0,0,0,0,0,0,0,0,0,0,0,0,0,0,0,0,0,0,0,0,0,0,0,0,0,0,0,0,0,0,0,0,0,0,0,0,0,0,0,0,0,0,0,0,0,0,0,0,0,0,0,0,0,0,0,0,0,0,100,101,102,103,0,116,117,118,119,0,68,69,70,71,
85,86,87,0,0,0,0,0,0,0,0,0,0,0,0,0,0,100,101,102,103,0,0,0,0,0,0,0,0,0,0,0,0,0,0,0,0,0,0,0,0,0,0,0,0,0,0,0,0,0,0,0,0,0,0,0,0,0,0,0,0,0,0,0,0,0,0,0,0,0,0,0,0,0,0,0,0,0,0,0,0,0,0,0,0,0,0,0,0,0,0,0,0,0,0,0,0,0,0,0,0,0,0,0,0,0,116,117,118,119,0,132,133,134,135,0,68,69,70,71,
101,102,103,0,0,68,69,70,71,0,0,0,0,0,0,0,0,116,117,118,119,0,0,0,0,0,0,0,0,0,0,0,0,0,0,0,0,0,0,0,0,0,0,0,0,0,0,0,0,0,0,0,0,0,0,0,0,0,0,0,0,68,69,70,71,0,0,0,0,0,0,0,0,0,0,0,0,0,0,0,0,0,0,0,0,0,0,0,0,0,0,0,0,0,0,0,0,0,0,0,0,0,0,68,69,70,132,133,134,135,0,0,0,0,0,0,84,85,86,87,
117,118,119,0,0,84,85,86,87,68,69,70,71,0,0,0,0,132,133,134,135,0,0,0,0,0,0,0,0,0,0,0,0,0,0,0,0,0,0,0,0,0,0,0,0,0,0,0,0,0,0,0,0,0,0,0,0,0,0,0,0,84,85,86,87,0,0,68,69,70,71,0,0,0,0,0,0,0,0,0,0,0,0,0,0,0,0,0,0,0,0,0,0,0,0,0,0,0,0,0,0,0,0,84,85,86,87,0,0,0,0,68,69,70,71,0,100,101,102,103,
133,134,135,0,0,100,101,102,103,84,85,86,87,0,0,0,0,0,0,0,0,0,0,0,0,0,0,0,0,0,0,0,0,0,0,0,0,0,0,0,68,69,70,71,0,0,0,0,0,0,0,0,0,0,0,0,0,0,0,0,0,100,101,102,103,0,0,84,85,86,87,68,69,70,71,0,0,0,0,0,0,0,0,0,0,0,0,0,0,0,0,0,0,0,0,0,0,0,0,0,0,0,0,100,101,102,103,0,0,0,0,84,85,86,87,0,116,117,118,119,
0,0,0,0,0,116,117,118,119,100,101,102,103,0,0,0,0,0,0,0,0,0,0,0,0,0,0,0,0,0,0,0,0,0,0,0,0,0,0,0,84,85,86,87,0,0,0,0,0,0,0,0,0,0,0,0,0,0,0,0,0,116,117,118,119,0,0,100,101,102,103,84,85,86,87,0,0,0,0,0,0,0,0,0,0,0,0,0,0,0,0,0,0,0,0,0,0,0,0,0,0,0,0,116,117,118,119,0,0,0,0,100,101,102,103,0,132,133,134,135,
0,0,0,0,0,132,133,134,135,116,117,118,119,0,0,0,0,0,0,0,0,0,0,0,0,0,0,0,0,0,0,0,0,0,0,0,0,0,0,0,100,101,102,103,0,0,0,0,0,68,69,70,71,0,0,0,0,0,68,69,70,71,68,69,70,71,0,116,117,118,119,100,101,102,103,70,71,0,0,0,0,0,0,0,0,0,0,0,0,0,0,0,0,0,0,0,0,0,0,0,0,0,0,132,133,134,135,0,0,0,0,116,117,118,119,0,0,0,0,0,
0,0,0,0,0,0,0,0,0,132,133,134,135,0,0,0,0,0,0,0,0,0,0,0,0,0,0,0,0,0,0,0,0,0,0,0,0,0,0,0,116,117,118,119,0,0,0,0,0,84,85,86,87,0,0,0,0,0,84,85,86,87,84,85,86,87,0,132,133,68,69,70,71,118,119,86,87,0,0,0,0,0,0,0,0,0,0,0,0,0,0,0,0,0,0,0,0,0,0,0,0,0,0,0,0,0,0,0,0,0,0,132,133,134,135,0,0,0,0,0,
0,0,0,0,0,0,0,0,0,0,0,0,0,0,0,0,0,0,0,0,0,0,0,0,0,0,0,0,0,0,0,0,0,0,0,0,0,0,0,0,132,133,134,135,0,0,0,0,0,100,101,102,103,0,0,0,0,0,100,101,102,103,100,101,102,103,0,0,0,68,69,70,71,134,135,102,103,0,0,0,0,0,0,0,0,0,0,0,0,0,0,0,0,0,0,0,0,0,0,0,0,0,0,0,0,0,0,0,0,68,69,70,71,0,0,0,0,0,0,0,
68,69,70,71,68,69,70,71,68,69,70,71,0,0,0,0,0,0,0,0,0,0,0,0,0,0,0,0,0,0,0,0,0,0,0,0,0,0,0,0,0,0,0,0,0,0,0,0,0,116,117,118,119,0,0,0,0,0,116,117,118,119,116,117,118,119,0,0,0,84,85,86,87,116,117,118,119,0,0,0,0,0,0,0,0,0,0,0,0,0,0,0,0,0,0,0,0,0,68,69,70,71,0,0,0,0,0,0,0,84,85,86,87,0,0,0,68,69,70,71,
84,85,86,87,84,85,86,87,84,85,86,87,0,0,0,0,0,0,0,0,0,0,0,0,0,0,0,0,0,0,0,0,0,0,0,0,68,69,70,71,0,0,0,0,0,0,0,0,0,132,133,134,135,0,0,0,0,0,132,133,134,135,132,133,134,135,0,0,0,100,101,102,103,132,133,134,135,69,70,71,0,0,0,0,0,0,0,0,0,0,0,0,0,0,0,0,0,0,84,85,86,87,0,0,0,0,0,0,0,100,101,102,103,0,0,0,84,85,86,87,
100,101,102,103,100,101,102,103,100,101,102,103,0,0,0,0,0,0,0,0,0,0,0,0,0,0,0,0,0,0,0,0,0,0,0,0,84,85,86,87,0,0,0,0,0,0,0,0,0,68,69,70,71,0,0,0,0,68,69,70,71,0,68,69,70,71,0,0,0,116,117,118,119,0,0,0,84,85,86,87,0,0,0,0,0,0,0,0,0,0,0,0,0,0,0,0,0,0,100,101,102,103,0,0,0,0,0,0,0,116,117,118,119,0,0,0,100,101,102,103,
116,117,118,119,116,117,118,119,116,117,118,119,0,0,0,0,0,0,0,0,0,0,0,0,0,0,0,0,0,0,0,0,68,69,70,71,100,101,102,103,0,0,0,0,0,0,0,0,0,84,85,86,87,0,0,0,0,84,85,86,87,0,84,85,86,87,0,68,69,70,71,134,135,0,0,0,100,101,102,103,0,0,0,0,0,0,0,0,0,0,0,0,0,0,0,0,0,0,116,117,118,119,0,0,0,0,0,0,0,132,133,134,135,0,0,0,116,117,118,119,
132,133,134,135,132,133,134,135,132,133,134,135,0,0,0,0,0,0,0,0,0,0,0,0,0,0,0,0,0,0,0,0,84,85,86,87,116,117,118,119,0,0,0,0,68,69,70,71,0,100,101,102,103,0,0,0,0,100,101,102,103,0,100,101,102,103,0,84,85,86,87,0,0,0,0,0,116,117,118,119,0,0,0,0,0,0,0,0,0,0,0,0,0,0,0,0,0,0,132,133,134,135,0,0,68,69,70,71,0,0,0,0,0,0,0,0,132,133,134,135,
0,0,0,0,68,69,70,71,0,0,0,0,0,0,0,0,0,0,0,0,0,0,0,0,0,0,0,0,0,0,0,0,100,101,102,103,132,133,134,135,0,0,0,0,84,85,86,87,0,116,117,118,119,0,0,0,0,116,117,118,119,0,116,117,118,119,0,100,101,102,103,68,69,70,71,0,132,133,134,135,0,0,0,0,0,0,0,0,0,0,0,0,0,0,0,0,0,0,0,0,0,0,0,0,84,85,86,87,0,0,0,68,69,70,71,0,0,0,68,69,
0,0,0,0,84,85,86,87,0,0,0,0,0,0,0,0,0,0,0,0,0,0,0,0,0,0,0,0,0,0,0,0,116,117,118,119,0,0,0,0,0,0,0,0,100,101,102,103,0,132,133,134,135,0,0,0,0,132,133,134,135,0,132,68,69,70,71,116,117,118,119,84,85,86,87,0,0,0,0,0,0,0,0,0,0,0,0,0,68,69,70,71,0,0,0,0,0,0,0,0,0,0,0,0,100,101,102,103,0,0,0,84,85,86,87,0,0,0,84,85,
0,0,0,0,100,101,102,103,0,0,0,0,0,0,0,0,0,0,0,0,0,0,0,0,0,0,0,0,0,0,0,0,132,133,134,135,0,0,68,69,70,71,0,0,116,117,118,119,69,70,71,0,0,0,0,0,0,0,0,0,0,0,0,84,85,86,87,132,133,134,135,100,101,102,103,0,0,0,0,0,0,0,68,69,70,71,0,0,84,85,86,87,0,0,0,0,0,0,0,0,0,0,0,0,116,117,118,119,0,0,0,100,101,102,103,0,0,0,100,101,
0,0,0,0,116,117,118,119,0,0,0,0,0,0,0,0,0,0,0,0,0,0,0,68,69,70,71,0,0,0,0,0,0,0,0,0,0,0,84,85,86,87,0,0,132,133,134,135,85,86,87,0,0,0,0,0,0,0,0,0,0,0,0,100,101,102,103,0,0,0,0,116,117,118,119,0,0,0,0,0,0,0,84,85,86,87,0,0,100,101,102,103,0,0,0,0,0,0,0,0,0,0,0,0,132,133,134,135,0,0,0,116,117,118,119,0,0,0,116,117,
0,0,0,0,132,133,134,135,0,0,0,0,0,0,0,0,0,0,0,0,0,0,0,84,85,86,87,0,0,0,0,0,0,0,0,0,0,0,100,101,102,103,0,68,69,70,71,100,101,102,103,0,0,0,0,0,0,0,0,0,0,0,0,116,117,118,119,0,0,0,0,132,133,134,135,0,0,0,0,0,0,0,100,101,102,103,0,0,116,117,118,119,69,70,71,0,0,0,0,0,0,0,0,0,0,0,0,0,0,0,0,132,133,134,135,0,0,0,132,133,
0,0,0,0,0,0,0,0,0,0,0,0,0,68,69,70,71,68,69,70,71,0,0,100,101,102,103,68,69,70,71,0,0,0,0,0,0,0,116,117,118,119,0,84,85,86,87,116,117,118,119,0,0,0,0,0,0,0,0,0,0,0,0,132,133,134,135,0,0,0,0,0,0,0,0,0,0,0,0,0,0,0,116,117,118,119,0,0,132,133,134,135,85,86,87,0,0,0,0,0,0,0,0,0,0,0,0,0,0,0,0,0,0,0,0,0,0,0,0,0,
0,0,0,0,0,0,0,0,0,0,0,0,0,84,85,86,87,84,85,86,87,0,0,116,117,118,119,84,85,86,87,0,0,0,0,0,0,0,132,133,134,135,0,100,101,102,103,132,133,134,135,0,0,0,0,0,0,0,0,0,0,0,0,0,0,0,0,0,0,0,0,0,0,0,0,0,0,0,0,0,0,0,132,133,134,135,68,69,70,71,0,100,101,102,103,0,0,0,0,0,0,0,0,0,0,0,0,0,0,0,0,0,0,0,68,69,70,71,0,0,
0,0,0,0,0,0,0,0,0,0,0,0,0,100,101,102,103,100,101,102,103,0,0,132,133,134,135,100,101,102,103,0,0,0,0,0,0,0,0,0,0,0,0,116,117,118,119,0,0,0,0,0,0,0,0,0,0,0,0,0,0,0,0,0,0,0,0,0,0,0,0,0,0,0,0,0,0,0,0,0,0,0,0,0,0,0,84,85,86,87,0,116,117,118,119,0,0,0,0,0,0,0,0,0,0,0,0,0,0,0,0,0,0,0,84,85,86,87,0,0,
0,0,0,0,0,0,0,0,0,0,0,0,0,116,117,118,119,116,117,118,119,0,0,0,0,0,0,116,117,118,119,0,0,0,0,0,0,0,0,0,0,0,0,132,133,134,135,0,0,0,0,0,0,0,0,0,0,0,0,0,0,0,0,0,0,0,0,0,0,0,0,0,0,0,0,0,0,0,0,0,0,0,0,0,0,0,100,101,102,103,0,132,133,134,135,0,0,0,0,0,0,0,0,0,0,0,0,0,0,0,0,0,0,0,100,101,102,103,0,0,
0,0,0,0,0,0,0,0,0,0,0,0,0,132,133,134,135,132,133,134,135,68,69,70,71,0,0,132,133,134,135,0,0,0,0,0,0,0,0,0,0,0,0,0,0,0,0,0,0,0,0,0,0,0,0,0,0,0,0,0,0,0,0,0,0,0,0,0,0,0,0,0,0,0,0,0,0,0,0,0,0,0,0,0,0,0,116,117,118,119,0,0,0,0,0,0,0,0,0,0,68,69,70,71,0,68,69,70,71,0,0,0,0,0,116,117,118,119,0,0,
0,0,0,0,0,0,0,0,0,0,0,0,0,0,0,0,0,68,69,70,71,84,85,86,87,0,0,0,0,0,68,69,70,71,0,68,69,70,71,0,0,0,0,0,0,0,0,0,0,0,0,0,0,0,0,0,0,0,0,0,0,0,0,0,0,0,0,0,0,0,0,0,68,69,70,71,0,0,0,0,0,0,0,0,0,0,132,133,134,135,0,0,0,0,68,69,70,71,71,0,84,85,86,87,0,84,85,86,87,0,0,0,0,0,132,133,134,135,0,0,
0,0,0,0,0,0,0,0,68,69,70,71,0,68,69,70,71,84,85,86,87,100,101,102,103,0,0,0,0,0,84,85,86,87,0,84,85,86,87,0,0,0,0,0,0,0,0,0,0,0,0,0,0,0,0,0,0,0,0,0,0,0,0,0,0,0,0,0,0,0,0,0,84,85,86,87,0,0,0,0,0,0,0,0,0,0,0,0,0,0,0,0,0,0,84,85,86,87,87,0,100,101,102,103,0,100,101,102,103,0,0,0,0,0,0,0,0,0,0,0,
0,0,0,0,0,0,0,0,84,85,86,87,0,84,85,86,87,100,101,102,103,116,117,118,119,0,0,0,0,0,100,101,102,103,0,100,101,102,103,0,0,0,0,0,0,0,0,0,0,0,0,0,0,0,0,0,0,0,0,0,0,0,0,0,0,0,0,0,0,0,0,0,100,101,102,103,0,0,0,0,0,68,69,70,71,0,0,0,0,0,0,0,0,0,100,101,102,103,103,0,116,117,118,119,0,116,117,118,119,0,68,69,70,71,0,0,0,0,0,0,
0,0,0,0,0,0,0,0,100,101,102,103,0,100,101,102,103,116,117,118,119,132,133,134,135,0,0,0,0,0,116,117,118,119,0,116,117,118,119,0,0,0,0,0,0,0,0,0,0,0,0,0,0,0,0,0,0,0,0,0,0,0,0,0,0,0,0,0,0,0,0,0,116,117,118,119,0,0,0,0,0,84,85,86,87,68,69,70,71,0,0,0,0,0,116,117,118,119,119,0,132,133,134,135,0,132,133,134,135,0,84,85,86,87,0,0,0,0,0,0,
0,0,0,0,0,0,0,0,116,117,118,119,0,116,117,118,119,132,133,134,135,0,0,0,68,69,70,71,0,0,132,133,134,135,0,132,133,134,135,0,0,0,0,0,0,0,0,0,0,0,0,0,0,0,0,0,0,0,0,0,0,0,0,0,0,0,0,0,0,0,0,0,132,133,134,135,0,0,0,0,0,100,101,102,103,84,85,86,87,0,0,0,0,0,132,133,134,135,135,0,0,0,0,0,0,0,0,0,0,0,100,101,102,103,0,0,0,0,0,0,
0,0,0,0,0,0,0,0,132,133,134,135,0,132,133,134,135,0,0,0,0,0,0,0,84,85,86,87,0,0,0,0,0,0,0,0,0,0,0,0,0,0,0,68,69,70,71,0,0,0,0,0,0,0,0,0,0,0,0,0,0,0,0,0,0,0,0,0,0,0,0,0,0,0,0,0,0,0,0,0,0,116,117,118,119,100,101,102,103,0,0,0,0,0,0,0,0,0,0,0,0,0,0,0,0,0,0,0,0,0,116,117,118,119,0,0,0,0,0,0
</data>
 </layer>
</map>
